P3
16 256
255
255 0 0 255 0 0 255 0 0 255 0 0 255 0 0 255 0 0 255 0 0 255 0 0 255 0 0 255 0 0 255 0 0 255 0 0 255 0 0 255 0 0 255 0 0 255 0 0 
255 21 3 255 21 3 255 21 3 255 21 3 255 21 3 255 21 3 255 21 3 255 21 3 255 21 3 255 21 3 255 21 3 255 21 3 255 21 3 255 21 3 255 21 3 255 21 3 
255 28 5 255 28 5 255 28 5 255 28 5 255 28 5 255 28 5 255 28 5 255 28 5 255 28 5 255 28 5 255 28 5 255 28 5 255 28 5 255 28 5 255 28 5 255 28 5 
255 34 7 255 34 7 255 34 7 255 34 7 255 34 7 255 34 7 255 34 7 255 34 7 255 34 7 255 34 7 255 34 7 255 34 7 255 34 7 255 34 7 255 34 7 255 34 7 
255 39 9 255 39 9 255 39 9 255 39 9 255 39 9 255 39 9 255 39 9 255 39 9 255 39 9 255 39 9 255 39 9 255 39 9 255 39 9 255 39 9 255 39 9 255 39 9 
255 43 11 255 43 11 255 43 11 255 43 11 255 43 11 255 43 11 255 43 11 255 43 11 255 43 11 255 43 11 255 43 11 255 43 11 255 43 11 255 43 11 255 43 11 255 43 11 
255 47 13 255 47 13 255 47 13 255 47 13 255 47 13 255 47 13 255 47 13 255 47 13 255 47 13 255 47 13 255 47 13 255 47 13 255 47 13 255 47 13 255 47 13 255 47 13 
255 50 15 255 50 15 255 50 15 255 50 15 255 50 15 255 50 15 255 50 15 255 50 15 255 50 15 255 50 15 255 50 15 255 50 15 255 50 15 255 50 15 255 50 15 255 50 15 
255 53 17 255 53 17 255 53 17 255 53 17 255 53 17 255 53 17 255 53 17 255 53 17 255 53 17 255 53 17 255 53 17 255 53 17 255 53 17 255 53 17 255 53 17 255 53 17 
255 56 18 255 56 18 255 56 18 255 56 18 255 56 18 255 56 18 255 56 18 255 56 18 255 56 18 255 56 18 255 56 18 255 56 18 255 56 18 255 56 18 255 56 18 255 56 18 
255 59 20 255 59 20 255 59 20 255 59 20 255 59 20 255 59 20 255 59 20 255 59 20 255 59 20 255 59 20 255 59 20 255 59 20 255 59 20 255 59 20 255 59 20 255 59 20 
255 61 22 255 61 22 255 61 22 255 61 22 255 61 22 255 61 22 255 61 22 255 61 22 255 61 22 255 61 22 255 61 22 255 61 22 255 61 22 255 61 22 255 61 22 255 61 22 
255 64 23 255 64 23 255 64 23 255 64 23 255 64 23 255 64 23 255 64 23 255 64 23 255 64 23 255 64 23 255 64 23 255 64 23 255 64 23 255 64 23 255 64 23 255 64 23 
255 66 25 255 66 25 255 66 25 255 66 25 255 66 25 255 66 25 255 66 25 255 66 25 255 66 25 255 66 25 255 66 25 255 66 25 255 66 25 255 66 25 255 66 25 255 66 25 
255 69 26 255 69 26 255 69 26 255 69 26 255 69 26 255 69 26 255 69 26 255 69 26 255 69 26 255 69 26 255 69 26 255 69 26 255 69 26 255 69 26 255 69 26 255 69 26 
255 71 28 255 71 28 255 71 28 255 71 28 255 71 28 255 71 28 255 71 28 255 71 28 255 71 28 255 71 28 255 71 28 255 71 28 255 71 28 255 71 28 255 71 28 255 71 28 
255 73 30 255 73 30 255 73 30 255 73 30 255 73 30 255 73 30 255 73 30 255 73 30 255 73 30 255 73 30 255 73 30 255 73 30 255 73 30 255 73 30 255 73 30 255 73 30 
255 75 31 255 75 31 255 75 31 255 75 31 255 75 31 255 75 31 255 75 31 255 75 31 255 75 31 255 75 31 255 75 31 255 75 31 255 75 31 255 75 31 255 75 31 255 75 31 
255 77 33 255 77 33 255 77 33 255 77 33 255 77 33 255 77 33 255 77 33 255 77 33 255 77 33 255 77 33 255 77 33 255 77 33 255 77 33 255 77 33 255 77 33 255 77 33 
255 79 34 255 79 34 255 79 34 255 79 34 255 79 34 255 79 34 255 79 34 255 79 34 255 79 34 255 79 34 255 79 34 255 79 34 255 79 34 255 79 34 255 79 34 255 79 34 
255 81 35 255 81 35 255 81 35 255 81 35 255 81 35 255 81 35 255 81 35 255 81 35 255 81 35 255 81 35 255 81 35 255 81 35 255 81 35 255 81 35 255 81 35 255 81 35 
255 82 37 255 82 37 255 82 37 255 82 37 255 82 37 255 82 37 255 82 37 255 82 37 255 82 37 255 82 37 255 82 37 255 82 37 255 82 37 255 82 37 255 82 37 255 82 37 
255 84 38 255 84 38 255 84 38 255 84 38 255 84 38 255 84 38 255 84 38 255 84 38 255 84 38 255 84 38 255 84 38 255 84 38 255 84 38 255 84 38 255 84 38 255 84 38 
255 86 40 255 86 40 255 86 40 255 86 40 255 86 40 255 86 40 255 86 40 255 86 40 255 86 40 255 86 40 255 86 40 255 86 40 255 86 40 255 86 40 255 86 40 255 86 40 
255 88 41 255 88 41 255 88 41 255 88 41 255 88 41 255 88 41 255 88 41 255 88 41 255 88 41 255 88 41 255 88 41 255 88 41 255 88 41 255 88 41 255 88 41 255 88 41 
255 89 42 255 89 42 255 89 42 255 89 42 255 89 42 255 89 42 255 89 42 255 89 42 255 89 42 255 89 42 255 89 42 255 89 42 255 89 42 255 89 42 255 89 42 255 89 42 
255 91 44 255 91 44 255 91 44 255 91 44 255 91 44 255 91 44 255 91 44 255 91 44 255 91 44 255 91 44 255 91 44 255 91 44 255 91 44 255 91 44 255 91 44 255 91 44 
255 92 45 255 92 45 255 92 45 255 92 45 255 92 45 255 92 45 255 92 45 255 92 45 255 92 45 255 92 45 255 92 45 255 92 45 255 92 45 255 92 45 255 92 45 255 92 45 
255 94 47 255 94 47 255 94 47 255 94 47 255 94 47 255 94 47 255 94 47 255 94 47 255 94 47 255 94 47 255 94 47 255 94 47 255 94 47 255 94 47 255 94 47 255 94 47 
255 95 48 255 95 48 255 95 48 255 95 48 255 95 48 255 95 48 255 95 48 255 95 48 255 95 48 255 95 48 255 95 48 255 95 48 255 95 48 255 95 48 255 95 48 255 95 48 
255 97 49 255 97 49 255 97 49 255 97 49 255 97 49 255 97 49 255 97 49 255 97 49 255 97 49 255 97 49 255 97 49 255 97 49 255 97 49 255 97 49 255 97 49 255 97 49 
255 98 50 255 98 50 255 98 50 255 98 50 255 98 50 255 98 50 255 98 50 255 98 50 255 98 50 255 98 50 255 98 50 255 98 50 255 98 50 255 98 50 255 98 50 255 98 50 
255 100 52 255 100 52 255 100 52 255 100 52 255 100 52 255 100 52 255 100 52 255 100 52 255 100 52 255 100 52 255 100 52 255 100 52 255 100 52 255 100 52 255 100 52 255 100 52 
255 101 53 255 101 53 255 101 53 255 101 53 255 101 53 255 101 53 255 101 53 255 101 53 255 101 53 255 101 53 255 101 53 255 101 53 255 101 53 255 101 53 255 101 53 255 101 53 
255 102 54 255 102 54 255 102 54 255 102 54 255 102 54 255 102 54 255 102 54 255 102 54 255 102 54 255 102 54 255 102 54 255 102 54 255 102 54 255 102 54 255 102 54 255 102 54 
255 104 56 255 104 56 255 104 56 255 104 56 255 104 56 255 104 56 255 104 56 255 104 56 255 104 56 255 104 56 255 104 56 255 104 56 255 104 56 255 104 56 255 104 56 255 104 56 
255 105 57 255 105 57 255 105 57 255 105 57 255 105 57 255 105 57 255 105 57 255 105 57 255 105 57 255 105 57 255 105 57 255 105 57 255 105 57 255 105 57 255 105 57 255 105 57 
255 106 58 255 106 58 255 106 58 255 106 58 255 106 58 255 106 58 255 106 58 255 106 58 255 106 58 255 106 58 255 106 58 255 106 58 255 106 58 255 106 58 255 106 58 255 106 58 
255 108 60 255 108 60 255 108 60 255 108 60 255 108 60 255 108 60 255 108 60 255 108 60 255 108 60 255 108 60 255 108 60 255 108 60 255 108 60 255 108 60 255 108 60 255 108 60 
255 109 61 255 109 61 255 109 61 255 109 61 255 109 61 255 109 61 255 109 61 255 109 61 255 109 61 255 109 61 255 109 61 255 109 61 255 109 61 255 109 61 255 109 61 255 109 61 
255 110 62 255 110 62 255 110 62 255 110 62 255 110 62 255 110 62 255 110 62 255 110 62 255 110 62 255 110 62 255 110 62 255 110 62 255 110 62 255 110 62 255 110 62 255 110 62 
255 112 63 255 112 63 255 112 63 255 112 63 255 112 63 255 112 63 255 112 63 255 112 63 255 112 63 255 112 63 255 112 63 255 112 63 255 112 63 255 112 63 255 112 63 255 112 63 
255 113 65 255 113 65 255 113 65 255 113 65 255 113 65 255 113 65 255 113 65 255 113 65 255 113 65 255 113 65 255 113 65 255 113 65 255 113 65 255 113 65 255 113 65 255 113 65 
255 114 66 255 114 66 255 114 66 255 114 66 255 114 66 255 114 66 255 114 66 255 114 66 255 114 66 255 114 66 255 114 66 255 114 66 255 114 66 255 114 66 255 114 66 255 114 66 
255 115 67 255 115 67 255 115 67 255 115 67 255 115 67 255 115 67 255 115 67 255 115 67 255 115 67 255 115 67 255 115 67 255 115 67 255 115 67 255 115 67 255 115 67 255 115 67 
255 116 68 255 116 68 255 116 68 255 116 68 255 116 68 255 116 68 255 116 68 255 116 68 255 116 68 255 116 68 255 116 68 255 116 68 255 116 68 255 116 68 255 116 68 255 116 68 
255 117 69 255 117 69 255 117 69 255 117 69 255 117 69 255 117 69 255 117 69 255 117 69 255 117 69 255 117 69 255 117 69 255 117 69 255 117 69 255 117 69 255 117 69 255 117 69 
255 119 71 255 119 71 255 119 71 255 119 71 255 119 71 255 119 71 255 119 71 255 119 71 255 119 71 255 119 71 255 119 71 255 119 71 255 119 71 255 119 71 255 119 71 255 119 71 
255 120 72 255 120 72 255 120 72 255 120 72 255 120 72 255 120 72 255 120 72 255 120 72 255 120 72 255 120 72 255 120 72 255 120 72 255 120 72 255 120 72 255 120 72 255 120 72 
255 121 73 255 121 73 255 121 73 255 121 73 255 121 73 255 121 73 255 121 73 255 121 73 255 121 73 255 121 73 255 121 73 255 121 73 255 121 73 255 121 73 255 121 73 255 121 73 
255 122 74 255 122 74 255 122 74 255 122 74 255 122 74 255 122 74 255 122 74 255 122 74 255 122 74 255 122 74 255 122 74 255 122 74 255 122 74 255 122 74 255 122 74 255 122 74 
255 123 75 255 123 75 255 123 75 255 123 75 255 123 75 255 123 75 255 123 75 255 123 75 255 123 75 255 123 75 255 123 75 255 123 75 255 123 75 255 123 75 255 123 75 255 123 75 
244 124 77 244 124 77 244 124 77 244 124 77 244 124 77 244 124 77 244 124 77 244 124 77 244 124 77 244 124 77 244 124 77 244 124 77 244 124 77 244 124 77 244 124 77 244 124 77 
239 125 78 239 125 78 239 125 78 239 125 78 239 125 78 239 125 78 239 125 78 239 125 78 239 125 78 239 125 78 239 125 78 239 125 78 239 125 78 239 125 78 239 125 78 239 125 78 
234 126 79 234 126 79 234 126 79 234 126 79 234 126 79 234 126 79 234 126 79 234 126 79 234 126 79 234 126 79 234 126 79 234 126 79 234 126 79 234 126 79 234 126 79 234 126 79 
230 127 80 230 127 80 230 127 80 230 127 80 230 127 80 230 127 80 230 127 80 230 127 80 230 127 80 230 127 80 230 127 80 230 127 80 230 127 80 230 127 80 230 127 80 230 127 80 
227 128 81 227 128 81 227 128 81 227 128 81 227 128 81 227 128 81 227 128 81 227 128 81 227 128 81 227 128 81 227 128 81 227 128 81 227 128 81 227 128 81 227 128 81 227 128 81 
224 129 83 224 129 83 224 129 83 224 129 83 224 129 83 224 129 83 224 129 83 224 129 83 224 129 83 224 129 83 224 129 83 224 129 83 224 129 83 224 129 83 224 129 83 224 129 83 
221 130 84 221 130 84 221 130 84 221 130 84 221 130 84 221 130 84 221 130 84 221 130 84 221 130 84 221 130 84 221 130 84 221 130 84 221 130 84 221 130 84 221 130 84 221 130 84 
218 131 85 218 131 85 218 131 85 218 131 85 218 131 85 218 131 85 218 131 85 218 131 85 218 131 85 218 131 85 218 131 85 218 131 85 218 131 85 218 131 85 218 131 85 218 131 85 
215 132 86 215 132 86 215 132 86 215 132 86 215 132 86 215 132 86 215 132 86 215 132 86 215 132 86 215 132 86 215 132 86 215 132 86 215 132 86 215 132 86 215 132 86 215 132 86 
213 133 87 213 133 87 213 133 87 213 133 87 213 133 87 213 133 87 213 133 87 213 133 87 213 133 87 213 133 87 213 133 87 213 133 87 213 133 87 213 133 87 213 133 87 213 133 87 
210 134 88 210 134 88 210 134 88 210 134 88 210 134 88 210 134 88 210 134 88 210 134 88 210 134 88 210 134 88 210 134 88 210 134 88 210 134 88 210 134 88 210 134 88 210 134 88 
208 135 89 208 135 89 208 135 89 208 135 89 208 135 89 208 135 89 208 135 89 208 135 89 208 135 89 208 135 89 208 135 89 208 135 89 208 135 89 208 135 89 208 135 89 208 135 89 
206 136 91 206 136 91 206 136 91 206 136 91 206 136 91 206 136 91 206 136 91 206 136 91 206 136 91 206 136 91 206 136 91 206 136 91 206 136 91 206 136 91 206 136 91 206 136 91 
203 137 92 203 137 92 203 137 92 203 137 92 203 137 92 203 137 92 203 137 92 203 137 92 203 137 92 203 137 92 203 137 92 203 137 92 203 137 92 203 137 92 203 137 92 203 137 92 
201 138 93 201 138 93 201 138 93 201 138 93 201 138 93 201 138 93 201 138 93 201 138 93 201 138 93 201 138 93 201 138 93 201 138 93 201 138 93 201 138 93 201 138 93 201 138 93 
199 139 94 199 139 94 199 139 94 199 139 94 199 139 94 199 139 94 199 139 94 199 139 94 199 139 94 199 139 94 199 139 94 199 139 94 199 139 94 199 139 94 199 139 94 199 139 94 
197 140 95 197 140 95 197 140 95 197 140 95 197 140 95 197 140 95 197 140 95 197 140 95 197 140 95 197 140 95 197 140 95 197 140 95 197 140 95 197 140 95 197 140 95 197 140 95 
195 141 96 195 141 96 195 141 96 195 141 96 195 141 96 195 141 96 195 141 96 195 141 96 195 141 96 195 141 96 195 141 96 195 141 96 195 141 96 195 141 96 195 141 96 195 141 96 
193 142 97 193 142 97 193 142 97 193 142 97 193 142 97 193 142 97 193 142 97 193 142 97 193 142 97 193 142 97 193 142 97 193 142 97 193 142 97 193 142 97 193 142 97 193 142 97 
191 143 98 191 143 98 191 143 98 191 143 98 191 143 98 191 143 98 191 143 98 191 143 98 191 143 98 191 143 98 191 143 98 191 143 98 191 143 98 191 143 98 191 143 98 191 143 98 
189 144 100 189 144 100 189 144 100 189 144 100 189 144 100 189 144 100 189 144 100 189 144 100 189 144 100 189 144 100 189 144 100 189 144 100 189 144 100 189 144 100 189 144 100 189 144 100 
187 145 101 187 145 101 187 145 101 187 145 101 187 145 101 187 145 101 187 145 101 187 145 101 187 145 101 187 145 101 187 145 101 187 145 101 187 145 101 187 145 101 187 145 101 187 145 101 
186 146 102 186 146 102 186 146 102 186 146 102 186 146 102 186 146 102 186 146 102 186 146 102 186 146 102 186 146 102 186 146 102 186 146 102 186 146 102 186 146 102 186 146 102 186 146 102 
184 147 103 184 147 103 184 147 103 184 147 103 184 147 103 184 147 103 184 147 103 184 147 103 184 147 103 184 147 103 184 147 103 184 147 103 184 147 103 184 147 103 184 147 103 184 147 103 
182 147 104 182 147 104 182 147 104 182 147 104 182 147 104 182 147 104 182 147 104 182 147 104 182 147 104 182 147 104 182 147 104 182 147 104 182 147 104 182 147 104 182 147 104 182 147 104 
180 148 105 180 148 105 180 148 105 180 148 105 180 148 105 180 148 105 180 148 105 180 148 105 180 148 105 180 148 105 180 148 105 180 148 105 180 148 105 180 148 105 180 148 105 180 148 105 
179 149 106 179 149 106 179 149 106 179 149 106 179 149 106 179 149 106 179 149 106 179 149 106 179 149 106 179 149 106 179 149 106 179 149 106 179 149 106 179 149 106 179 149 106 179 149 106 
177 150 107 177 150 107 177 150 107 177 150 107 177 150 107 177 150 107 177 150 107 177 150 107 177 150 107 177 150 107 177 150 107 177 150 107 177 150 107 177 150 107 177 150 107 177 150 107 
175 151 108 175 151 108 175 151 108 175 151 108 175 151 108 175 151 108 175 151 108 175 151 108 175 151 108 175 151 108 175 151 108 175 151 108 175 151 108 175 151 108 175 151 108 175 151 108 
174 152 109 174 152 109 174 152 109 174 152 109 174 152 109 174 152 109 174 152 109 174 152 109 174 152 109 174 152 109 174 152 109 174 152 109 174 152 109 174 152 109 174 152 109 174 152 109 
172 153 111 172 153 111 172 153 111 172 153 111 172 153 111 172 153 111 172 153 111 172 153 111 172 153 111 172 153 111 172 153 111 172 153 111 172 153 111 172 153 111 172 153 111 172 153 111 
171 153 112 171 153 112 171 153 112 171 153 112 171 153 112 171 153 112 171 153 112 171 153 112 171 153 112 171 153 112 171 153 112 171 153 112 171 153 112 171 153 112 171 153 112 171 153 112 
169 154 113 169 154 113 169 154 113 169 154 113 169 154 113 169 154 113 169 154 113 169 154 113 169 154 113 169 154 113 169 154 113 169 154 113 169 154 113 169 154 113 169 154 113 169 154 113 
167 155 114 167 155 114 167 155 114 167 155 114 167 155 114 167 155 114 167 155 114 167 155 114 167 155 114 167 155 114 167 155 114 167 155 114 167 155 114 167 155 114 167 155 114 167 155 114 
166 156 115 166 156 115 166 156 115 166 156 115 166 156 115 166 156 115 166 156 115 166 156 115 166 156 115 166 156 115 166 156 115 166 156 115 166 156 115 166 156 115 166 156 115 166 156 115 
164 157 116 164 157 116 164 157 116 164 157 116 164 157 116 164 157 116 164 157 116 164 157 116 164 157 116 164 157 116 164 157 116 164 157 116 164 157 116 164 157 116 164 157 116 164 157 116 
163 157 117 163 157 117 163 157 117 163 157 117 163 157 117 163 157 117 163 157 117 163 157 117 163 157 117 163 157 117 163 157 117 163 157 117 163 157 117 163 157 117 163 157 117 163 157 117 
161 158 118 161 158 118 161 158 118 161 158 118 161 158 118 161 158 118 161 158 118 161 158 118 161 158 118 161 158 118 161 158 118 161 158 118 161 158 118 161 158 118 161 158 118 161 158 118 
160 159 119 160 159 119 160 159 119 160 159 119 160 159 119 160 159 119 160 159 119 160 159 119 160 159 119 160 159 119 160 159 119 160 159 119 160 159 119 160 159 119 160 159 119 160 159 119 
159 160 120 159 160 120 159 160 120 159 160 120 159 160 120 159 160 120 159 160 120 159 160 120 159 160 120 159 160 120 159 160 120 159 160 120 159 160 120 159 160 120 159 160 120 159 160 120 
157 161 121 157 161 121 157 161 121 157 161 121 157 161 121 157 161 121 157 161 121 157 161 121 157 161 121 157 161 121 157 161 121 157 161 121 157 161 121 157 161 121 157 161 121 157 161 121 
156 161 122 156 161 122 156 161 122 156 161 122 156 161 122 156 161 122 156 161 122 156 161 122 156 161 122 156 161 122 156 161 122 156 161 122 156 161 122 156 161 122 156 161 122 156 161 122 
154 162 123 154 162 123 154 162 123 154 162 123 154 162 123 154 162 123 154 162 123 154 162 123 154 162 123 154 162 123 154 162 123 154 162 123 154 162 123 154 162 123 154 162 123 154 162 123 
153 163 124 153 163 124 153 163 124 153 163 124 153 163 124 153 163 124 153 163 124 153 163 124 153 163 124 153 163 124 153 163 124 153 163 124 153 163 124 153 163 124 153 163 124 153 163 124 
152 164 125 152 164 125 152 164 125 152 164 125 152 164 125 152 164 125 152 164 125 152 164 125 152 164 125 152 164 125 152 164 125 152 164 125 152 164 125 152 164 125 152 164 125 152 164 125 
150 165 127 150 165 127 150 165 127 150 165 127 150 165 127 150 165 127 150 165 127 150 165 127 150 165 127 150 165 127 150 165 127 150 165 127 150 165 127 150 165 127 150 165 127 150 165 127 
149 165 128 149 165 128 149 165 128 149 165 128 149 165 128 149 165 128 149 165 128 149 165 128 149 165 128 149 165 128 149 165 128 149 165 128 149 165 128 149 165 128 149 165 128 149 165 128 
147 166 129 147 166 129 147 166 129 147 166 129 147 166 129 147 166 129 147 166 129 147 166 129 147 166 129 147 166 129 147 166 129 147 166 129 147 166 129 147 166 129 147 166 129 147 166 129 
146 167 130 146 167 130 146 167 130 146 167 130 146 167 130 146 167 130 146 167 130 146 167 130 146 167 130 146 167 130 146 167 130 146 167 130 146 167 130 146 167 130 146 167 130 146 167 130 
145 168 131 145 168 131 145 168 131 145 168 131 145 168 131 145 168 131 145 168 131 145 168 131 145 168 131 145 168 131 145 168 131 145 168 131 145 168 131 145 168 131 145 168 131 145 168 131 
144 168 132 144 168 132 144 168 132 144 168 132 144 168 132 144 168 132 144 168 132 144 168 132 144 168 132 144 168 132 144 168 132 144 168 132 144 168 132 144 168 132 144 168 132 144 168 132 
142 169 133 142 169 133 142 169 133 142 169 133 142 169 133 142 169 133 142 169 133 142 169 133 142 169 133 142 169 133 142 169 133 142 169 133 142 169 133 142 169 133 142 169 133 142 169 133 
141 170 134 141 170 134 141 170 134 141 170 134 141 170 134 141 170 134 141 170 134 141 170 134 141 170 134 141 170 134 141 170 134 141 170 134 141 170 134 141 170 134 141 170 134 141 170 134 
140 171 135 140 171 135 140 171 135 140 171 135 140 171 135 140 171 135 140 171 135 140 171 135 140 171 135 140 171 135 140 171 135 140 171 135 140 171 135 140 171 135 140 171 135 140 171 135 
138 171 136 138 171 136 138 171 136 138 171 136 138 171 136 138 171 136 138 171 136 138 171 136 138 171 136 138 171 136 138 171 136 138 171 136 138 171 136 138 171 136 138 171 136 138 171 136 
137 172 137 137 172 137 137 172 137 137 172 137 137 172 137 137 172 137 137 172 137 137 172 137 137 172 137 137 172 137 137 172 137 137 172 137 137 172 137 137 172 137 137 172 137 137 172 137 
136 173 138 136 173 138 136 173 138 136 173 138 136 173 138 136 173 138 136 173 138 136 173 138 136 173 138 136 173 138 136 173 138 136 173 138 136 173 138 136 173 138 136 173 138 136 173 138 
135 173 139 135 173 139 135 173 139 135 173 139 135 173 139 135 173 139 135 173 139 135 173 139 135 173 139 135 173 139 135 173 139 135 173 139 135 173 139 135 173 139 135 173 139 135 173 139 
133 174 140 133 174 140 133 174 140 133 174 140 133 174 140 133 174 140 133 174 140 133 174 140 133 174 140 133 174 140 133 174 140 133 174 140 133 174 140 133 174 140 133 174 140 133 174 140 
132 175 141 132 175 141 132 175 141 132 175 141 132 175 141 132 175 141 132 175 141 132 175 141 132 175 141 132 175 141 132 175 141 132 175 141 132 175 141 132 175 141 132 175 141 132 175 141 
131 176 142 131 176 142 131 176 142 131 176 142 131 176 142 131 176 142 131 176 142 131 176 142 131 176 142 131 176 142 131 176 142 131 176 142 131 176 142 131 176 142 131 176 142 131 176 142 
130 176 143 130 176 143 130 176 143 130 176 143 130 176 143 130 176 143 130 176 143 130 176 143 130 176 143 130 176 143 130 176 143 130 176 143 130 176 143 130 176 143 130 176 143 130 176 143 
129 177 144 129 177 144 129 177 144 129 177 144 129 177 144 129 177 144 129 177 144 129 177 144 129 177 144 129 177 144 129 177 144 129 177 144 129 177 144 129 177 144 129 177 144 129 177 144 
127 178 145 127 178 145 127 178 145 127 178 145 127 178 145 127 178 145 127 178 145 127 178 145 127 178 145 127 178 145 127 178 145 127 178 145 127 178 145 127 178 145 127 178 145 127 178 145 
126 178 146 126 178 146 126 178 146 126 178 146 126 178 146 126 178 146 126 178 146 126 178 146 126 178 146 126 178 146 126 178 146 126 178 146 126 178 146 126 178 146 126 178 146 126 178 146 
125 179 147 125 179 147 125 179 147 125 179 147 125 179 147 125 179 147 125 179 147 125 179 147 125 179 147 125 179 147 125 179 147 125 179 147 125 179 147 125 179 147 125 179 147 125 179 147 
124 180 148 124 180 148 124 180 148 124 180 148 124 180 148 124 180 148 124 180 148 124 180 148 124 180 148 124 180 148 124 180 148 124 180 148 124 180 148 124 180 148 124 180 148 124 180 148 
123 180 149 123 180 149 123 180 149 123 180 149 123 180 149 123 180 149 123 180 149 123 180 149 123 180 149 123 180 149 123 180 149 123 180 149 123 180 149 123 180 149 123 180 149 123 180 149 
121 181 150 121 181 150 121 181 150 121 181 150 121 181 150 121 181 150 121 181 150 121 181 150 121 181 150 121 181 150 121 181 150 121 181 150 121 181 150 121 181 150 121 181 150 121 181 150 
120 182 151 120 182 151 120 182 151 120 182 151 120 182 151 120 182 151 120 182 151 120 182 151 120 182 151 120 182 151 120 182 151 120 182 151 120 182 151 120 182 151 120 182 151 120 182 151 
119 183 152 119 183 152 119 183 152 119 183 152 119 183 152 119 183 152 119 183 152 119 183 152 119 183 152 119 183 152 119 183 152 119 183 152 119 183 152 119 183 152 119 183 152 119 183 152 
118 183 153 118 183 153 118 183 153 118 183 153 118 183 153 118 183 153 118 183 153 118 183 153 118 183 153 118 183 153 118 183 153 118 183 153 118 183 153 118 183 153 118 183 153 118 183 153 
117 184 154 117 184 154 117 184 154 117 184 154 117 184 154 117 184 154 117 184 154 117 184 154 117 184 154 117 184 154 117 184 154 117 184 154 117 184 154 117 184 154 117 184 154 117 184 154 
116 185 155 116 185 155 116 185 155 116 185 155 116 185 155 116 185 155 116 185 155 116 185 155 116 185 155 116 185 155 116 185 155 116 185 155 116 185 155 116 185 155 116 185 155 116 185 155 
115 185 156 115 185 156 115 185 156 115 185 156 115 185 156 115 185 156 115 185 156 115 185 156 115 185 156 115 185 156 115 185 156 115 185 156 115 185 156 115 185 156 115 185 156 115 185 156 
113 186 157 113 186 157 113 186 157 113 186 157 113 186 157 113 186 157 113 186 157 113 186 157 113 186 157 113 186 157 113 186 157 113 186 157 113 186 157 113 186 157 113 186 157 113 186 157 
112 186 158 112 186 158 112 186 158 112 186 158 112 186 158 112 186 158 112 186 158 112 186 158 112 186 158 112 186 158 112 186 158 112 186 158 112 186 158 112 186 158 112 186 158 112 186 158 
111 187 159 111 187 159 111 187 159 111 187 159 111 187 159 111 187 159 111 187 159 111 187 159 111 187 159 111 187 159 111 187 159 111 187 159 111 187 159 111 187 159 111 187 159 111 187 159 
110 188 160 110 188 160 110 188 160 110 188 160 110 188 160 110 188 160 110 188 160 110 188 160 110 188 160 110 188 160 110 188 160 110 188 160 110 188 160 110 188 160 110 188 160 110 188 160 
109 188 161 109 188 161 109 188 161 109 188 161 109 188 161 109 188 161 109 188 161 109 188 161 109 188 161 109 188 161 109 188 161 109 188 161 109 188 161 109 188 161 109 188 161 109 188 161 
108 189 162 108 189 162 108 189 162 108 189 162 108 189 162 108 189 162 108 189 162 108 189 162 108 189 162 108 189 162 108 189 162 108 189 162 108 189 162 108 189 162 108 189 162 108 189 162 
107 190 163 107 190 163 107 190 163 107 190 163 107 190 163 107 190 163 107 190 163 107 190 163 107 190 163 107 190 163 107 190 163 107 190 163 107 190 163 107 190 163 107 190 163 107 190 163 
106 190 164 106 190 164 106 190 164 106 190 164 106 190 164 106 190 164 106 190 164 106 190 164 106 190 164 106 190 164 106 190 164 106 190 164 106 190 164 106 190 164 106 190 164 106 190 164 
105 191 165 105 191 165 105 191 165 105 191 165 105 191 165 105 191 165 105 191 165 105 191 165 105 191 165 105 191 165 105 191 165 105 191 165 105 191 165 105 191 165 105 191 165 105 191 165 
104 192 166 104 192 166 104 192 166 104 192 166 104 192 166 104 192 166 104 192 166 104 192 166 104 192 166 104 192 166 104 192 166 104 192 166 104 192 166 104 192 166 104 192 166 104 192 166 
103 192 167 103 192 167 103 192 167 103 192 167 103 192 167 103 192 167 103 192 167 103 192 167 103 192 167 103 192 167 103 192 167 103 192 167 103 192 167 103 192 167 103 192 167 103 192 167 
102 193 168 102 193 168 102 193 168 102 193 168 102 193 168 102 193 168 102 193 168 102 193 168 102 193 168 102 193 168 102 193 168 102 193 168 102 193 168 102 193 168 102 193 168 102 193 168 
101 194 169 101 194 169 101 194 169 101 194 169 101 194 169 101 194 169 101 194 169 101 194 169 101 194 169 101 194 169 101 194 169 101 194 169 101 194 169 101 194 169 101 194 169 101 194 169 
99 194 170 99 194 170 99 194 170 99 194 170 99 194 170 99 194 170 99 194 170 99 194 170 99 194 170 99 194 170 99 194 170 99 194 170 99 194 170 99 194 170 99 194 170 99 194 170 
98 195 171 98 195 171 98 195 171 98 195 171 98 195 171 98 195 171 98 195 171 98 195 171 98 195 171 98 195 171 98 195 171 98 195 171 98 195 171 98 195 171 98 195 171 98 195 171 
97 195 172 97 195 172 97 195 172 97 195 172 97 195 172 97 195 172 97 195 172 97 195 172 97 195 172 97 195 172 97 195 172 97 195 172 97 195 172 97 195 172 97 195 172 97 195 172 
96 196 173 96 196 173 96 196 173 96 196 173 96 196 173 96 196 173 96 196 173 96 196 173 96 196 173 96 196 173 96 196 173 96 196 173 96 196 173 96 196 173 96 196 173 96 196 173 
95 197 174 95 197 174 95 197 174 95 197 174 95 197 174 95 197 174 95 197 174 95 197 174 95 197 174 95 197 174 95 197 174 95 197 174 95 197 174 95 197 174 95 197 174 95 197 174 
94 197 175 94 197 175 94 197 175 94 197 175 94 197 175 94 197 175 94 197 175 94 197 175 94 197 175 94 197 175 94 197 175 94 197 175 94 197 175 94 197 175 94 197 175 94 197 175 
93 198 176 93 198 176 93 198 176 93 198 176 93 198 176 93 198 176 93 198 176 93 198 176 93 198 176 93 198 176 93 198 176 93 198 176 93 198 176 93 198 176 93 198 176 93 198 176 
92 199 177 92 199 177 92 199 177 92 199 177 92 199 177 92 199 177 92 199 177 92 199 177 92 199 177 92 199 177 92 199 177 92 199 177 92 199 177 92 199 177 92 199 177 92 199 177 
91 199 178 91 199 178 91 199 178 91 199 178 91 199 178 91 199 178 91 199 178 91 199 178 91 199 178 91 199 178 91 199 178 91 199 178 91 199 178 91 199 178 91 199 178 91 199 178 
90 200 179 90 200 179 90 200 179 90 200 179 90 200 179 90 200 179 90 200 179 90 200 179 90 200 179 90 200 179 90 200 179 90 200 179 90 200 179 90 200 179 90 200 179 90 200 179 
89 200 180 89 200 180 89 200 180 89 200 180 89 200 180 89 200 180 89 200 180 89 200 180 89 200 180 89 200 180 89 200 180 89 200 180 89 200 180 89 200 180 89 200 180 89 200 180 
88 201 180 88 201 180 88 201 180 88 201 180 88 201 180 88 201 180 88 201 180 88 201 180 88 201 180 88 201 180 88 201 180 88 201 180 88 201 180 88 201 180 88 201 180 88 201 180 
87 202 181 87 202 181 87 202 181 87 202 181 87 202 181 87 202 181 87 202 181 87 202 181 87 202 181 87 202 181 87 202 181 87 202 181 87 202 181 87 202 181 87 202 181 87 202 181 
86 202 182 86 202 182 86 202 182 86 202 182 86 202 182 86 202 182 86 202 182 86 202 182 86 202 182 86 202 182 86 202 182 86 202 182 86 202 182 86 202 182 86 202 182 86 202 182 
85 203 183 85 203 183 85 203 183 85 203 183 85 203 183 85 203 183 85 203 183 85 203 183 85 203 183 85 203 183 85 203 183 85 203 183 85 203 183 85 203 183 85 203 183 85 203 183 
84 203 184 84 203 184 84 203 184 84 203 184 84 203 184 84 203 184 84 203 184 84 203 184 84 203 184 84 203 184 84 203 184 84 203 184 84 203 184 84 203 184 84 203 184 84 203 184 
83 204 185 83 204 185 83 204 185 83 204 185 83 204 185 83 204 185 83 204 185 83 204 185 83 204 185 83 204 185 83 204 185 83 204 185 83 204 185 83 204 185 83 204 185 83 204 185 
82 204 186 82 204 186 82 204 186 82 204 186 82 204 186 82 204 186 82 204 186 82 204 186 82 204 186 82 204 186 82 204 186 82 204 186 82 204 186 82 204 186 82 204 186 82 204 186 
81 205 187 81 205 187 81 205 187 81 205 187 81 205 187 81 205 187 81 205 187 81 205 187 81 205 187 81 205 187 81 205 187 81 205 187 81 205 187 81 205 187 81 205 187 81 205 187 
80 206 188 80 206 188 80 206 188 80 206 188 80 206 188 80 206 188 80 206 188 80 206 188 80 206 188 80 206 188 80 206 188 80 206 188 80 206 188 80 206 188 80 206 188 80 206 188 
79 206 189 79 206 189 79 206 189 79 206 189 79 206 189 79 206 189 79 206 189 79 206 189 79 206 189 79 206 189 79 206 189 79 206 189 79 206 189 79 206 189 79 206 189 79 206 189 
78 207 190 78 207 190 78 207 190 78 207 190 78 207 190 78 207 190 78 207 190 78 207 190 78 207 190 78 207 190 78 207 190 78 207 190 78 207 190 78 207 190 78 207 190 78 207 190 
78 207 191 78 207 191 78 207 191 78 207 191 78 207 191 78 207 191 78 207 191 78 207 191 78 207 191 78 207 191 78 207 191 78 207 191 78 207 191 78 207 191 78 207 191 78 207 191 
77 208 192 77 208 192 77 208 192 77 208 192 77 208 192 77 208 192 77 208 192 77 208 192 77 208 192 77 208 192 77 208 192 77 208 192 77 208 192 77 208 192 77 208 192 77 208 192 
76 209 193 76 209 193 76 209 193 76 209 193 76 209 193 76 209 193 76 209 193 76 209 193 76 209 193 76 209 193 76 209 193 76 209 193 76 209 193 76 209 193 76 209 193 76 209 193 
75 209 194 75 209 194 75 209 194 75 209 194 75 209 194 75 209 194 75 209 194 75 209 194 75 209 194 75 209 194 75 209 194 75 209 194 75 209 194 75 209 194 75 209 194 75 209 194 
74 210 195 74 210 195 74 210 195 74 210 195 74 210 195 74 210 195 74 210 195 74 210 195 74 210 195 74 210 195 74 210 195 74 210 195 74 210 195 74 210 195 74 210 195 74 210 195 
73 210 196 73 210 196 73 210 196 73 210 196 73 210 196 73 210 196 73 210 196 73 210 196 73 210 196 73 210 196 73 210 196 73 210 196 73 210 196 73 210 196 73 210 196 73 210 196 
72 211 197 72 211 197 72 211 197 72 211 197 72 211 197 72 211 197 72 211 197 72 211 197 72 211 197 72 211 197 72 211 197 72 211 197 72 211 197 72 211 197 72 211 197 72 211 197 
71 211 198 71 211 198 71 211 198 71 211 198 71 211 198 71 211 198 71 211 198 71 211 198 71 211 198 71 211 198 71 211 198 71 211 198 71 211 198 71 211 198 71 211 198 71 211 198 
70 212 198 70 212 198 70 212 198 70 212 198 70 212 198 70 212 198 70 212 198 70 212 198 70 212 198 70 212 198 70 212 198 70 212 198 70 212 198 70 212 198 70 212 198 70 212 198 
69 213 199 69 213 199 69 213 199 69 213 199 69 213 199 69 213 199 69 213 199 69 213 199 69 213 199 69 213 199 69 213 199 69 213 199 69 213 199 69 213 199 69 213 199 69 213 199 
68 213 200 68 213 200 68 213 200 68 213 200 68 213 200 68 213 200 68 213 200 68 213 200 68 213 200 68 213 200 68 213 200 68 213 200 68 213 200 68 213 200 68 213 200 68 213 200 
67 214 201 67 214 201 67 214 201 67 214 201 67 214 201 67 214 201 67 214 201 67 214 201 67 214 201 67 214 201 67 214 201 67 214 201 67 214 201 67 214 201 67 214 201 67 214 201 
66 214 202 66 214 202 66 214 202 66 214 202 66 214 202 66 214 202 66 214 202 66 214 202 66 214 202 66 214 202 66 214 202 66 214 202 66 214 202 66 214 202 66 214 202 66 214 202 
65 215 203 65 215 203 65 215 203 65 215 203 65 215 203 65 215 203 65 215 203 65 215 203 65 215 203 65 215 203 65 215 203 65 215 203 65 215 203 65 215 203 65 215 203 65 215 203 
64 215 204 64 215 204 64 215 204 64 215 204 64 215 204 64 215 204 64 215 204 64 215 204 64 215 204 64 215 204 64 215 204 64 215 204 64 215 204 64 215 204 64 215 204 64 215 204 
64 216 205 64 216 205 64 216 205 64 216 205 64 216 205 64 216 205 64 216 205 64 216 205 64 216 205 64 216 205 64 216 205 64 216 205 64 216 205 64 216 205 64 216 205 64 216 205 
63 216 206 63 216 206 63 216 206 63 216 206 63 216 206 63 216 206 63 216 206 63 216 206 63 216 206 63 216 206 63 216 206 63 216 206 63 216 206 63 216 206 63 216 206 63 216 206 
62 217 207 62 217 207 62 217 207 62 217 207 62 217 207 62 217 207 62 217 207 62 217 207 62 217 207 62 217 207 62 217 207 62 217 207 62 217 207 62 217 207 62 217 207 62 217 207 
61 218 208 61 218 208 61 218 208 61 218 208 61 218 208 61 218 208 61 218 208 61 218 208 61 218 208 61 218 208 61 218 208 61 218 208 61 218 208 61 218 208 61 218 208 61 218 208 
60 218 209 60 218 209 60 218 209 60 218 209 60 218 209 60 218 209 60 218 209 60 218 209 60 218 209 60 218 209 60 218 209 60 218 209 60 218 209 60 218 209 60 218 209 60 218 209 
59 219 210 59 219 210 59 219 210 59 219 210 59 219 210 59 219 210 59 219 210 59 219 210 59 219 210 59 219 210 59 219 210 59 219 210 59 219 210 59 219 210 59 219 210 59 219 210 
58 219 211 58 219 211 58 219 211 58 219 211 58 219 211 58 219 211 58 219 211 58 219 211 58 219 211 58 219 211 58 219 211 58 219 211 58 219 211 58 219 211 58 219 211 58 219 211 
57 220 211 57 220 211 57 220 211 57 220 211 57 220 211 57 220 211 57 220 211 57 220 211 57 220 211 57 220 211 57 220 211 57 220 211 57 220 211 57 220 211 57 220 211 57 220 211 
56 220 212 56 220 212 56 220 212 56 220 212 56 220 212 56 220 212 56 220 212 56 220 212 56 220 212 56 220 212 56 220 212 56 220 212 56 220 212 56 220 212 56 220 212 56 220 212 
55 221 213 55 221 213 55 221 213 55 221 213 55 221 213 55 221 213 55 221 213 55 221 213 55 221 213 55 221 213 55 221 213 55 221 213 55 221 213 55 221 213 55 221 213 55 221 213 
55 221 214 55 221 214 55 221 214 55 221 214 55 221 214 55 221 214 55 221 214 55 221 214 55 221 214 55 221 214 55 221 214 55 221 214 55 221 214 55 221 214 55 221 214 55 221 214 
54 222 215 54 222 215 54 222 215 54 222 215 54 222 215 54 222 215 54 222 215 54 222 215 54 222 215 54 222 215 54 222 215 54 222 215 54 222 215 54 222 215 54 222 215 54 222 215 
53 222 216 53 222 216 53 222 216 53 222 216 53 222 216 53 222 216 53 222 216 53 222 216 53 222 216 53 222 216 53 222 216 53 222 216 53 222 216 53 222 216 53 222 216 53 222 216 
52 223 217 52 223 217 52 223 217 52 223 217 52 223 217 52 223 217 52 223 217 52 223 217 52 223 217 52 223 217 52 223 217 52 223 217 52 223 217 52 223 217 52 223 217 52 223 217 
51 223 218 51 223 218 51 223 218 51 223 218 51 223 218 51 223 218 51 223 218 51 223 218 51 223 218 51 223 218 51 223 218 51 223 218 51 223 218 51 223 218 51 223 218 51 223 218 
50 224 219 50 224 219 50 224 219 50 224 219 50 224 219 50 224 219 50 224 219 50 224 219 50 224 219 50 224 219 50 224 219 50 224 219 50 224 219 50 224 219 50 224 219 50 224 219 
49 224 220 49 224 220 49 224 220 49 224 220 49 224 220 49 224 220 49 224 220 49 224 220 49 224 220 49 224 220 49 224 220 49 224 220 49 224 220 49 224 220 49 224 220 49 224 220 
48 225 221 48 225 221 48 225 221 48 225 221 48 225 221 48 225 221 48 225 221 48 225 221 48 225 221 48 225 221 48 225 221 48 225 221 48 225 221 48 225 221 48 225 221 48 225 221 
48 226 222 48 226 222 48 226 222 48 226 222 48 226 222 48 226 222 48 226 222 48 226 222 48 226 222 48 226 222 48 226 222 48 226 222 48 226 222 48 226 222 48 226 222 48 226 222 
47 226 222 47 226 222 47 226 222 47 226 222 47 226 222 47 226 222 47 226 222 47 226 222 47 226 222 47 226 222 47 226 222 47 226 222 47 226 222 47 226 222 47 226 222 47 226 222 
46 227 223 46 227 223 46 227 223 46 227 223 46 227 223 46 227 223 46 227 223 46 227 223 46 227 223 46 227 223 46 227 223 46 227 223 46 227 223 46 227 223 46 227 223 46 227 223 
45 227 224 45 227 224 45 227 224 45 227 224 45 227 224 45 227 224 45 227 224 45 227 224 45 227 224 45 227 224 45 227 224 45 227 224 45 227 224 45 227 224 45 227 224 45 227 224 
44 228 225 44 228 225 44 228 225 44 228 225 44 228 225 44 228 225 44 228 225 44 228 225 44 228 225 44 228 225 44 228 225 44 228 225 44 228 225 44 228 225 44 228 225 44 228 225 
43 228 226 43 228 226 43 228 226 43 228 226 43 228 226 43 228 226 43 228 226 43 228 226 43 228 226 43 228 226 43 228 226 43 228 226 43 228 226 43 228 226 43 228 226 43 228 226 
42 229 227 42 229 227 42 229 227 42 229 227 42 229 227 42 229 227 42 229 227 42 229 227 42 229 227 42 229 227 42 229 227 42 229 227 42 229 227 42 229 227 42 229 227 42 229 227 
42 229 228 42 229 228 42 229 228 42 229 228 42 229 228 42 229 228 42 229 228 42 229 228 42 229 228 42 229 228 42 229 228 42 229 228 42 229 228 42 229 228 42 229 228 42 229 228 
41 230 229 41 230 229 41 230 229 41 230 229 41 230 229 41 230 229 41 230 229 41 230 229 41 230 229 41 230 229 41 230 229 41 230 229 41 230 229 41 230 229 41 230 229 41 230 229 
40 230 230 40 230 230 40 230 230 40 230 230 40 230 230 40 230 230 40 230 230 40 230 230 40 230 230 40 230 230 40 230 230 40 230 230 40 230 230 40 230 230 40 230 230 40 230 230 
39 231 231 39 231 231 39 231 231 39 231 231 39 231 231 39 231 231 39 231 231 39 231 231 39 231 231 39 231 231 39 231 231 39 231 231 39 231 231 39 231 231 39 231 231 39 231 231 
38 231 232 38 231 232 38 231 232 38 231 232 38 231 232 38 231 232 38 231 232 38 231 232 38 231 232 38 231 232 38 231 232 38 231 232 38 231 232 38 231 232 38 231 232 38 231 232 
37 232 232 37 232 232 37 232 232 37 232 232 37 232 232 37 232 232 37 232 232 37 232 232 37 232 232 37 232 232 37 232 232 37 232 232 37 232 232 37 232 232 37 232 232 37 232 232 
37 232 233 37 232 233 37 232 233 37 232 233 37 232 233 37 232 233 37 232 233 37 232 233 37 232 233 37 232 233 37 232 233 37 232 233 37 232 233 37 232 233 37 232 233 37 232 233 
36 233 234 36 233 234 36 233 234 36 233 234 36 233 234 36 233 234 36 233 234 36 233 234 36 233 234 36 233 234 36 233 234 36 233 234 36 233 234 36 233 234 36 233 234 36 233 234 
35 233 235 35 233 235 35 233 235 35 233 235 35 233 235 35 233 235 35 233 235 35 233 235 35 233 235 35 233 235 35 233 235 35 233 235 35 233 235 35 233 235 35 233 235 35 233 235 
34 234 236 34 234 236 34 234 236 34 234 236 34 234 236 34 234 236 34 234 236 34 234 236 34 234 236 34 234 236 34 234 236 34 234 236 34 234 236 34 234 236 34 234 236 34 234 236 
33 234 237 33 234 237 33 234 237 33 234 237 33 234 237 33 234 237 33 234 237 33 234 237 33 234 237 33 234 237 33 234 237 33 234 237 33 234 237 33 234 237 33 234 237 33 234 237 
32 235 238 32 235 238 32 235 238 32 235 238 32 235 238 32 235 238 32 235 238 32 235 238 32 235 238 32 235 238 32 235 238 32 235 238 32 235 238 32 235 238 32 235 238 32 235 238 
32 235 239 32 235 239 32 235 239 32 235 239 32 235 239 32 235 239 32 235 239 32 235 239 32 235 239 32 235 239 32 235 239 32 235 239 32 235 239 32 235 239 32 235 239 32 235 239 
31 236 240 31 236 240 31 236 240 31 236 240 31 236 240 31 236 240 31 236 240 31 236 240 31 236 240 31 236 240 31 236 240 31 236 240 31 236 240 31 236 240 31 236 240 31 236 240 
30 236 240 30 236 240 30 236 240 30 236 240 30 236 240 30 236 240 30 236 240 30 236 240 30 236 240 30 236 240 30 236 240 30 236 240 30 236 240 30 236 240 30 236 240 30 236 240 
29 237 241 29 237 241 29 237 241 29 237 241 29 237 241 29 237 241 29 237 241 29 237 241 29 237 241 29 237 241 29 237 241 29 237 241 29 237 241 29 237 241 29 237 241 29 237 241 
28 237 242 28 237 242 28 237 242 28 237 242 28 237 242 28 237 242 28 237 242 28 237 242 28 237 242 28 237 242 28 237 242 28 237 242 28 237 242 28 237 242 28 237 242 28 237 242 
28 238 243 28 238 243 28 238 243 28 238 243 28 238 243 28 238 243 28 238 243 28 238 243 28 238 243 28 238 243 28 238 243 28 238 243 28 238 243 28 238 243 28 238 243 28 238 243 
27 238 244 27 238 244 27 238 244 27 238 244 27 238 244 27 238 244 27 238 244 27 238 244 27 238 244 27 238 244 27 238 244 27 238 244 27 238 244 27 238 244 27 238 244 27 238 244 
26 239 245 26 239 245 26 239 245 26 239 245 26 239 245 26 239 245 26 239 245 26 239 245 26 239 245 26 239 245 26 239 245 26 239 245 26 239 245 26 239 245 26 239 245 26 239 245 
25 239 246 25 239 246 25 239 246 25 239 246 25 239 246 25 239 246 25 239 246 25 239 246 25 239 246 25 239 246 25 239 246 25 239 246 25 239 246 25 239 246 25 239 246 25 239 246 
24 240 247 24 240 247 24 240 247 24 240 247 24 240 247 24 240 247 24 240 247 24 240 247 24 240 247 24 240 247 24 240 247 24 240 247 24 240 247 24 240 247 24 240 247 24 240 247 
24 240 248 24 240 248 24 240 248 24 240 248 24 240 248 24 240 248 24 240 248 24 240 248 24 240 248 24 240 248 24 240 248 24 240 248 24 240 248 24 240 248 24 240 248 24 240 248 
23 241 248 23 241 248 23 241 248 23 241 248 23 241 248 23 241 248 23 241 248 23 241 248 23 241 248 23 241 248 23 241 248 23 241 248 23 241 248 23 241 248 23 241 248 23 241 248 
22 241 249 22 241 249 22 241 249 22 241 249 22 241 249 22 241 249 22 241 249 22 241 249 22 241 249 22 241 249 22 241 249 22 241 249 22 241 249 22 241 249 22 241 249 22 241 249 
21 241 250 21 241 250 21 241 250 21 241 250 21 241 250 21 241 250 21 241 250 21 241 250 21 241 250 21 241 250 21 241 250 21 241 250 21 241 250 21 241 250 21 241 250 21 241 250 
20 242 251 20 242 251 20 242 251 20 242 251 20 242 251 20 242 251 20 242 251 20 242 251 20 242 251 20 242 251 20 242 251 20 242 251 20 242 251 20 242 251 20 242 251 20 242 251 
20 242 252 20 242 252 20 242 252 20 242 252 20 242 252 20 242 252 20 242 252 20 242 252 20 242 252 20 242 252 20 242 252 20 242 252 20 242 252 20 242 252 20 242 252 20 242 252 
19 243 253 19 243 253 19 243 253 19 243 253 19 243 253 19 243 253 19 243 253 19 243 253 19 243 253 19 243 253 19 243 253 19 243 253 19 243 253 19 243 253 19 243 253 19 243 253 
18 243 254 18 243 254 18 243 254 18 243 254 18 243 254 18 243 254 18 243 254 18 243 254 18 243 254 18 243 254 18 243 254 18 243 254 18 243 254 18 243 254 18 243 254 18 243 254 
17 244 255 17 244 255 17 244 255 17 244 255 17 244 255 17 244 255 17 244 255 17 244 255 17 244 255 17 244 255 17 244 255 17 244 255 17 244 255 17 244 255 17 244 255 17 244 255 
16 244 255 16 244 255 16 244 255 16 244 255 16 244 255 16 244 255 16 244 255 16 244 255 16 244 255 16 244 255 16 244 255 16 244 255 16 244 255 16 244 255 16 244 255 16 244 255 
16 245 255 16 245 255 16 245 255 16 245 255 16 245 255 16 245 255 16 245 255 16 245 255 16 245 255 16 245 255 16 245 255 16 245 255 16 245 255 16 245 255 16 245 255 16 245 255 
15 245 255 15 245 255 15 245 255 15 245 255 15 245 255 15 245 255 15 245 255 15 245 255 15 245 255 15 245 255 15 245 255 15 245 255 15 245 255 15 245 255 15 245 255 15 245 255 
14 246 255 14 246 255 14 246 255 14 246 255 14 246 255 14 246 255 14 246 255 14 246 255 14 246 255 14 246 255 14 246 255 14 246 255 14 246 255 14 246 255 14 246 255 14 246 255 
13 246 255 13 246 255 13 246 255 13 246 255 13 246 255 13 246 255 13 246 255 13 246 255 13 246 255 13 246 255 13 246 255 13 246 255 13 246 255 13 246 255 13 246 255 13 246 255 
12 247 255 12 247 255 12 247 255 12 247 255 12 247 255 12 247 255 12 247 255 12 247 255 12 247 255 12 247 255 12 247 255 12 247 255 12 247 255 12 247 255 12 247 255 12 247 255 
12 247 255 12 247 255 12 247 255 12 247 255 12 247 255 12 247 255 12 247 255 12 247 255 12 247 255 12 247 255 12 247 255 12 247 255 12 247 255 12 247 255 12 247 255 12 247 255 
11 248 255 11 248 255 11 248 255 11 248 255 11 248 255 11 248 255 11 248 255 11 248 255 11 248 255 11 248 255 11 248 255 11 248 255 11 248 255 11 248 255 11 248 255 11 248 255 
10 248 255 10 248 255 10 248 255 10 248 255 10 248 255 10 248 255 10 248 255 10 248 255 10 248 255 10 248 255 10 248 255 10 248 255 10 248 255 10 248 255 10 248 255 10 248 255 
9 249 255 9 249 255 9 249 255 9 249 255 9 249 255 9 249 255 9 249 255 9 249 255 9 249 255 9 249 255 9 249 255 9 249 255 9 249 255 9 249 255 9 249 255 9 249 255 
9 249 255 9 249 255 9 249 255 9 249 255 9 249 255 9 249 255 9 249 255 9 249 255 9 249 255 9 249 255 9 249 255 9 249 255 9 249 255 9 249 255 9 249 255 9 249 255 
8 249 255 8 249 255 8 249 255 8 249 255 8 249 255 8 249 255 8 249 255 8 249 255 8 249 255 8 249 255 8 249 255 8 249 255 8 249 255 8 249 255 8 249 255 8 249 255 
7 250 255 7 250 255 7 250 255 7 250 255 7 250 255 7 250 255 7 250 255 7 250 255 7 250 255 7 250 255 7 250 255 7 250 255 7 250 255 7 250 255 7 250 255 7 250 255 
6 250 255 6 250 255 6 250 255 6 250 255 6 250 255 6 250 255 6 250 255 6 250 255 6 250 255 6 250 255 6 250 255 6 250 255 6 250 255 6 250 255 6 250 255 6 250 255 
6 251 255 6 251 255 6 251 255 6 251 255 6 251 255 6 251 255 6 251 255 6 251 255 6 251 255 6 251 255 6 251 255 6 251 255 6 251 255 6 251 255 6 251 255 6 251 255 
5 251 255 5 251 255 5 251 255 5 251 255 5 251 255 5 251 255 5 251 255 5 251 255 5 251 255 5 251 255 5 251 255 5 251 255 5 251 255 5 251 255 5 251 255 5 251 255 
4 252 255 4 252 255 4 252 255 4 252 255 4 252 255 4 252 255 4 252 255 4 252 255 4 252 255 4 252 255 4 252 255 4 252 255 4 252 255 4 252 255 4 252 255 4 252 255 
3 252 255 3 252 255 3 252 255 3 252 255 3 252 255 3 252 255 3 252 255 3 252 255 3 252 255 3 252 255 3 252 255 3 252 255 3 252 255 3 252 255 3 252 255 3 252 255 
3 253 255 3 253 255 3 253 255 3 253 255 3 253 255 3 253 255 3 253 255 3 253 255 3 253 255 3 253 255 3 253 255 3 253 255 3 253 255 3 253 255 3 253 255 3 253 255 
2 253 255 2 253 255 2 253 255 2 253 255 2 253 255 2 253 255 2 253 255 2 253 255 2 253 255 2 253 255 2 253 255 2 253 255 2 253 255 2 253 255 2 253 255 2 253 255 
1 254 255 1 254 255 1 254 255 1 254 255 1 254 255 1 254 255 1 254 255 1 254 255 1 254 255 1 254 255 1 254 255 1 254 255 1 254 255 1 254 255 1 254 255 1 254 255 
0 254 255 0 254 255 0 254 255 0 254 255 0 254 255 0 254 255 0 254 255 0 254 255 0 254 255 0 254 255 0 254 255 0 254 255 0 254 255 0 254 255 0 254 255 0 254 255 
0 255 255 0 255 255 0 255 255 0 255 255 0 255 255 0 255 255 0 255 255 0 255 255 0 255 255 0 255 255 0 255 255 0 255 255 0 255 255 0 255 255 0 255 255 0 255 255 
