P3
256 256
255
100 110 120 101 111 121 103 113 123 222 232 242 224 234 244 225 235 245 227 237 247 227 237 247 228 238 248 229 239 249 230 240 250 231 241 251 232 242 252 233 243 253 233 243 253 234 244 254 234 244 254 234 244 254 234 244 254 234 244 254 234 244 254 234 244 254 234 244 254 234 244 254 235 245 255 236 246 256 237 247 257 238 248 258 238 248 258 238 248 258 238 248 258 237 247 257 237 247 257 236 246 256 235 245 255 234 244 254 234 244 254 233 243 253 233 243 253 233 243 253 233 243 253 232 242 252 232 242 252 231 241 251 230 240 250 230 240 250 230 240 250 230 240 250 230 240 250 231 241 251 232 242 252 233 243 253 234 244 254 235 245 255 235 245 255 235 245 255 235 245 255 234 244 254 233 243 253 232 242 252 232 242 252 231 241 251 230 240 250 230 240 250 229 239 249 228 238 248 227 237 247 226 236 246 225 235 245 223 233 243 222 232 242 103 113 123 102 112 122 102 112 122 102 112 122 102 112 122 102 112 122 102 112 122 102 112 122 102 112 122 101 111 121 101 111 121 100 110 120 99 109 119 99 109 119 98 108 118 98 108 118 97 107 117 97 107 117 97 107 117 97 107 117 97 107 117 97 107 117 97 107 117 97 107 117 96 106 116 96 106 116 97 107 117 97 107 117 97 107 117 98 108 118 99 109 119 100 110 120 101 111 121 102 112 122 102 112 122 103 113 123 103 113 123 103 113 123 102 112 122 102 112 122 102 112 122 102 112 122 102 112 122 102 112 122 102 112 122 101 111 121 101 111 121 101 111 121 100 110 120 99 109 119 99 109 119 98 108 118 98 108 118 97 107 117 97 107 117 97 107 117 97 107 117 97 107 117 97 107 117 97 107 117 97 107 117 96 106 116 95 105 115 94 104 114 93 103 113 93 103 113 92 102 112 92 102 112 91 101 111 91 101 111 90 100 110 90 100 110 90 100 110 89 99 109 89 99 109 88 98 108 88 98 108 88 98 108 88 98 108 88 98 108 89 99 109 89 99 109 90 100 110 90 100 110 91 101 111 91 101 111 91 101 111 91 101 111 90 100 110 90 100 110 90 100 110 89 99 109 89 99 109 89 99 109 89 99 109 89 99 109 88 98 108 88 98 108 88 98 108 87 97 107 87 97 107 86 96 106 86 96 106 86 96 106 86 96 106 86 96 106 87 97 107 87 97 107 88 98 108 88 98 108 89 99 109 89 99 109 89 99 109 88 98 108 88 98 108 88 98 108 88 98 108 88 98 108 89 99 109 89 99 109 90 100 110 90 100 110 91 101 111 91 101 111 92 102 112 92 102 112 93 103 113 93 103 113 94 104 114 96 106 116 97 107 117 98 108 118 100 110 120 102 112 122 103 113 123 223 233 243 225 235 245 226 236 246 227 237 247 228 238 248 228 238 248 229 239 249 230 240 250 231 241 251 232 242 252 233 243 253 234 244 254 234 244 254 234 244 254 234 244 254 234 244 254 234 244 254 234 244 254 234 244 254 234 244 254 234 244 254 235 245 255 236 246 256 237 247 257 238 248 258 238 248 258 238 248 258 238 248 258 237 247 257 236 246 256 235 245 255 235 245 255 234 244 254 233 243 253 233 243 253 233 243 253 233 243 253 233 243 253 232 242 252 232 242 252 231 241 251 230 240 250 230 240 250 230 240 250 230 240 250 230 240 250 231 241 251 232 242 252 233 243 253 234 244 254 100 110 120 101 111 121 102 112 122 222 232 242 224 234 244 225 235 245 227 237 247 227 237 247 228 238 248 229 239 249 230 240 250 231 241 251 232 242 252 233 243 253 233 243 253 234 244 254 234 244 254 234 244 254 234 244 254 234 244 254 234 244 254 234 244 254 234 244 254 234 244 254 235 245 255 236 246 256 237 247 257 238 248 258 238 248 258 238 248 258 238 248 258 237 247 257 237 247 257 236 246 256 235 245 255 234 244 254 234 244 254 233 243 253 233 243 253 233 243 253 233 243 253 232 242 252 232 242 252 231 241 251 230 240 250 230 240 250 230 240 250 230 240 250 230 240 250 231 241 251 232 242 252 233 243 253 234 244 254 235 245 255 235 245 255 235 245 255 235 245 255 234 244 254 233 243 253 232 242 252 232 242 252 231 241 251 230 240 250 230 240 250 229 239 249 228 238 248 227 237 247 226 236 246 225 235 245 223 233 243 222 232 242 103 113 123 102 112 122 102 112 122 102 112 122 102 112 122 102 112 122 102 112 122 102 112 122 102 112 122 101 111 121 101 111 121 100 110 120 99 109 119 99 109 119 98 108 118 98 108 118 98 108 118 97 107 117 97 107 117 97 107 117 97 107 117 97 107 117 97 107 117 97 107 117 96 106 116 96 106 116 97 107 117 97 107 117 98 108 118 98 108 118 99 109 119 100 110 120 101 111 121 102 112 122 102 112 122 102 112 122 103 113 123 103 113 123 102 112 122 102 112 122 102 112 122 102 112 122 102 112 122 102 112 122 102 112 122 101 111 121 101 111 121 101 111 121 100 110 120 99 109 119 99 109 119 98 108 118 98 108 118 97 107 117 97 107 117 97 107 117 97 107 117 97 107 117 97 107 117 97 107 117 97 107 117 96 106 116 95 105 115 94 104 114 93 103 113 93 103 113 92 102 112 92 102 112 91 101 111 91 101 111 90 100 110 90 100 110 90 100 110 89 99 109 89 99 109 88 98 108 88 98 108 88 98 108 88 98 108 88 98 108 89 99 109 89 99 109 90 100 110 90 100 110 91 101 111 91 101 111 91 101 111 91 101 111 90 100 110 90 100 110 90 100 110 89 99 109 89 99 109 89 99 109 89 99 109 89 99 109 88 98 108 88 98 108 88 98 108 87 97 107 87 97 107 86 96 106 86 96 106 86 96 106 86 96 106 86 96 106 87 97 107 87 97 107 88 98 108 88 98 108 88 98 108 89 99 109 89 99 109 88 98 108 88 98 108 88 98 108 88 98 108 89 99 109 89 99 109 89 99 109 90 100 110 90 100 110 91 101 111 91 101 111 92 102 112 92 102 112 93 103 113 94 104 114 94 104 114 96 106 116 97 107 117 98 108 118 100 110 120 102 112 122 103 113 123 223 233 243 224 234 244 226 236 246 227 237 247 228 238 248 228 238 248 229 239 249 230 240 250 231 241 251 232 242 252 233 243 253 234 244 254 234 244 254 234 244 254 234 244 254 234 244 254 234 244 254 234 244 254 234 244 254 234 244 254 235 245 255 235 245 255 236 246 256 237 247 257 238 248 258 238 248 258 238 248 258 238 248 258 237 247 257 236 246 256 235 245 255 235 245 255 234 244 254 234 244 254 233 243 253 233 243 253 233 243 253 232 242 252 232 242 252 231 241 251 231 241 251 230 240 250 230 240 250 230 240 250 230 240 250 230 240 250 231 241 251 232 242 252 233 243 253 234 244 254 100 110 120 101 111 121 102 112 122 222 232 242 223 233 243 225 235 245 226 236 246 227 237 247 228 238 248 229 239 249 230 240 250 231 241 251 232 242 252 232 242 252 233 243 253 234 244 254 234 244 254 234 244 254 234 244 254 234 244 254 234 244 254 234 244 254 234 244 254 235 245 255 235 245 255 236 246 256 237 247 257 237 247 257 238 248 258 238 248 258 238 248 258 237 247 257 237 247 257 236 246 256 235 245 255 234 244 254 234 244 254 233 243 253 233 243 253 233 243 253 232 242 252 232 242 252 232 242 252 231 241 251 231 241 251 230 240 250 230 240 250 230 240 250 231 241 251 231 241 251 232 242 252 233 243 253 234 244 254 234 244 254 235 245 255 235 245 255 234 244 254 234 244 254 233 243 253 232 242 252 232 242 252 231 241 251 230 240 250 229 239 249 229 239 249 228 238 248 227 237 247 226 236 246 224 234 244 223 233 243 222 232 242 103 113 123 102 112 122 102 112 122 102 112 122 102 112 122 102 112 122 102 112 122 102 112 122 101 111 121 101 111 121 101 111 121 100 110 120 99 109 119 99 109 119 98 108 118 98 108 118 98 108 118 97 107 117 97 107 117 97 107 117 97 107 117 97 107 117 97 107 117 97 107 117 97 107 117 97 107 117 97 107 117 97 107 117 98 108 118 98 108 118 99 109 119 100 110 120 101 111 121 101 111 121 102 112 122 102 112 122 102 112 122 102 112 122 102 112 122 102 112 122 102 112 122 102 112 122 102 112 122 102 112 122 102 112 122 101 111 121 101 111 121 100 110 120 100 110 120 99 109 119 99 109 119 98 108 118 98 108 118 98 108 118 97 107 117 97 107 117 97 107 117 97 107 117 97 107 117 97 107 117 96 106 116 96 106 116 95 105 115 94 104 114 94 104 114 93 103 113 92 102 112 92 102 112 91 101 111 91 101 111 90 100 110 90 100 110 90 100 110 89 99 109 89 99 109 88 98 108 88 98 108 88 98 108 88 98 108 88 98 108 89 99 109 89 99 109 90 100 110 90 100 110 90 100 110 91 101 111 91 101 111 90 100 110 90 100 110 90 100 110 90 100 110 89 99 109 89 99 109 89 99 109 89 99 109 89 99 109 88 98 108 88 98 108 88 98 108 87 97 107 87 97 107 86 96 106 86 96 106 86 96 106 86 96 106 87 97 107 87 97 107 87 97 107 88 98 108 88 98 108 88 98 108 88 98 108 88 98 108 88 98 108 88 98 108 88 98 108 88 98 108 89 99 109 89 99 109 89 99 109 90 100 110 90 100 110 91 101 111 91 101 111 92 102 112 92 102 112 93 103 113 94 104 114 95 105 115 96 106 116 97 107 117 99 109 119 100 110 120 101 111 121 103 113 123 222 232 242 224 234 244 225 235 245 227 237 247 228 238 248 229 239 249 229 239 249 230 240 250 231 241 251 232 242 252 233 243 253 233 243 253 234 244 254 234 244 254 234 244 254 234 244 254 234 244 254 234 244 254 234 244 254 234 244 254 235 245 255 235 245 255 236 246 256 237 247 257 237 247 257 238 248 258 238 248 258 237 247 257 237 247 257 236 246 256 236 246 256 235 245 255 234 244 254 234 244 254 233 243 253 233 243 253 233 243 253 232 242 252 232 242 252 231 241 251 231 241 251 230 240 250 230 240 250 230 240 250 230 240 250 231 241 251 231 241 251 232 242 252 233 243 253 234 244 254 100 110 120 101 111 121 102 112 122 103 113 123 223 233 243 224 234 244 226 236 246 227 237 247 228 238 248 229 239 249 230 240 250 231 241 251 232 242 252 232 242 252 233 243 253 233 243 253 233 243 253 234 244 254 234 244 254 234 244 254 234 244 254 234 244 254 235 245 255 235 245 255 236 246 256 236 246 256 236 246 256 237 247 257 237 247 257 237 247 257 237 247 257 237 247 257 236 246 256 236 246 256 235 245 255 235 245 255 234 244 254 234 244 254 233 243 253 233 243 253 232 242 252 232 242 252 231 241 251 231 241 251 231 241 251 231 241 251 231 241 251 231 241 251 231 241 251 232 242 252 232 242 252 233 243 253 233 243 253 234 244 254 234 244 254 234 244 254 234 244 254 234 244 254 233 243 253 233 243 253 232 242 252 231 241 251 230 240 250 229 239 249 229 239 249 228 238 248 227 237 247 225 235 245 224 234 244 223 233 243 222 232 242 103 113 123 103 113 123 102 112 122 102 112 122 102 112 122 102 112 122 101 111 121 101 111 121 101 111 121 101 111 121 100 110 120 100 110 120 100 110 120 99 109 119 99 109 119 98 108 118 98 108 118 98 108 118 97 107 117 97 107 117 97 107 117 97 107 117 97 107 117 97 107 117 97 107 117 97 107 117 97 107 117 98 108 118 98 108 118 99 109 119 99 109 119 100 110 120 101 111 121 101 111 121 102 112 122 102 112 122 102 112 122 102 112 122 102 112 122 102 112 122 102 112 122 102 112 122 102 112 122 102 112 122 101 111 121 101 111 121 101 111 121 100 110 120 100 110 120 99 109 119 99 109 119 99 109 119 98 108 118 98 108 118 98 108 118 97 107 117 97 107 117 97 107 117 97 107 117 96 106 116 96 106 116 96 106 116 95 105 115 94 104 114 94 104 114 93 103 113 92 102 112 92 102 112 91 101 111 91 101 111 90 100 110 90 100 110 89 99 109 89 99 109 89 99 109 89 99 109 88 98 108 88 98 108 88 98 108 89 99 109 89 99 109 89 99 109 90 100 110 90 100 110 90 100 110 90 100 110 90 100 110 90 100 110 90 100 110 90 100 110 90 100 110 90 100 110 89 99 109 89 99 109 89 99 109 88 98 108 88 98 108 88 98 108 88 98 108 87 97 107 87 97 107 87 97 107 87 97 107 87 97 107 87 97 107 87 97 107 87 97 107 87 97 107 88 98 108 88 98 108 88 98 108 88 98 108 88 98 108 88 98 108 88 98 108 89 99 109 89 99 109 89 99 109 89 99 109 90 100 110 90 100 110 90 100 110 91 101 111 91 101 111 92 102 112 93 103 113 93 103 113 94 104 114 95 105 115 96 106 116 97 107 117 99 109 119 100 110 120 101 111 121 102 112 122 222 232 242 223 233 243 225 235 245 226 236 246 227 237 247 228 238 248 229 239 249 230 240 250 231 241 251 232 242 252 232 242 252 233 243 253 233 243 253 234 244 254 234 244 254 234 244 254 234 244 254 234 244 254 234 244 254 235 245 255 235 245 255 236 246 256 236 246 256 237 247 257 237 247 257 237 247 257 237 247 257 237 247 257 237 247 257 236 246 256 236 246 256 235 245 255 235 245 255 234 244 254 233 243 253 233 243 253 233 243 253 232 242 252 232 242 252 231 241 251 231 241 251 231 241 251 231 241 251 231 241 251 231 241 251 231 241 251 232 242 252 232 242 252 233 243 253 233 243 253 100 110 120 101 111 121 102 112 122 103 113 123 222 232 242 224 234 244 225 235 245 227 237 247 228 238 248 229 239 249 230 240 250 231 241 251 231 241 251 232 242 252 232 242 252 233 243 253 233 243 253 233 243 253 234 244 254 234 244 254 234 244 254 235 245 255 235 245 255 236 246 256 236 246 256 236 246 256 236 246 256 236 246 256 236 246 256 236 246 256 236 246 256 236 246 256 236 246 256 236 246 256 235 245 255 235 245 255 234 244 254 234 244 254 233 243 253 233 243 253 232 242 252 232 242 252 231 241 251 231 241 251 231 241 251 231 241 251 231 241 251 232 242 252 232 242 252 232 242 252 232 242 252 233 243 253 233 243 253 233 243 253 233 243 253 233 243 253 233 243 253 233 243 253 233 243 253 232 242 252 232 242 252 231 241 251 230 240 250 229 239 249 228 238 248 227 237 247 226 236 246 225 235 245 224 234 244 223 233 243 222 232 242 222 232 242 103 113 123 103 113 123 102 112 122 102 112 122 102 112 122 101 111 121 101 111 121 101 111 121 100 110 120 100 110 120 100 110 120 100 110 120 99 109 119 99 109 119 98 108 118 98 108 118 98 108 118 97 107 117 97 107 117 97 107 117 97 107 117 97 107 117 97 107 117 97 107 117 97 107 117 98 108 118 98 108 118 98 108 118 99 109 119 99 109 119 100 110 120 100 110 120 101 111 121 101 111 121 101 111 121 102 112 122 102 112 122 102 112 122 102 112 122 102 112 122 102 112 122 102 112 122 101 111 121 101 111 121 101 111 121 100 110 120 100 110 120 100 110 120 99 109 119 99 109 119 99 109 119 98 108 118 98 108 118 98 108 118 98 108 118 97 107 117 97 107 117 96 106 116 96 106 116 96 106 116 95 105 115 95 105 115 94 104 114 94 104 114 93 103 113 93 103 113 92 102 112 91 101 111 91 101 111 90 100 110 90 100 110 89 99 109 89 99 109 89 99 109 89 99 109 89 99 109 89 99 109 89 99 109 89 99 109 89 99 109 89 99 109 89 99 109 90 100 110 90 100 110 90 100 110 90 100 110 90 100 110 90 100 110 90 100 110 90 100 110 90 100 110 89 99 109 89 99 109 89 99 109 88 98 108 88 98 108 88 98 108 87 97 107 87 97 107 87 97 107 87 97 107 87 97 107 87 97 107 87 97 107 87 97 107 87 97 107 87 97 107 87 97 107 88 98 108 88 98 108 88 98 108 88 98 108 88 98 108 89 99 109 89 99 109 89 99 109 89 99 109 89 99 109 90 100 110 90 100 110 90 100 110 91 101 111 91 101 111 92 102 112 93 103 113 94 104 114 95 105 115 96 106 116 97 107 117 98 108 118 99 109 119 100 110 120 101 111 121 102 112 122 103 113 123 222 232 242 224 234 244 226 236 246 227 237 247 228 238 248 229 239 249 230 240 250 231 241 251 232 242 252 232 242 252 232 242 252 233 243 253 233 243 253 233 243 253 234 244 254 234 244 254 235 245 255 235 245 255 235 245 255 236 246 256 236 246 256 236 246 256 236 246 256 236 246 256 236 246 256 236 246 256 236 246 256 236 246 256 236 246 256 236 246 256 235 245 255 235 245 255 234 244 254 234 244 254 233 243 253 232 242 252 232 242 252 232 242 252 231 241 251 231 241 251 231 241 251 231 241 251 231 241 251 232 242 252 232 242 252 232 242 252 232 242 252 233 243 253 233 243 253 100 110 120 100 110 120 101 111 121 102 112 122 103 113 123 223 233 243 225 235 245 226 236 246 228 238 248 229 239 249 230 240 250 231 241 251 231 241 251 231 241 251 232 242 252 232 242 252 232 242 252 233 243 253 234 244 254 234 244 254 235 245 255 235 245 255 236 246 256 236 246 256 236 246 256 236 246 256 236 246 256 236 246 256 236 246 256 236 246 256 236 246 256 236 246 256 236 246 256 236 246 256 236 246 256 235 245 255 235 245 255 234 244 254 233 243 253 233 243 253 232 242 252 232 242 252 231 241 251 231 241 251 232 242 252 232 242 252 232 242 252 232 242 252 232 242 252 233 243 253 232 242 252 232 242 252 232 242 252 232 242 252 232 242 252 232 242 252 232 242 252 233 243 253 233 243 253 232 242 252 232 242 252 231 241 251 230 240 250 229 239 249 228 238 248 227 237 247 226 236 246 225 235 245 224 234 244 223 233 243 223 233 243 222 232 242 222 232 242 103 113 123 103 113 123 102 112 122 102 112 122 101 111 121 101 111 121 100 110 120 100 110 120 100 110 120 100 110 120 100 110 120 99 109 119 99 109 119 99 109 119 98 108 118 98 108 118 98 108 118 97 107 117 97 107 117 97 107 117 97 107 117 97 107 117 97 107 117 98 108 118 98 108 118 99 109 119 99 109 119 99 109 119 99 109 119 100 110 120 100 110 120 100 110 120 101 111 121 101 111 121 101 111 121 102 112 122 102 112 122 102 112 122 102 112 122 102 112 122 102 112 122 101 111 121 101 111 121 100 110 120 100 110 120 100 110 120 100 110 120 99 109 119 99 109 119 99 109 119 99 109 119 98 108 118 98 108 118 98 108 118 97 107 117 97 107 117 96 106 116 96 106 116 95 105 115 95 105 115 95 105 115 94 104 114 94 104 114 93 103 113 93 103 113 92 102 112 92 102 112 91 101 111 90 100 110 90 100 110 89 99 109 89 99 109 89 99 109 89 99 109 89 99 109 89 99 109 89 99 109 89 99 109 89 99 109 89 99 109 89 99 109 89 99 109 89 99 109 89 99 109 90 100 110 90 100 110 90 100 110 90 100 110 90 100 110 90 100 110 89 99 109 89 99 109 89 99 109 88 98 108 88 98 108 88 98 108 87 97 107 87 97 107 87 97 107 87 97 107 87 97 107 87 97 107 87 97 107 87 97 107 87 97 107 87 97 107 87 97 107 87 97 107 87 97 107 88 98 108 88 98 108 88 98 108 89 99 109 89 99 109 89 99 109 90 100 110 90 100 110 90 100 110 90 100 110 90 100 110 91 101 111 91 101 111 92 102 112 93 103 113 94 104 114 95 105 115 96 106 116 97 107 117 98 108 118 99 109 119 100 110 120 101 111 121 102 112 122 103 113 123 222 232 242 223 233 243 225 235 245 227 237 247 228 238 248 229 239 249 230 240 250 231 241 251 231 241 251 232 242 252 232 242 252 232 242 252 233 243 253 233 243 253 234 244 254 234 244 254 235 245 255 235 245 255 236 246 256 236 246 256 236 246 256 236 246 256 236 246 256 236 246 256 236 246 256 236 246 256 236 246 256 236 246 256 236 246 256 236 246 256 236 246 256 235 245 255 235 245 255 234 244 254 233 243 253 232 242 252 232 242 252 231 241 251 231 241 251 231 241 251 232 242 252 232 242 252 232 242 252 232 242 252 232 242 252 233 243 253 232 242 252 232 242 252 232 242 252 100 110 120 100 110 120 101 111 121 102 112 122 103 113 123 222 232 242 224 234 244 226 236 246 227 237 247 229 239 249 230 240 250 230 240 250 231 241 251 231 241 251 231 241 251 232 242 252 232 242 252 233 243 253 233 243 253 234 244 254 235 245 255 236 246 256 236 246 256 236 246 256 236 246 256 236 246 256 235 245 255 235 245 255 235 245 255 235 245 255 235 245 255 235 245 255 235 245 255 236 246 256 236 246 256 235 245 255 235 245 255 234 244 254 233 243 253 233 243 253 232 242 252 232 242 252 232 242 252 232 242 252 232 242 252 232 242 252 233 243 253 233 243 253 233 243 253 233 243 253 233 243 253 232 242 252 232 242 252 232 242 252 231 241 251 231 241 251 232 242 252 232 242 252 232 242 252 232 242 252 232 242 252 231 241 251 230 240 250 229 239 249 228 238 248 227 237 247 225 235 245 225 235 245 224 234 244 224 234 244 223 233 243 223 233 243 222 232 242 222 232 242 103 113 123 102 112 122 102 112 122 101 111 121 101 111 121 100 110 120 100 110 120 100 110 120 100 110 120 99 109 119 99 109 119 99 109 119 99 109 119 99 109 119 98 108 118 98 108 118 97 107 117 97 107 117 97 107 117 97 107 117 97 107 117 98 108 118 98 108 118 99 109 119 99 109 119 99 109 119 99 109 119 99 109 119 100 110 120 100 110 120 100 110 120 100 110 120 100 110 120 101 111 121 101 111 121 102 112 122 102 112 122 102 112 122 102 112 122 102 112 122 101 111 121 101 111 121 100 110 120 100 110 120 100 110 120 100 110 120 99 109 119 99 109 119 99 109 119 99 109 119 99 109 119 98 108 118 98 108 118 97 107 117 96 106 116 96 106 116 95 105 115 95 105 115 95 105 115 94 104 114 94 104 114 94 104 114 94 104 114 93 103 113 92 102 112 92 102 112 91 101 111 90 100 110 90 100 110 90 100 110 90 100 110 90 100 110 90 100 110 90 100 110 90 100 110 90 100 110 90 100 110 90 100 110 89 99 109 89 99 109 89 99 109 89 99 109 89 99 109 89 99 109 89 99 109 90 100 110 90 100 110 90 100 110 90 100 110 89 99 109 89 99 109 89 99 109 88 98 108 88 98 108 88 98 108 87 97 107 87 97 107 88 98 108 88 98 108 88 98 108 88 98 108 88 98 108 88 98 108 87 97 107 87 97 107 87 97 107 87 97 107 87 97 107 88 98 108 88 98 108 88 98 108 89 99 109 89 99 109 90 100 110 90 100 110 90 100 110 90 100 110 90 100 110 91 101 111 91 101 111 92 102 112 93 103 113 93 103 113 95 105 115 96 106 116 97 107 117 97 107 117 98 108 118 99 109 119 100 110 120 100 110 120 101 111 121 102 112 122 103 113 123 223 233 243 224 234 244 226 236 246 228 238 248 229 239 249 230 240 250 231 241 251 231 241 251 231 241 251 231 241 251 232 242 252 232 242 252 233 243 253 234 244 254 235 245 255 235 245 255 236 246 256 236 246 256 236 246 256 236 246 256 236 246 256 235 245 255 235 245 255 235 245 255 235 245 255 235 245 255 235 245 255 235 245 255 236 246 256 236 246 256 235 245 255 235 245 255 234 244 254 233 243 253 232 242 252 232 242 252 232 242 252 232 242 252 232 242 252 232 242 252 233 243 253 233 243 253 233 243 253 233 243 253 233 243 253 232 242 252 232 242 252 232 242 252 100 110 120 100 110 120 101 111 121 101 111 121 102 112 122 103 113 123 223 233 243 225 235 245 227 237 247 228 238 248 229 239 249 230 240 250 230 240 250 231 241 251 231 241 251 231 241 251 232 242 252 232 242 252 233 243 253 234 244 254 235 245 255 236 246 256 236 246 256 236 246 256 236 246 256 236 246 256 235 245 255 235 245 255 234 244 254 234 244 254 234 244 254 235 245 255 235 245 255 235 245 255 235 245 255 235 245 255 235 245 255 234 244 254 234 244 254 233 243 253 232 242 252 232 242 252 232 242 252 232 242 252 233 243 253 233 243 253 233 243 253 234 244 254 234 244 254 233 243 253 233 243 253 232 242 252 231 241 251 231 241 251 231 241 251 231 241 251 231 241 251 231 241 251 231 241 251 231 241 251 231 241 251 231 241 251 230 240 250 229 239 249 227 237 247 226 236 246 225 235 245 225 235 245 224 234 244 224 234 244 224 234 244 223 233 243 223 233 243 222 232 242 103 113 123 103 113 123 102 112 122 101 111 121 100 110 120 100 110 120 100 110 120 99 109 119 99 109 119 99 109 119 99 109 119 99 109 119 99 109 119 99 109 119 98 108 118 98 108 118 98 108 118 97 107 117 97 107 117 98 108 118 98 108 118 98 108 118 99 109 119 99 109 119 99 109 119 100 110 120 100 110 120 100 110 120 99 109 119 99 109 119 99 109 119 100 110 120 100 110 120 100 110 120 101 111 121 101 111 121 102 112 122 102 112 122 102 112 122 101 111 121 101 111 121 100 110 120 100 110 120 100 110 120 100 110 120 100 110 120 100 110 120 100 110 120 99 109 119 99 109 119 99 109 119 98 108 118 98 108 118 97 107 117 96 106 116 96 106 116 95 105 115 95 105 115 94 104 114 94 104 114 94 104 114 94 104 114 94 104 114 93 103 113 93 103 113 92 102 112 91 101 111 91 101 111 90 100 110 90 100 110 90 100 110 90 100 110 90 100 110 90 100 110 90 100 110 90 100 110 90 100 110 90 100 110 89 99 109 89 99 109 89 99 109 89 99 109 89 99 109 89 99 109 89 99 109 89 99 109 89 99 109 90 100 110 90 100 110 89 99 109 89 99 109 88 98 108 88 98 108 88 98 108 88 98 108 88 98 108 88 98 108 88 98 108 88 98 108 88 98 108 88 98 108 88 98 108 88 98 108 88 98 108 87 97 107 87 97 107 87 97 107 87 97 107 87 97 107 88 98 108 88 98 108 89 99 109 89 99 109 90 100 110 90 100 110 90 100 110 90 100 110 91 101 111 91 101 111 91 101 111 92 102 112 93 103 113 94 104 114 95 105 115 96 106 116 97 107 117 98 108 118 99 109 119 99 109 119 100 110 120 100 110 120 101 111 121 102 112 122 103 113 123 222 232 242 224 234 244 225 235 245 227 237 247 228 238 248 229 239 249 230 240 250 230 240 250 231 241 251 231 241 251 231 241 251 232 242 252 233 243 253 234 244 254 235 245 255 235 245 255 236 246 256 236 246 256 236 246 256 236 246 256 235 245 255 235 245 255 234 244 254 234 244 254 234 244 254 234 244 254 235 245 255 235 245 255 235 245 255 235 245 255 235 245 255 235 245 255 234 244 254 233 243 253 233 243 253 232 242 252 232 242 252 232 242 252 232 242 252 233 243 253 233 243 253 233 243 253 234 244 254 233 243 253 233 243 253 232 242 252 232 242 252 231 241 251 100 110 120 100 110 120 101 111 121 101 111 121 102 112 122 103 113 123 222 232 242 224 234 244 226 236 246 227 237 247 228 238 248 229 239 249 230 240 250 230 240 250 231 241 251 231 241 251 232 242 252 232 242 252 233 243 253 234 244 254 235 245 255 236 246 256 236 246 256 236 246 256 236 246 256 235 245 255 235 245 255 234 244 254 234 244 254 234 244 254 234 244 254 234 244 254 234 244 254 235 245 255 235 245 255 235 245 255 235 245 255 234 244 254 234 244 254 233 243 253 233 243 253 232 242 252 232 242 252 233 243 253 233 243 253 233 243 253 234 244 254 234 244 254 234 244 254 233 243 253 233 243 253 232 242 252 231 241 251 231 241 251 230 240 250 230 240 250 230 240 250 230 240 250 231 241 251 231 241 251 230 240 250 230 240 250 229 239 249 228 238 248 227 237 247 226 236 246 225 235 245 225 235 245 224 234 244 224 234 244 224 234 244 224 234 244 223 233 243 222 232 242 103 113 123 103 113 123 102 112 122 101 111 121 101 111 121 100 110 120 100 110 120 99 109 119 99 109 119 99 109 119 99 109 119 99 109 119 99 109 119 99 109 119 99 109 119 98 108 118 98 108 118 98 108 118 98 108 118 98 108 118 98 108 118 99 109 119 99 109 119 99 109 119 100 110 120 100 110 120 100 110 120 100 110 120 99 109 119 99 109 119 99 109 119 99 109 119 100 110 120 100 110 120 100 110 120 101 111 121 101 111 121 101 111 121 101 111 121 101 111 121 101 111 121 100 110 120 100 110 120 100 110 120 100 110 120 100 110 120 100 110 120 100 110 120 100 110 120 99 109 119 99 109 119 98 108 118 98 108 118 97 107 117 96 106 116 95 105 115 95 105 115 94 104 114 94 104 114 94 104 114 94 104 114 94 104 114 93 103 113 93 103 113 93 103 113 92 102 112 91 101 111 91 101 111 91 101 111 90 100 110 90 100 110 90 100 110 90 100 110 91 101 111 91 101 111 90 100 110 90 100 110 90 100 110 89 99 109 89 99 109 89 99 109 88 98 108 88 98 108 89 99 109 89 99 109 89 99 109 89 99 109 89 99 109 89 99 109 89 99 109 89 99 109 88 98 108 88 98 108 88 98 108 88 98 108 88 98 108 88 98 108 88 98 108 88 98 108 89 99 109 89 99 109 88 98 108 88 98 108 88 98 108 87 97 107 87 97 107 87 97 107 87 97 107 87 97 107 88 98 108 88 98 108 89 99 109 89 99 109 90 100 110 90 100 110 90 100 110 91 101 111 91 101 111 91 101 111 92 102 112 93 103 113 93 103 113 94 104 114 95 105 115 96 106 116 97 107 117 98 108 118 99 109 119 99 109 119 100 110 120 100 110 120 101 111 121 101 111 121 102 112 122 103 113 123 223 233 243 225 235 245 226 236 246 227 237 247 229 239 249 229 239 249 230 240 250 230 240 250 231 241 251 231 241 251 232 242 252 233 243 253 234 244 254 235 245 255 235 245 255 236 246 256 236 246 256 236 246 256 236 246 256 235 245 255 235 245 255 234 244 254 234 244 254 234 244 254 234 244 254 234 244 254 235 245 255 235 245 255 235 245 255 235 245 255 235 245 255 234 244 254 233 243 253 233 243 253 233 243 253 232 242 252 232 242 252 233 243 253 233 243 253 234 244 254 234 244 254 234 244 254 234 244 254 233 243 253 232 242 252 232 242 252 231 241 251 100 110 120 100 110 120 100 110 120 101 111 121 102 112 122 103 113 123 103 113 123 223 233 243 225 235 245 226 236 246 227 237 247 228 238 248 229 239 249 230 240 250 230 240 250 231 241 251 232 242 252 232 242 252 233 243 253 234 244 254 235 245 255 236 246 256 236 246 256 236 246 256 236 246 256 235 245 255 235 245 255 234 244 254 234 244 254 233 243 253 233 243 253 234 244 254 234 244 254 234 244 254 234 244 254 234 244 254 234 244 254 234 244 254 234 244 254 233 243 253 233 243 253 233 243 253 233 243 253 233 243 253 234 244 254 234 244 254 234 244 254 234 244 254 234 244 254 233 243 253 233 243 253 232 242 252 231 241 251 230 240 250 230 240 250 230 240 250 230 240 250 230 240 250 230 240 250 230 240 250 229 239 249 229 239 249 229 239 249 228 238 248 227 237 247 226 236 246 226 236 246 225 235 245 225 235 245 225 235 245 224 234 244 224 234 244 223 233 243 222 232 242 103 113 123 103 113 123 102 112 122 101 111 121 101 111 121 100 110 120 100 110 120 99 109 119 99 109 119 99 109 119 99 109 119 99 109 119 99 109 119 99 109 119 99 109 119 99 109 119 98 108 118 98 108 118 98 108 118 99 109 119 99 109 119 99 109 119 99 109 119 100 110 120 100 110 120 100 110 120 100 110 120 100 110 120 99 109 119 99 109 119 99 109 119 99 109 119 99 109 119 100 110 120 100 110 120 100 110 120 100 110 120 101 111 121 101 111 121 101 111 121 100 110 120 100 110 120 100 110 120 100 110 120 100 110 120 100 110 120 100 110 120 100 110 120 99 109 119 99 109 119 99 109 119 98 108 118 97 107 117 97 107 117 96 106 116 95 105 115 95 105 115 94 104 114 94 104 114 94 104 114 94 104 114 94 104 114 93 103 113 93 103 113 93 103 113 92 102 112 92 102 112 91 101 111 91 101 111 91 101 111 91 101 111 91 101 111 91 101 111 91 101 111 91 101 111 91 101 111 90 100 110 90 100 110 89 99 109 89 99 109 89 99 109 88 98 108 88 98 108 88 98 108 88 98 108 89 99 109 89 99 109 89 99 109 89 99 109 89 99 109 89 99 109 88 98 108 88 98 108 88 98 108 88 98 108 88 98 108 88 98 108 88 98 108 89 99 109 89 99 109 89 99 109 89 99 109 88 98 108 88 98 108 88 98 108 87 97 107 87 97 107 87 97 107 88 98 108 88 98 108 88 98 108 89 99 109 89 99 109 90 100 110 90 100 110 91 101 111 91 101 111 91 101 111 92 102 112 92 102 112 93 103 113 94 104 114 95 105 115 96 106 116 97 107 117 98 108 118 98 108 118 99 109 119 99 109 119 100 110 120 100 110 120 101 111 121 101 111 121 102 112 122 103 113 123 222 232 242 224 234 244 225 235 245 226 236 246 228 238 248 228 238 248 229 239 249 230 240 250 230 240 250 231 241 251 232 242 252 233 243 253 234 244 254 234 244 254 235 245 255 236 246 256 236 246 256 236 246 256 235 245 255 235 245 255 234 244 254 234 244 254 234 244 254 233 243 253 233 243 253 234 244 254 234 244 254 234 244 254 234 244 254 234 244 254 234 244 254 234 244 254 234 244 254 233 243 253 233 243 253 233 243 253 233 243 253 233 243 253 234 244 254 234 244 254 234 244 254 234 244 254 234 244 254 233 243 253 232 242 252 232 242 252 231 241 251 100 110 120 100 110 120 100 110 120 101 111 121 102 112 122 102 112 122 103 113 123 222 232 242 223 233 243 225 235 245 226 236 246 227 237 247 228 238 248 229 239 249 230 240 250 231 241 251 232 242 252 233 243 253 233 243 253 234 244 254 235 245 255 235 245 255 235 245 255 235 245 255 235 245 255 235 245 255 234 244 254 234 244 254 234 244 254 233 243 253 233 243 253 233 243 253 233 243 253 234 244 254 234 244 254 234 244 254 234 244 254 234 244 254 234 244 254 234 244 254 234 244 254 234 244 254 234 244 254 234 244 254 234 244 254 234 244 254 234 244 254 234 244 254 234 244 254 233 243 253 232 242 252 232 242 252 231 241 251 230 240 250 230 240 250 229 239 249 229 239 249 229 239 249 229 239 249 229 239 249 228 238 248 228 238 248 228 238 248 227 237 247 227 237 247 226 236 246 226 236 246 226 236 246 225 235 245 225 235 245 224 234 244 224 234 244 223 233 243 222 232 242 103 113 123 103 113 123 102 112 122 101 111 121 101 111 121 100 110 120 100 110 120 100 110 120 99 109 119 99 109 119 99 109 119 99 109 119 99 109 119 99 109 119 99 109 119 99 109 119 99 109 119 99 109 119 99 109 119 99 109 119 99 109 119 100 110 120 100 110 120 100 110 120 100 110 120 100 110 120 100 110 120 100 110 120 99 109 119 99 109 119 99 109 119 99 109 119 99 109 119 99 109 119 99 109 119 100 110 120 100 110 120 100 110 120 100 110 120 100 110 120 100 110 120 100 110 120 100 110 120 100 110 120 100 110 120 100 110 120 100 110 120 100 110 120 99 109 119 99 109 119 99 109 119 98 108 118 97 107 117 97 107 117 96 106 116 95 105 115 95 105 115 94 104 114 94 104 114 94 104 114 94 104 114 93 103 113 93 103 113 93 103 113 93 103 113 92 102 112 92 102 112 92 102 112 92 102 112 92 102 112 91 101 111 91 101 111 91 101 111 91 101 111 91 101 111 91 101 111 90 100 110 90 100 110 90 100 110 89 99 109 89 99 109 88 98 108 88 98 108 88 98 108 88 98 108 88 98 108 88 98 108 88 98 108 88 98 108 88 98 108 88 98 108 88 98 108 88 98 108 88 98 108 88 98 108 89 99 109 89 99 109 89 99 109 89 99 109 89 99 109 89 99 109 89 99 109 88 98 108 88 98 108 88 98 108 88 98 108 88 98 108 88 98 108 88 98 108 88 98 108 88 98 108 89 99 109 89 99 109 90 100 110 90 100 110 91 101 111 91 101 111 92 102 112 92 102 112 93 103 113 94 104 114 95 105 115 95 105 115 96 106 116 97 107 117 98 108 118 98 108 118 99 109 119 99 109 119 100 110 120 100 110 120 101 111 121 101 111 121 102 112 122 102 112 122 103 113 123 222 232 242 224 234 244 225 235 245 226 236 246 227 237 247 228 238 248 229 239 249 230 240 250 231 241 251 232 242 252 233 243 253 234 244 254 234 244 254 235 245 255 235 245 255 235 245 255 235 245 255 235 245 255 235 245 255 234 244 254 234 244 254 233 243 253 233 243 253 233 243 253 233 243 253 233 243 253 234 244 254 234 244 254 234 244 254 234 244 254 234 244 254 234 244 254 234 244 254 234 244 254 234 244 254 234 244 254 234 244 254 234 244 254 234 244 254 234 244 254 234 244 254 233 243 253 233 243 253 232 242 252 231 241 251 231 241 251 100 110 120 100 110 120 100 110 120 101 111 121 101 111 121 102 112 122 103 113 123 103 113 123 222 232 242 223 233 243 225 235 245 226 236 246 227 237 247 229 239 249 230 240 250 231 241 251 232 242 252 233 243 253 233 243 253 234 244 254 234 244 254 234 244 254 235 245 255 235 245 255 234 244 254 234 244 254 234 244 254 234 244 254 234 244 254 233 243 253 233 243 253 233 243 253 233 243 253 233 243 253 233 243 253 233 243 253 233 243 253 234 244 254 234 244 254 234 244 254 235 245 255 235 245 255 235 245 255 235 245 255 235 245 255 235 245 255 234 244 254 234 244 254 233 243 253 233 243 253 232 242 252 232 242 252 231 241 251 230 240 250 230 240 250 229 239 249 229 239 249 228 238 248 228 238 248 227 237 247 227 237 247 227 237 247 227 237 247 227 237 247 227 237 247 227 237 247 226 236 246 226 236 246 226 236 246 225 235 245 225 235 245 224 234 244 223 233 243 222 232 242 103 113 123 103 113 123 102 112 122 102 112 122 101 111 121 101 111 121 100 110 120 100 110 120 100 110 120 99 109 119 99 109 119 99 109 119 99 109 119 99 109 119 99 109 119 99 109 119 99 109 119 100 110 120 100 110 120 100 110 120 100 110 120 100 110 120 100 110 120 100 110 120 100 110 120 100 110 120 100 110 120 100 110 120 99 109 119 99 109 119 99 109 119 99 109 119 99 109 119 99 109 119 99 109 119 99 109 119 99 109 119 99 109 119 99 109 119 100 110 120 100 110 120 100 110 120 100 110 120 100 110 120 100 110 120 100 110 120 100 110 120 99 109 119 99 109 119 99 109 119 98 108 118 98 108 118 97 107 117 97 107 117 96 106 116 96 106 116 95 105 115 94 104 114 94 104 114 94 104 114 93 103 113 93 103 113 93 103 113 93 103 113 93 103 113 92 102 112 92 102 112 92 102 112 92 102 112 92 102 112 92 102 112 92 102 112 92 102 112 91 101 111 91 101 111 91 101 111 90 100 110 90 100 110 90 100 110 89 99 109 89 99 109 89 99 109 88 98 108 88 98 108 88 98 108 88 98 108 88 98 108 88 98 108 88 98 108 88 98 108 88 98 108 88 98 108 89 99 109 89 99 109 89 99 109 89 99 109 89 99 109 89 99 109 89 99 109 89 99 109 89 99 109 89 99 109 88 98 108 88 98 108 88 98 108 88 98 108 88 98 108 88 98 108 88 98 108 88 98 108 89 99 109 89 99 109 89 99 109 90 100 110 90 100 110 91 101 111 92 102 112 92 102 112 93 103 113 94 104 114 95 105 115 95 105 115 96 106 116 97 107 117 97 107 117 98 108 118 98 108 118 99 109 119 99 109 119 100 110 120 100 110 120 101 111 121 101 111 121 102 112 122 102 112 122 103 113 123 103 113 123 223 233 243 224 234 244 225 235 245 226 236 246 228 238 248 229 239 249 230 240 250 231 241 251 232 242 252 233 243 253 233 243 253 234 244 254 234 244 254 234 244 254 235 245 255 235 245 255 234 244 254 234 244 254 234 244 254 234 244 254 233 243 253 233 243 253 233 243 253 233 243 253 233 243 253 233 243 253 233 243 253 233 243 253 234 244 254 234 244 254 234 244 254 234 244 254 235 245 255 235 245 255 235 245 255 235 245 255 235 245 255 234 244 254 234 244 254 234 244 254 233 243 253 233 243 253 232 242 252 231 241 251 231 241 251 100 110 120 100 110 120 101 111 121 101 111 121 101 111 121 102 112 122 102 112 122 103 113 123 103 113 123 222 232 242 223 233 243 225 235 245 226 236 246 228 238 248 229 239 249 231 241 251 232 242 252 233 243 253 233 243 253 233 243 253 234 244 254 234 244 254 234 244 254 234 244 254 234 244 254 234 244 254 234 244 254 234 244 254 234 244 254 233 243 253 233 243 253 233 243 253 233 243 253 232 242 252 232 242 252 233 243 253 233 243 253 234 244 254 234 244 254 235 245 255 235 245 255 236 246 256 236 246 256 236 246 256 235 245 255 235 245 255 234 244 254 234 244 254 233 243 253 232 242 252 232 242 252 231 241 251 231 241 251 230 240 250 230 240 250 229 239 249 228 238 248 227 237 247 227 237 247 226 236 246 226 236 246 226 236 246 226 236 246 226 236 246 227 237 247 227 237 247 227 237 247 226 236 246 226 236 246 225 235 245 225 235 245 224 234 244 223 233 243 222 232 242 103 113 123 103 113 123 102 112 122 102 112 122 101 111 121 101 111 121 101 111 121 100 110 120 100 110 120 99 109 119 99 109 119 99 109 119 99 109 119 99 109 119 99 109 119 100 110 120 100 110 120 100 110 120 101 111 121 101 111 121 101 111 121 100 110 120 100 110 120 100 110 120 100 110 120 100 110 120 100 110 120 100 110 120 99 109 119 99 109 119 99 109 119 99 109 119 99 109 119 99 109 119 99 109 119 98 108 118 98 108 118 99 109 119 99 109 119 99 109 119 99 109 119 100 110 120 100 110 120 100 110 120 100 110 120 100 110 120 100 110 120 99 109 119 99 109 119 98 108 118 98 108 118 97 107 117 97 107 117 97 107 117 96 106 116 96 106 116 95 105 115 95 105 115 94 104 114 94 104 114 93 103 113 93 103 113 93 103 113 93 103 113 93 103 113 93 103 113 93 103 113 93 103 113 93 103 113 93 103 113 93 103 113 92 102 112 92 102 112 92 102 112 91 101 111 91 101 111 90 100 110 90 100 110 90 100 110 89 99 109 89 99 109 89 99 109 88 98 108 88 98 108 88 98 108 88 98 108 87 97 107 87 97 107 87 97 107 88 98 108 88 98 108 88 98 108 89 99 109 89 99 109 89 99 109 89 99 109 89 99 109 89 99 109 89 99 109 89 99 109 89 99 109 89 99 109 88 98 108 88 98 108 88 98 108 88 98 108 88 98 108 89 99 109 89 99 109 89 99 109 89 99 109 89 99 109 89 99 109 90 100 110 90 100 110 91 101 111 92 102 112 93 103 113 94 104 114 95 105 115 95 105 115 96 106 116 96 106 116 97 107 117 97 107 117 98 108 118 98 108 118 99 109 119 99 109 119 100 110 120 100 110 120 101 111 121 101 111 121 102 112 122 102 112 122 102 112 122 103 113 123 103 113 123 222 232 242 224 234 244 225 235 245 227 237 247 228 238 248 230 240 250 231 241 251 232 242 252 233 243 253 233 243 253 234 244 254 234 244 254 234 244 254 234 244 254 234 244 254 234 244 254 234 244 254 234 244 254 234 244 254 234 244 254 233 243 253 233 243 253 233 243 253 232 242 252 232 242 252 232 242 252 233 243 253 233 243 253 234 244 254 234 244 254 235 245 255 235 245 255 236 246 256 236 246 256 235 245 255 235 245 255 235 245 255 234 244 254 233 243 253 233 243 253 232 242 252 232 242 252 231 241 251 231 241 251 100 110 120 100 110 120 101 111 121 101 111 121 101 111 121 102 112 122 102 112 122 102 112 122 103 113 123 103 113 123 222 232 242 224 234 244 225 235 245 227 237 247 229 239 249 230 240 250 231 241 251 232 242 252 233 243 253 233 243 253 233 243 253 233 243 253 233 243 253 233 243 253 233 243 253 233 243 253 234 244 254 234 244 254 234 244 254 233 243 253 233 243 253 233 243 253 232 242 252 232 242 252 232 242 252 232 242 252 233 243 253 233 243 253 234 244 254 235 245 255 236 246 256 236 246 256 236 246 256 236 246 256 236 246 256 235 245 255 234 244 254 233 243 253 233 243 253 232 242 252 232 242 252 231 241 251 231 241 251 230 240 250 230 240 250 229 239 249 228 238 248 227 237 247 226 236 246 226 236 246 225 235 245 225 235 245 225 235 245 226 236 246 226 236 246 227 237 247 227 237 247 227 237 247 226 236 246 226 236 246 225 235 245 224 234 244 223 233 243 222 232 242 103 113 123 103 113 123 102 112 122 102 112 122 102 112 122 101 111 121 101 111 121 100 110 120 100 110 120 99 109 119 99 109 119 99 109 119 99 109 119 99 109 119 100 110 120 100 110 120 101 111 121 101 111 121 101 111 121 101 111 121 101 111 121 101 111 121 100 110 120 100 110 120 100 110 120 100 110 120 100 110 120 100 110 120 99 109 119 99 109 119 99 109 119 99 109 119 99 109 119 98 108 118 98 108 118 98 108 118 98 108 118 98 108 118 98 108 118 99 109 119 99 109 119 99 109 119 100 110 120 100 110 120 100 110 120 100 110 120 99 109 119 99 109 119 98 108 118 98 108 118 98 108 118 97 107 117 97 107 117 96 106 116 96 106 116 96 106 116 95 105 115 95 105 115 94 104 114 94 104 114 93 103 113 93 103 113 92 102 112 92 102 112 93 103 113 93 103 113 93 103 113 93 103 113 93 103 113 93 103 113 93 103 113 93 103 113 92 102 112 92 102 112 91 101 111 91 101 111 90 100 110 90 100 110 90 100 110 90 100 110 89 99 109 89 99 109 89 99 109 88 98 108 88 98 108 87 97 107 87 97 107 87 97 107 87 97 107 87 97 107 88 98 108 88 98 108 89 99 109 89 99 109 89 99 109 90 100 110 89 99 109 89 99 109 89 99 109 89 99 109 89 99 109 89 99 109 89 99 109 89 99 109 89 99 109 89 99 109 89 99 109 89 99 109 89 99 109 89 99 109 89 99 109 89 99 109 89 99 109 90 100 110 91 101 111 92 102 112 93 103 113 94 104 114 95 105 115 95 105 115 96 106 116 97 107 117 97 107 117 97 107 117 97 107 117 98 108 118 98 108 118 99 109 119 99 109 119 100 110 120 100 110 120 101 111 121 101 111 121 101 111 121 102 112 122 102 112 122 102 112 122 103 113 123 103 113 123 223 233 243 224 234 244 226 236 246 228 238 248 229 239 249 231 241 251 232 242 252 232 242 252 233 243 253 233 243 253 233 243 253 233 243 253 233 243 253 233 243 253 233 243 253 233 243 253 234 244 254 234 244 254 234 244 254 233 243 253 233 243 253 232 242 252 232 242 252 232 242 252 232 242 252 232 242 252 233 243 253 234 244 254 235 245 255 235 245 255 236 246 256 236 246 256 236 246 256 236 246 256 235 245 255 235 245 255 234 244 254 233 243 253 233 243 253 232 242 252 232 242 252 231 241 251 231 241 251 100 110 120 100 110 120 101 111 121 101 111 121 101 111 121 101 111 121 102 112 122 102 112 122 102 112 122 103 113 123 103 113 123 223 233 243 225 235 245 226 236 246 228 238 248 230 240 250 231 241 251 232 242 252 232 242 252 232 242 252 232 242 252 232 242 252 232 242 252 232 242 252 233 243 253 233 243 253 233 243 253 233 243 253 233 243 253 233 243 253 233 243 253 232 242 252 232 242 252 232 242 252 232 242 252 232 242 252 233 243 253 233 243 253 234 244 254 235 245 255 236 246 256 237 247 257 237 247 257 236 246 256 236 246 256 235 245 255 234 244 254 233 243 253 233 243 253 232 242 252 232 242 252 231 241 251 231 241 251 230 240 250 229 239 249 228 238 248 227 237 247 226 236 246 225 235 245 225 235 245 224 234 244 225 235 245 225 235 245 225 235 245 226 236 246 227 237 247 227 237 247 227 237 247 226 236 246 225 235 245 224 234 244 223 233 243 222 232 242 103 113 123 103 113 123 103 113 123 103 113 123 102 112 122 102 112 122 102 112 122 101 111 121 101 111 121 100 110 120 100 110 120 99 109 119 99 109 119 99 109 119 100 110 120 100 110 120 101 111 121 101 111 121 101 111 121 102 112 122 102 112 122 101 111 121 101 111 121 101 111 121 100 110 120 100 110 120 100 110 120 100 110 120 100 110 120 99 109 119 99 109 119 99 109 119 99 109 119 99 109 119 98 108 118 98 108 118 97 107 117 97 107 117 97 107 117 98 108 118 98 108 118 99 109 119 99 109 119 100 110 120 100 110 120 100 110 120 100 110 120 99 109 119 99 109 119 98 108 118 98 108 118 97 107 117 97 107 117 97 107 117 96 106 116 96 106 116 96 106 116 95 105 115 95 105 115 94 104 114 94 104 114 93 103 113 93 103 113 93 103 113 93 103 113 93 103 113 93 103 113 93 103 113 94 104 114 94 104 114 94 104 114 93 103 113 93 103 113 93 103 113 92 102 112 91 101 111 91 101 111 90 100 110 90 100 110 90 100 110 90 100 110 89 99 109 89 99 109 89 99 109 88 98 108 88 98 108 87 97 107 87 97 107 87 97 107 87 97 107 87 97 107 88 98 108 88 98 108 89 99 109 89 99 109 90 100 110 90 100 110 90 100 110 89 99 109 89 99 109 89 99 109 89 99 109 89 99 109 89 99 109 89 99 109 89 99 109 89 99 109 89 99 109 89 99 109 89 99 109 89 99 109 89 99 109 89 99 109 90 100 110 90 100 110 91 101 111 92 102 112 93 103 113 94 104 114 95 105 115 96 106 116 97 107 117 97 107 117 97 107 117 97 107 117 98 108 118 98 108 118 98 108 118 99 109 119 99 109 119 100 110 120 100 110 120 101 111 121 101 111 121 101 111 121 101 111 121 102 112 122 102 112 122 102 112 122 103 113 123 222 232 242 223 233 243 225 235 245 227 237 247 229 239 249 230 240 250 231 241 251 232 242 252 232 242 252 232 242 252 232 242 252 232 242 252 232 242 252 232 242 252 233 243 253 233 243 253 233 243 253 233 243 253 233 243 253 233 243 253 233 243 253 232 242 252 232 242 252 232 242 252 232 242 252 232 242 252 233 243 253 234 244 254 235 245 255 236 246 256 236 246 256 237 247 257 237 247 257 236 246 256 236 246 256 235 245 255 234 244 254 233 243 253 232 242 252 232 242 252 231 241 251 231 241 251 231 241 251 100 110 120 100 110 120 100 110 120 101 111 121 101 111 121 101 111 121 101 111 121 101 111 121 102 112 122 102 112 122 103 113 123 222 232 242 224 234 244 226 236 246 227 237 247 229 239 249 230 240 250 231 241 251 231 241 251 232 242 252 232 242 252 232 242 252 232 242 252 232 242 252 232 242 252 232 242 252 233 243 253 233 243 253 233 243 253 233 243 253 233 243 253 232 242 252 232 242 252 232 242 252 232 242 252 232 242 252 233 243 253 233 243 253 234 244 254 235 245 255 236 246 256 237 247 257 237 247 257 236 246 256 236 246 256 235 245 255 234 244 254 233 243 253 232 242 252 232 242 252 231 241 251 231 241 251 230 240 250 230 240 250 229 239 249 228 238 248 227 237 247 226 236 246 225 235 245 224 234 244 224 234 244 224 234 244 224 234 244 225 235 245 226 236 246 226 236 246 226 236 246 226 236 246 226 236 246 225 235 245 224 234 244 223 233 243 222 232 242 222 232 242 103 113 123 103 113 123 103 113 123 102 112 122 102 112 122 102 112 122 101 111 121 101 111 121 100 110 120 100 110 120 100 110 120 100 110 120 100 110 120 100 110 120 100 110 120 101 111 121 101 111 121 102 112 122 102 112 122 102 112 122 102 112 122 101 111 121 101 111 121 100 110 120 100 110 120 100 110 120 100 110 120 100 110 120 99 109 119 99 109 119 99 109 119 99 109 119 98 108 118 98 108 118 98 108 118 97 107 117 97 107 117 97 107 117 97 107 117 98 108 118 98 108 118 99 109 119 99 109 119 99 109 119 99 109 119 99 109 119 99 109 119 98 108 118 98 108 118 97 107 117 97 107 117 97 107 117 96 106 116 96 106 116 96 106 116 96 106 116 95 105 115 95 105 115 94 104 114 94 104 114 93 103 113 93 103 113 93 103 113 93 103 113 93 103 113 93 103 113 94 104 114 94 104 114 94 104 114 94 104 114 94 104 114 93 103 113 93 103 113 92 102 112 92 102 112 91 101 111 91 101 111 90 100 110 90 100 110 90 100 110 89 99 109 89 99 109 89 99 109 88 98 108 88 98 108 87 97 107 87 97 107 87 97 107 87 97 107 87 97 107 88 98 108 88 98 108 89 99 109 89 99 109 90 100 110 90 100 110 90 100 110 90 100 110 89 99 109 89 99 109 89 99 109 89 99 109 89 99 109 89 99 109 89 99 109 90 100 110 90 100 110 90 100 110 90 100 110 90 100 110 90 100 110 90 100 110 90 100 110 91 101 111 91 101 111 92 102 112 93 103 113 95 105 115 95 105 115 96 106 116 97 107 117 97 107 117 98 108 118 98 108 118 98 108 118 98 108 118 98 108 118 99 109 119 99 109 119 100 110 120 100 110 120 101 111 121 101 111 121 101 111 121 101 111 121 101 111 121 102 112 122 102 112 122 102 112 122 103 113 123 223 233 243 224 234 244 226 236 246 228 238 248 229 239 249 230 240 250 231 241 251 231 241 251 232 242 252 232 242 252 231 241 251 232 242 252 232 242 252 232 242 252 232 242 252 233 243 253 233 243 253 233 243 253 233 243 253 233 243 253 232 242 252 232 242 252 232 242 252 232 242 252 232 242 252 233 243 253 234 244 254 235 245 255 236 246 256 236 246 256 237 247 257 237 247 257 236 246 256 236 246 256 235 245 255 234 244 254 233 243 253 232 242 252 232 242 252 231 241 251 231 241 251 230 240 250 100 110 120 100 110 120 100 110 120 101 111 121 101 111 121 101 111 121 101 111 121 101 111 121 102 112 122 102 112 122 103 113 123 103 113 123 223 233 243 225 235 245 226 236 246 228 238 248 229 239 249 230 240 250 230 240 250 231 241 251 231 241 251 231 241 251 231 241 251 231 241 251 231 241 251 232 242 252 232 242 252 232 242 252 233 243 253 233 243 253 232 242 252 232 242 252 232 242 252 232 242 252 232 242 252 232 242 252 233 243 253 234 244 254 235 245 255 235 245 255 236 246 256 237 247 257 237 247 257 236 246 256 236 246 256 235 245 255 234 244 254 233 243 253 232 242 252 232 242 252 231 241 251 231 241 251 230 240 250 229 239 249 229 239 249 228 238 248 227 237 247 226 236 246 225 235 245 224 234 244 224 234 244 224 234 244 224 234 244 225 235 245 225 235 245 226 236 246 226 236 246 226 236 246 225 235 245 225 235 245 224 234 244 223 233 243 222 232 242 222 232 242 103 113 123 103 113 123 103 113 123 103 113 123 102 112 122 102 112 122 102 112 122 101 111 121 101 111 121 100 110 120 100 110 120 100 110 120 100 110 120 100 110 120 101 111 121 101 111 121 102 112 122 102 112 122 102 112 122 102 112 122 102 112 122 102 112 122 101 111 121 101 111 121 100 110 120 100 110 120 100 110 120 100 110 120 99 109 119 99 109 119 99 109 119 99 109 119 98 108 118 98 108 118 97 107 117 97 107 117 97 107 117 97 107 117 97 107 117 97 107 117 98 108 118 98 108 118 99 109 119 99 109 119 99 109 119 99 109 119 98 108 118 98 108 118 98 108 118 97 107 117 97 107 117 97 107 117 96 106 116 96 106 116 96 106 116 96 106 116 95 105 115 95 105 115 94 104 114 94 104 114 93 103 113 93 103 113 93 103 113 93 103 113 93 103 113 94 104 114 94 104 114 94 104 114 94 104 114 94 104 114 94 104 114 93 103 113 93 103 113 92 102 112 92 102 112 91 101 111 91 101 111 90 100 110 90 100 110 90 100 110 89 99 109 89 99 109 89 99 109 88 98 108 88 98 108 87 97 107 87 97 107 87 97 107 87 97 107 87 97 107 88 98 108 88 98 108 89 99 109 89 99 109 89 99 109 90 100 110 90 100 110 90 100 110 89 99 109 89 99 109 89 99 109 89 99 109 89 99 109 89 99 109 90 100 110 90 100 110 90 100 110 90 100 110 90 100 110 90 100 110 90 100 110 90 100 110 91 101 111 91 101 111 92 102 112 93 103 113 94 104 114 95 105 115 96 106 116 97 107 117 97 107 117 98 108 118 98 108 118 98 108 118 98 108 118 98 108 118 99 109 119 99 109 119 99 109 119 100 110 120 100 110 120 100 110 120 101 111 121 101 111 121 101 111 121 101 111 121 101 111 121 102 112 122 102 112 122 103 113 123 222 232 242 224 234 244 225 235 245 227 237 247 228 238 248 229 239 249 230 240 250 231 241 251 231 241 251 231 241 251 231 241 251 231 241 251 231 241 251 232 242 252 232 242 252 232 242 252 233 243 253 233 243 253 233 243 253 232 242 252 232 242 252 232 242 252 232 242 252 232 242 252 232 242 252 233 243 253 234 244 254 235 245 255 236 246 256 236 246 256 237 247 257 237 247 257 236 246 256 235 245 255 235 245 255 234 244 254 233 243 253 232 242 252 232 242 252 231 241 251 231 241 251 230 240 250 100 110 120 100 110 120 100 110 120 100 110 120 100 110 120 101 111 121 101 111 121 101 111 121 101 111 121 102 112 122 103 113 123 103 113 123 222 232 242 224 234 244 225 235 245 227 237 247 228 238 248 229 239 249 229 239 249 230 240 250 230 240 250 230 240 250 230 240 250 231 241 251 231 241 251 231 241 251 232 242 252 232 242 252 232 242 252 232 242 252 232 242 252 232 242 252 232 242 252 232 242 252 232 242 252 233 243 253 233 243 253 234 244 254 235 245 255 235 245 255 236 246 256 236 246 256 236 246 256 236 246 256 235 245 255 235 245 255 234 244 254 233 243 253 233 243 253 232 242 252 231 241 251 230 240 250 230 240 250 229 239 249 228 238 248 227 237 247 226 236 246 226 236 246 225 235 245 224 234 244 224 234 244 224 234 244 224 234 244 224 234 244 225 235 245 225 235 245 225 235 245 225 235 245 225 235 245 224 234 244 224 234 244 223 233 243 223 233 243 222 232 242 103 113 123 103 113 123 103 113 123 103 113 123 102 112 122 102 112 122 102 112 122 102 112 122 101 111 121 101 111 121 101 111 121 101 111 121 101 111 121 101 111 121 101 111 121 102 112 122 102 112 122 102 112 122 102 112 122 102 112 122 102 112 122 102 112 122 101 111 121 101 111 121 101 111 121 100 110 120 100 110 120 100 110 120 99 109 119 99 109 119 99 109 119 98 108 118 98 108 118 98 108 118 97 107 117 97 107 117 97 107 117 97 107 117 97 107 117 97 107 117 97 107 117 98 108 118 98 108 118 98 108 118 98 108 118 98 108 118 98 108 118 98 108 118 97 107 117 97 107 117 97 107 117 97 107 117 96 106 116 96 106 116 96 106 116 95 105 115 95 105 115 95 105 115 94 104 114 94 104 114 94 104 114 94 104 114 93 103 113 93 103 113 94 104 114 94 104 114 94 104 114 94 104 114 94 104 114 94 104 114 94 104 114 94 104 114 93 103 113 93 103 113 92 102 112 92 102 112 91 101 111 91 101 111 90 100 110 90 100 110 89 99 109 89 99 109 89 99 109 88 98 108 88 98 108 87 97 107 87 97 107 87 97 107 87 97 107 87 97 107 88 98 108 88 98 108 89 99 109 89 99 109 89 99 109 89 99 109 90 100 110 90 100 110 90 100 110 89 99 109 89 99 109 90 100 110 90 100 110 90 100 110 90 100 110 90 100 110 90 100 110 90 100 110 91 101 111 91 101 111 91 101 111 91 101 111 92 102 112 92 102 112 93 103 113 94 104 114 94 104 114 95 105 115 96 106 116 97 107 117 97 107 117 98 108 118 98 108 118 98 108 118 98 108 118 99 109 119 99 109 119 99 109 119 99 109 119 100 110 120 100 110 120 100 110 120 100 110 120 101 111 121 101 111 121 101 111 121 101 111 121 102 112 122 102 112 122 103 113 123 103 113 123 223 233 243 224 234 244 226 236 246 227 237 247 228 238 248 229 239 249 229 239 249 230 240 250 230 240 250 230 240 250 231 241 251 231 241 251 231 241 251 231 241 251 232 242 252 232 242 252 232 242 252 232 242 252 232 242 252 232 242 252 232 242 252 232 242 252 232 242 252 233 243 253 233 243 253 234 244 254 235 245 255 235 245 255 236 246 256 236 246 256 236 246 256 236 246 256 235 245 255 235 245 255 234 244 254 233 243 253 232 242 252 232 242 252 231 241 251 230 240 250 230 240 250 100 110 120 100 110 120 100 110 120 100 110 120 100 110 120 100 110 120 101 111 121 101 111 121 101 111 121 102 112 122 102 112 122 103 113 123 222 232 242 223 233 243 224 234 244 225 235 245 226 236 246 227 237 247 228 238 248 229 239 249 229 239 249 230 240 250 230 240 250 230 240 250 231 241 251 231 241 251 231 241 251 231 241 251 231 241 251 231 241 251 232 242 252 232 242 252 232 242 252 232 242 252 233 243 253 233 243 253 234 244 254 234 244 254 235 245 255 235 245 255 235 245 255 235 245 255 235 245 255 235 245 255 235 245 255 235 245 255 234 244 254 233 243 253 233 243 253 232 242 252 231 241 251 230 240 250 229 239 249 228 238 248 228 238 248 227 237 247 226 236 246 225 235 245 225 235 245 224 234 244 224 234 244 224 234 244 224 234 244 224 234 244 224 234 244 224 234 244 224 234 244 224 234 244 224 234 244 224 234 244 223 233 243 223 233 243 223 233 243 222 232 242 222 232 242 103 113 123 103 113 123 103 113 123 102 112 122 102 112 122 102 112 122 102 112 122 102 112 122 102 112 122 101 111 121 102 112 122 102 112 122 102 112 122 102 112 122 102 112 122 102 112 122 102 112 122 102 112 122 102 112 122 102 112 122 102 112 122 102 112 122 101 111 121 101 111 121 100 110 120 100 110 120 100 110 120 99 109 119 99 109 119 98 108 118 98 108 118 98 108 118 97 107 117 97 107 117 97 107 117 97 107 117 97 107 117 97 107 117 97 107 117 97 107 117 97 107 117 97 107 117 97 107 117 98 108 118 97 107 117 97 107 117 97 107 117 97 107 117 97 107 117 97 107 117 96 106 116 96 106 116 96 106 116 96 106 116 95 105 115 95 105 115 95 105 115 95 105 115 94 104 114 94 104 114 94 104 114 94 104 114 94 104 114 94 104 114 94 104 114 94 104 114 94 104 114 94 104 114 94 104 114 94 104 114 93 103 113 93 103 113 93 103 113 92 102 112 92 102 112 91 101 111 91 101 111 90 100 110 90 100 110 89 99 109 89 99 109 89 99 109 88 98 108 88 98 108 88 98 108 88 98 108 88 98 108 88 98 108 88 98 108 88 98 108 88 98 108 88 98 108 89 99 109 89 99 109 89 99 109 89 99 109 90 100 110 90 100 110 90 100 110 90 100 110 90 100 110 90 100 110 90 100 110 90 100 110 90 100 110 91 101 111 91 101 111 91 101 111 91 101 111 92 102 112 92 102 112 92 102 112 93 103 113 94 104 114 94 104 114 95 105 115 96 106 116 96 106 116 97 107 117 97 107 117 98 108 118 98 108 118 98 108 118 99 109 119 99 109 119 99 109 119 99 109 119 99 109 119 100 110 120 100 110 120 100 110 120 100 110 120 100 110 120 100 110 120 101 111 121 101 111 121 102 112 122 102 112 122 103 113 123 103 113 123 222 232 242 223 233 243 224 234 244 225 235 245 226 236 246 227 237 247 228 238 248 229 239 249 229 239 249 230 240 250 230 240 250 230 240 250 231 241 251 231 241 251 231 241 251 231 241 251 231 241 251 232 242 252 232 242 252 232 242 252 232 242 252 232 242 252 233 243 253 233 243 253 234 244 254 234 244 254 235 245 255 235 245 255 235 245 255 235 245 255 235 245 255 235 245 255 235 245 255 234 244 254 234 244 254 233 243 253 232 242 252 232 242 252 231 241 251 230 240 250 229 239 249 100 110 120 100 110 120 100 110 120 100 110 120 100 110 120 100 110 120 101 111 121 101 111 121 101 111 121 102 112 122 102 112 122 103 113 123 103 113 123 222 232 242 223 233 243 224 234 244 225 235 245 225 235 245 226 236 246 227 237 247 228 238 248 229 239 249 230 240 250 230 240 250 230 240 250 230 240 250 230 240 250 230 240 250 231 241 251 231 241 251 231 241 251 232 242 252 232 242 252 233 243 253 233 243 253 234 244 254 234 244 254 234 244 254 234 244 254 235 245 255 235 245 255 235 245 255 235 245 255 235 245 255 235 245 255 234 244 254 234 244 254 234 244 254 233 243 253 232 242 252 231 241 251 230 240 250 229 239 249 228 238 248 227 237 247 226 236 246 226 236 246 225 235 245 225 235 245 225 235 245 225 235 245 224 234 244 224 234 244 224 234 244 223 233 243 223 233 243 223 233 243 223 233 243 223 233 243 223 233 243 223 233 243 223 233 243 223 233 243 223 233 243 222 232 242 222 232 242 103 113 123 103 113 123 103 113 123 102 112 122 102 112 122 102 112 122 102 112 122 102 112 122 102 112 122 102 112 122 102 112 122 102 112 122 102 112 122 102 112 122 102 112 122 102 112 122 102 112 122 102 112 122 102 112 122 102 112 122 102 112 122 101 111 121 101 111 121 101 111 121 100 110 120 100 110 120 99 109 119 99 109 119 98 108 118 98 108 118 97 107 117 97 107 117 97 107 117 97 107 117 97 107 117 97 107 117 97 107 117 97 107 117 97 107 117 97 107 117 97 107 117 97 107 117 97 107 117 97 107 117 97 107 117 97 107 117 97 107 117 97 107 117 97 107 117 96 106 116 96 106 116 96 106 116 95 105 115 95 105 115 95 105 115 95 105 115 95 105 115 95 105 115 95 105 115 95 105 115 95 105 115 95 105 115 94 104 114 94 104 114 94 104 114 94 104 114 94 104 114 94 104 114 94 104 114 93 103 113 93 103 113 93 103 113 93 103 113 92 102 112 92 102 112 91 101 111 91 101 111 90 100 110 89 99 109 89 99 109 89 99 109 88 98 108 88 98 108 88 98 108 88 98 108 88 98 108 88 98 108 88 98 108 88 98 108 88 98 108 88 98 108 88 98 108 89 99 109 89 99 109 89 99 109 89 99 109 90 100 110 90 100 110 90 100 110 90 100 110 90 100 110 90 100 110 91 101 111 91 101 111 91 101 111 91 101 111 91 101 111 92 102 112 92 102 112 93 103 113 93 103 113 94 104 114 94 104 114 95 105 115 95 105 115 96 106 116 96 106 116 97 107 117 97 107 117 98 108 118 98 108 118 99 109 119 99 109 119 99 109 119 99 109 119 99 109 119 99 109 119 100 110 120 100 110 120 100 110 120 100 110 120 100 110 120 100 110 120 101 111 121 101 111 121 102 112 122 102 112 122 103 113 123 103 113 123 103 113 123 222 232 242 223 233 243 224 234 244 225 235 245 226 236 246 227 237 247 228 238 248 228 238 248 229 239 249 230 240 250 230 240 250 230 240 250 230 240 250 230 240 250 231 241 251 231 241 251 231 241 251 231 241 251 232 242 252 232 242 252 233 243 253 233 243 253 234 244 254 234 244 254 234 244 254 234 244 254 235 245 255 235 245 255 235 245 255 235 245 255 235 245 255 234 244 254 234 244 254 234 244 254 233 243 253 233 243 253 232 242 252 231 241 251 230 240 250 229 239 249 100 110 120 99 109 119 99 109 119 99 109 119 100 110 120 100 110 120 100 110 120 101 111 121 102 112 122 102 112 122 102 112 122 103 113 123 103 113 123 103 113 123 222 232 242 222 232 242 223 233 243 224 234 244 225 235 245 226 236 246 227 237 247 228 238 248 229 239 249 229 239 249 230 240 250 230 240 250 230 240 250 230 240 250 230 240 250 230 240 250 231 241 251 232 242 252 232 242 252 233 243 253 234 244 254 234 244 254 234 244 254 234 244 254 234 244 254 234 244 254 234 244 254 234 244 254 234 244 254 234 244 254 234 244 254 234 244 254 234 244 254 233 243 253 233 243 253 232 242 252 231 241 251 230 240 250 228 238 248 227 237 247 227 237 247 226 236 246 226 236 246 225 235 245 225 235 245 225 235 245 225 235 245 225 235 245 224 234 244 223 233 243 223 233 243 222 232 242 222 232 242 222 232 242 222 232 242 222 232 242 223 233 243 223 233 243 223 233 243 223 233 243 222 232 242 222 232 242 103 113 123 103 113 123 103 113 123 102 112 122 102 112 122 102 112 122 103 113 123 103 113 123 103 113 123 103 113 123 103 113 123 103 113 123 103 113 123 103 113 123 102 112 122 102 112 122 102 112 122 102 112 122 102 112 122 102 112 122 102 112 122 102 112 122 101 111 121 101 111 121 100 110 120 100 110 120 99 109 119 98 108 118 98 108 118 98 108 118 97 107 117 97 107 117 97 107 117 97 107 117 97 107 117 97 107 117 97 107 117 97 107 117 96 106 116 96 106 116 96 106 116 96 106 116 96 106 116 96 106 116 96 106 116 96 106 116 97 107 117 97 107 117 96 106 116 96 106 116 96 106 116 96 106 116 95 105 115 95 105 115 95 105 115 95 105 115 95 105 115 95 105 115 95 105 115 95 105 115 95 105 115 95 105 115 95 105 115 95 105 115 94 104 114 94 104 114 94 104 114 94 104 114 93 103 113 93 103 113 93 103 113 93 103 113 93 103 113 92 102 112 92 102 112 91 101 111 91 101 111 90 100 110 89 99 109 89 99 109 89 99 109 88 98 108 88 98 108 88 98 108 88 98 108 88 98 108 88 98 108 88 98 108 88 98 108 88 98 108 88 98 108 88 98 108 88 98 108 89 99 109 89 99 109 89 99 109 90 100 110 90 100 110 90 100 110 91 101 111 91 101 111 91 101 111 91 101 111 91 101 111 91 101 111 91 101 111 92 102 112 92 102 112 93 103 113 94 104 114 94 104 114 95 105 115 95 105 115 96 106 116 96 106 116 96 106 116 96 106 116 97 107 117 97 107 117 98 108 118 98 108 118 99 109 119 99 109 119 99 109 119 100 110 120 100 110 120 100 110 120 99 109 119 99 109 119 99 109 119 100 110 120 100 110 120 100 110 120 101 111 121 101 111 121 102 112 122 102 112 122 103 113 123 103 113 123 103 113 123 103 113 123 222 232 242 222 232 242 223 233 243 224 234 244 225 235 245 226 236 246 228 238 248 228 238 248 229 239 249 229 239 249 230 240 250 230 240 250 230 240 250 230 240 250 230 240 250 231 241 251 231 241 251 232 242 252 233 243 253 233 243 253 234 244 254 234 244 254 234 244 254 234 244 254 234 244 254 234 244 254 234 244 254 234 244 254 234 244 254 234 244 254 234 244 254 234 244 254 234 244 254 233 243 253 233 243 253 232 242 252 230 240 250 229 239 249 228 238 248 100 110 120 99 109 119 99 109 119 99 109 119 100 110 120 100 110 120 100 110 120 101 111 121 102 112 122 102 112 122 102 112 122 103 113 123 103 113 123 103 113 123 103 113 123 103 113 123 222 232 242 222 232 242 224 234 244 225 235 245 226 236 246 227 237 247 228 238 248 229 239 249 229 239 249 229 239 249 229 239 249 229 239 249 230 240 250 230 240 250 231 241 251 232 242 252 233 243 253 234 244 254 234 244 254 235 245 255 235 245 255 235 245 255 234 244 254 234 244 254 233 243 253 233 243 253 233 243 253 233 243 253 233 243 253 233 243 253 233 243 253 233 243 253 233 243 253 232 242 252 231 241 251 229 239 249 228 238 248 227 237 247 226 236 246 226 236 246 226 236 246 226 236 246 225 235 245 225 235 245 225 235 245 225 235 245 224 234 244 223 233 243 222 232 242 222 232 242 103 113 123 103 113 123 103 113 123 222 232 242 222 232 242 223 233 243 223 233 243 223 233 243 222 232 242 222 232 242 103 113 123 103 113 123 103 113 123 103 113 123 103 113 123 103 113 123 103 113 123 103 113 123 222 232 242 222 232 242 222 232 242 222 232 242 103 113 123 103 113 123 102 112 122 102 112 122 102 112 122 102 112 122 102 112 122 102 112 122 102 112 122 102 112 122 101 111 121 101 111 121 100 110 120 100 110 120 99 109 119 98 108 118 98 108 118 98 108 118 97 107 117 97 107 117 97 107 117 97 107 117 97 107 117 97 107 117 97 107 117 96 106 116 96 106 116 96 106 116 95 105 115 95 105 115 95 105 115 95 105 115 96 106 116 96 106 116 96 106 116 96 106 116 96 106 116 96 106 116 96 106 116 95 105 115 95 105 115 95 105 115 95 105 115 95 105 115 95 105 115 95 105 115 95 105 115 96 106 116 96 106 116 95 105 115 95 105 115 95 105 115 94 104 114 94 104 114 94 104 114 93 103 113 93 103 113 93 103 113 93 103 113 93 103 113 93 103 113 93 103 113 92 102 112 91 101 111 91 101 111 90 100 110 90 100 110 89 99 109 89 99 109 89 99 109 89 99 109 89 99 109 89 99 109 89 99 109 89 99 109 89 99 109 88 98 108 88 98 108 88 98 108 88 98 108 88 98 108 88 98 108 89 99 109 89 99 109 90 100 110 90 100 110 91 101 111 91 101 111 91 101 111 91 101 111 91 101 111 91 101 111 92 102 112 92 102 112 92 102 112 93 103 113 94 104 114 95 105 115 95 105 115 96 106 116 96 106 116 96 106 116 96 106 116 96 106 116 97 107 117 97 107 117 97 107 117 98 108 118 98 108 118 99 109 119 99 109 119 100 110 120 100 110 120 100 110 120 100 110 120 99 109 119 99 109 119 99 109 119 99 109 119 100 110 120 100 110 120 101 111 121 101 111 121 102 112 122 102 112 122 102 112 122 103 113 123 103 113 123 103 113 123 103 113 123 103 113 123 222 232 242 223 233 243 224 234 244 225 235 245 226 236 246 227 237 247 228 238 248 229 239 249 229 239 249 229 239 249 229 239 249 229 239 249 230 240 250 230 240 250 231 241 251 232 242 252 233 243 253 234 244 254 234 244 254 235 245 255 235 245 255 234 244 254 234 244 254 234 244 254 233 243 253 233 243 253 233 243 253 233 243 253 233 243 253 233 243 253 233 243 253 233 243 253 232 242 252 231 241 251 230 240 250 229 239 249 228 238 248 100 110 120 99 109 119 99 109 119 99 109 119 100 110 120 100 110 120 100 110 120 101 111 121 101 111 121 102 112 122 102 112 122 102 112 122 102 112 122 102 112 122 102 112 122 102 112 122 103 113 123 103 113 123 222 232 242 224 234 244 225 235 245 226 236 246 227 237 247 228 238 248 228 238 248 228 238 248 229 239 249 229 239 249 229 239 249 230 240 250 231 241 251 232 242 252 233 243 253 234 244 254 234 244 254 235 245 255 235 245 255 234 244 254 234 244 254 233 243 253 233 243 253 233 243 253 232 242 252 232 242 252 233 243 253 233 243 253 233 243 253 233 243 253 232 242 252 231 241 251 230 240 250 229 239 249 228 238 248 227 237 247 226 236 246 226 236 246 226 236 246 226 236 246 226 236 246 226 236 246 225 235 245 225 235 245 224 234 244 223 233 243 222 232 242 103 113 123 103 113 123 103 113 123 103 113 123 103 113 123 222 232 242 222 232 242 222 232 242 223 233 243 222 232 242 222 232 242 222 232 242 103 113 123 103 113 123 103 113 123 103 113 123 103 113 123 222 232 242 222 232 242 223 233 243 223 233 243 223 233 243 222 232 242 222 232 242 103 113 123 103 113 123 102 112 122 102 112 122 102 112 122 102 112 122 102 112 122 102 112 122 102 112 122 101 111 121 101 111 121 100 110 120 100 110 120 99 109 119 98 108 118 98 108 118 98 108 118 97 107 117 97 107 117 97 107 117 97 107 117 97 107 117 97 107 117 97 107 117 96 106 116 96 106 116 95 105 115 95 105 115 95 105 115 95 105 115 95 105 115 95 105 115 95 105 115 96 106 116 96 106 116 96 106 116 96 106 116 96 106 116 95 105 115 95 105 115 95 105 115 95 105 115 95 105 115 95 105 115 96 106 116 96 106 116 96 106 116 96 106 116 96 106 116 95 105 115 95 105 115 94 104 114 94 104 114 94 104 114 93 103 113 93 103 113 93 103 113 93 103 113 93 103 113 93 103 113 93 103 113 92 102 112 92 102 112 91 101 111 90 100 110 90 100 110 89 99 109 89 99 109 89 99 109 89 99 109 89 99 109 89 99 109 89 99 109 89 99 109 89 99 109 89 99 109 88 98 108 88 98 108 88 98 108 88 98 108 88 98 108 89 99 109 89 99 109 90 100 110 90 100 110 91 101 111 91 101 111 91 101 111 91 101 111 92 102 112 92 102 112 92 102 112 93 103 113 93 103 113 94 104 114 95 105 115 95 105 115 96 106 116 96 106 116 97 107 117 97 107 117 97 107 117 97 107 117 97 107 117 97 107 117 97 107 117 98 108 118 98 108 118 99 109 119 99 109 119 99 109 119 100 110 120 100 110 120 100 110 120 99 109 119 99 109 119 99 109 119 99 109 119 100 110 120 100 110 120 101 111 121 101 111 121 102 112 122 102 112 122 102 112 122 102 112 122 102 112 122 102 112 122 102 112 122 103 113 123 103 113 123 103 113 123 223 233 243 224 234 244 225 235 245 226 236 246 227 237 247 228 238 248 228 238 248 228 238 248 229 239 249 229 239 249 229 239 249 230 240 250 231 241 251 232 242 252 233 243 253 234 244 254 235 245 255 235 245 255 235 245 255 234 244 254 234 244 254 233 243 253 233 243 253 232 242 252 232 242 252 233 243 253 233 243 253 233 243 253 233 243 253 232 242 252 232 242 252 231 241 251 230 240 250 229 239 249 228 238 248 100 110 120 99 109 119 99 109 119 100 110 120 100 110 120 100 110 120 101 111 121 101 111 121 101 111 121 102 112 122 102 112 122 102 112 122 102 112 122 102 112 122 102 112 122 102 112 122 102 112 122 103 113 123 103 113 123 222 232 242 224 234 244 225 235 245 226 236 246 227 237 247 227 237 247 228 238 248 228 238 248 229 239 249 229 239 249 230 240 250 231 241 251 232 242 252 233 243 253 234 244 254 234 244 254 235 245 255 235 245 255 234 244 254 234 244 254 233 243 253 233 243 253 232 242 252 232 242 252 232 242 252 232 242 252 232 242 252 232 242 252 232 242 252 231 241 251 231 241 251 230 240 250 229 239 249 228 238 248 227 237 247 227 237 247 226 236 246 226 236 246 226 236 246 226 236 246 226 236 246 225 235 245 224 234 244 224 234 244 223 233 243 222 232 242 103 113 123 103 113 123 103 113 123 103 113 123 103 113 123 103 113 123 222 232 242 222 232 242 222 232 242 222 232 242 222 232 242 222 232 242 222 232 242 222 232 242 222 232 242 222 232 242 222 232 242 223 233 243 223 233 243 224 234 244 224 234 244 224 234 244 223 233 243 222 232 242 103 113 123 103 113 123 102 112 122 102 112 122 102 112 122 102 112 122 102 112 122 102 112 122 101 111 121 101 111 121 101 111 121 100 110 120 100 110 120 99 109 119 99 109 119 98 108 118 98 108 118 98 108 118 97 107 117 97 107 117 97 107 117 97 107 117 97 107 117 96 106 116 96 106 116 95 105 115 95 105 115 95 105 115 94 104 114 94 104 114 94 104 114 95 105 115 95 105 115 95 105 115 95 105 115 95 105 115 95 105 115 95 105 115 95 105 115 95 105 115 95 105 115 95 105 115 95 105 115 96 106 116 96 106 116 96 106 116 96 106 116 96 106 116 96 106 116 96 106 116 95 105 115 95 105 115 94 104 114 94 104 114 93 103 113 93 103 113 93 103 113 93 103 113 93 103 113 93 103 113 93 103 113 92 102 112 92 102 112 91 101 111 91 101 111 90 100 110 90 100 110 90 100 110 89 99 109 89 99 109 90 100 110 90 100 110 90 100 110 89 99 109 89 99 109 89 99 109 88 98 108 88 98 108 88 98 108 88 98 108 88 98 108 89 99 109 89 99 109 90 100 110 90 100 110 91 101 111 91 101 111 92 102 112 92 102 112 92 102 112 92 102 112 93 103 113 93 103 113 94 104 114 95 105 115 95 105 115 96 106 116 96 106 116 97 107 117 97 107 117 97 107 117 97 107 117 97 107 117 97 107 117 97 107 117 97 107 117 98 108 118 98 108 118 99 109 119 99 109 119 99 109 119 100 110 120 100 110 120 100 110 120 99 109 119 99 109 119 99 109 119 100 110 120 100 110 120 100 110 120 101 111 121 101 111 121 101 111 121 102 112 122 102 112 122 102 112 122 102 112 122 102 112 122 102 112 122 102 112 122 102 112 122 103 113 123 103 113 123 223 233 243 224 234 244 225 235 245 226 236 246 227 237 247 227 237 247 228 238 248 228 238 248 229 239 249 229 239 249 230 240 250 231 241 251 232 242 252 233 243 253 234 244 254 234 244 254 235 245 255 234 244 254 234 244 254 234 244 254 233 243 253 232 242 252 232 242 252 232 242 252 232 242 252 232 242 252 232 242 252 232 242 252 232 242 252 231 241 251 230 240 250 230 240 250 229 239 249 228 238 248 100 110 120 100 110 120 100 110 120 100 110 120 100 110 120 100 110 120 101 111 121 101 111 121 101 111 121 101 111 121 101 111 121 101 111 121 101 111 121 101 111 121 101 111 121 102 112 122 102 112 122 102 112 122 103 113 123 103 113 123 222 232 242 223 233 243 224 234 244 225 235 245 226 236 246 227 237 247 228 238 248 228 238 248 229 239 249 230 240 250 231 241 251 232 242 252 233 243 253 233 243 253 234 244 254 234 244 254 234 244 254 234 244 254 233 243 253 233 243 253 232 242 252 232 242 252 232 242 252 231 241 251 231 241 251 231 241 251 231 241 251 231 241 251 231 241 251 230 240 250 229 239 249 229 239 249 228 238 248 227 237 247 227 237 247 226 236 246 226 236 246 226 236 246 226 236 246 225 235 245 225 235 245 224 234 244 223 233 243 223 233 243 222 232 242 103 113 123 103 113 123 103 113 123 103 113 123 103 113 123 103 113 123 103 113 123 103 113 123 222 232 242 222 232 242 222 232 242 222 232 242 222 232 242 222 232 242 223 233 243 223 233 243 223 233 243 224 234 244 224 234 244 224 234 244 224 234 244 224 234 244 223 233 243 223 233 243 222 232 242 103 113 123 103 113 123 102 112 122 102 112 122 102 112 122 102 112 122 101 111 121 101 111 121 101 111 121 101 111 121 100 110 120 100 110 120 99 109 119 99 109 119 98 108 118 98 108 118 98 108 118 98 108 118 97 107 117 97 107 117 97 107 117 97 107 117 96 106 116 96 106 116 95 105 115 95 105 115 94 104 114 94 104 114 94 104 114 94 104 114 94 104 114 94 104 114 94 104 114 95 105 115 95 105 115 95 105 115 95 105 115 95 105 115 95 105 115 95 105 115 95 105 115 96 106 116 96 106 116 96 106 116 96 106 116 96 106 116 96 106 116 96 106 116 96 106 116 95 105 115 95 105 115 94 104 114 94 104 114 93 103 113 93 103 113 93 103 113 93 103 113 93 103 113 93 103 113 92 102 112 92 102 112 92 102 112 91 101 111 91 101 111 91 101 111 90 100 110 90 100 110 90 100 110 90 100 110 90 100 110 90 100 110 90 100 110 89 99 109 89 99 109 89 99 109 89 99 109 88 98 108 88 98 108 88 98 108 88 98 108 89 99 109 89 99 109 90 100 110 90 100 110 91 101 111 91 101 111 92 102 112 92 102 112 93 103 113 93 103 113 93 103 113 94 104 114 95 105 115 95 105 115 96 106 116 97 107 117 97 107 117 97 107 117 98 108 118 98 108 118 98 108 118 98 108 118 98 108 118 98 108 118 98 108 118 98 108 118 98 108 118 99 109 119 99 109 119 99 109 119 99 109 119 99 109 119 99 109 119 100 110 120 100 110 120 100 110 120 100 110 120 100 110 120 100 110 120 101 111 121 101 111 121 101 111 121 101 111 121 101 111 121 101 111 121 101 111 121 101 111 121 101 111 121 102 112 122 102 112 122 102 112 122 103 113 123 103 113 123 223 233 243 224 234 244 225 235 245 226 236 246 226 236 246 227 237 247 228 238 248 229 239 249 229 239 249 230 240 250 231 241 251 232 242 252 233 243 253 234 244 254 234 244 254 234 244 254 234 244 254 234 244 254 233 243 253 233 243 253 232 242 252 232 242 252 231 241 251 231 241 251 231 241 251 231 241 251 231 241 251 231 241 251 230 240 250 230 240 250 229 239 249 228 238 248 228 238 248 100 110 120 100 110 120 100 110 120 100 110 120 100 110 120 100 110 120 101 111 121 101 111 121 101 111 121 101 111 121 101 111 121 101 111 121 101 111 121 101 111 121 101 111 121 101 111 121 101 111 121 102 112 122 102 112 122 103 113 123 103 113 123 222 232 242 223 233 243 224 234 244 225 235 245 226 236 246 227 237 247 228 238 248 229 239 249 230 240 250 231 241 251 232 242 252 233 243 253 233 243 253 233 243 253 234 244 254 234 244 254 233 243 253 233 243 253 233 243 253 232 242 252 232 242 252 231 241 251 231 241 251 231 241 251 230 240 250 230 240 250 230 240 250 230 240 250 229 239 249 229 239 249 228 238 248 228 238 248 228 238 248 227 237 247 227 237 247 227 237 247 226 236 246 226 236 246 225 235 245 224 234 244 224 234 244 223 233 243 222 232 242 222 232 242 103 113 123 103 113 123 103 113 123 103 113 123 103 113 123 103 113 123 103 113 123 103 113 123 103 113 123 222 232 242 222 232 242 222 232 242 223 233 243 223 233 243 224 234 244 224 234 244 225 235 245 225 235 245 225 235 245 225 235 245 225 235 245 224 234 244 224 234 244 223 233 243 222 232 242 222 232 242 103 113 123 103 113 123 102 112 122 102 112 122 101 111 121 101 111 121 101 111 121 101 111 121 100 110 120 100 110 120 100 110 120 99 109 119 99 109 119 99 109 119 98 108 118 98 108 118 98 108 118 97 107 117 97 107 117 97 107 117 96 106 116 96 106 116 95 105 115 95 105 115 94 104 114 94 104 114 94 104 114 94 104 114 94 104 114 94 104 114 94 104 114 94 104 114 94 104 114 94 104 114 95 105 115 95 105 115 95 105 115 95 105 115 96 106 116 96 106 116 96 106 116 96 106 116 96 106 116 96 106 116 96 106 116 96 106 116 96 106 116 96 106 116 95 105 115 95 105 115 94 104 114 94 104 114 94 104 114 93 103 113 93 103 113 93 103 113 93 103 113 92 102 112 92 102 112 92 102 112 92 102 112 91 101 111 91 101 111 91 101 111 91 101 111 91 101 111 91 101 111 90 100 110 90 100 110 90 100 110 90 100 110 90 100 110 89 99 109 89 99 109 89 99 109 89 99 109 89 99 109 89 99 109 89 99 109 89 99 109 89 99 109 90 100 110 90 100 110 91 101 111 91 101 111 92 102 112 92 102 112 93 103 113 94 104 114 94 104 114 95 105 115 96 106 116 96 106 116 97 107 117 97 107 117 97 107 117 98 108 118 98 108 118 98 108 118 98 108 118 98 108 118 98 108 118 98 108 118 98 108 118 98 108 118 98 108 118 98 108 118 99 109 119 99 109 119 99 109 119 99 109 119 99 109 119 100 110 120 100 110 120 100 110 120 100 110 120 100 110 120 100 110 120 101 111 121 101 111 121 101 111 121 101 111 121 101 111 121 101 111 121 101 111 121 101 111 121 101 111 121 101 111 121 101 111 121 102 112 122 102 112 122 103 113 123 103 113 123 222 232 242 223 233 243 224 234 244 225 235 245 226 236 246 227 237 247 229 239 249 230 240 250 230 240 250 231 241 251 232 242 252 233 243 253 233 243 253 234 244 254 234 244 254 234 244 254 233 243 253 233 243 253 232 242 252 232 242 252 232 242 252 231 241 251 231 241 251 231 241 251 230 240 250 230 240 250 230 240 250 229 239 249 229 239 249 229 239 249 228 238 248 228 238 248 100 110 120 100 110 120 100 110 120 100 110 120 101 111 121 101 111 121 101 111 121 101 111 121 101 111 121 101 111 121 101 111 121 101 111 121 101 111 121 101 111 121 101 111 121 101 111 121 101 111 121 101 111 121 102 112 122 102 112 122 102 112 122 103 113 123 103 113 123 223 233 243 224 234 244 225 235 245 227 237 247 228 238 248 229 239 249 230 240 250 231 241 251 232 242 252 232 242 252 233 243 253 233 243 253 233 243 253 233 243 253 233 243 253 233 243 253 232 242 252 232 242 252 232 242 252 231 241 251 231 241 251 230 240 250 230 240 250 229 239 249 229 239 249 229 239 249 228 238 248 228 238 248 228 238 248 228 238 248 228 238 248 228 238 248 227 237 247 227 237 247 226 236 246 226 236 246 225 235 245 224 234 244 223 233 243 223 233 243 222 232 242 222 232 242 103 113 123 103 113 123 103 113 123 103 113 123 103 113 123 103 113 123 103 113 123 103 113 123 103 113 123 103 113 123 222 232 242 223 233 243 224 234 244 224 234 244 225 235 245 225 235 245 226 236 246 226 236 246 225 235 245 225 235 245 225 235 245 224 234 244 224 234 244 223 233 243 223 233 243 222 232 242 103 113 123 103 113 123 102 112 122 102 112 122 101 111 121 101 111 121 101 111 121 100 110 120 100 110 120 100 110 120 100 110 120 99 109 119 99 109 119 99 109 119 99 109 119 98 108 118 98 108 118 97 107 117 97 107 117 96 106 116 96 106 116 95 105 115 95 105 115 95 105 115 94 104 114 94 104 114 94 104 114 93 103 113 93 103 113 93 103 113 93 103 113 93 103 113 93 103 113 94 104 114 94 104 114 94 104 114 95 105 115 95 105 115 96 106 116 96 106 116 96 106 116 96 106 116 96 106 116 96 106 116 96 106 116 96 106 116 96 106 116 96 106 116 95 105 115 95 105 115 95 105 115 94 104 114 94 104 114 93 103 113 93 103 113 93 103 113 92 102 112 92 102 112 92 102 112 92 102 112 92 102 112 92 102 112 92 102 112 92 102 112 91 101 111 91 101 111 91 101 111 91 101 111 91 101 111 90 100 110 90 100 110 90 100 110 89 99 109 89 99 109 89 99 109 89 99 109 89 99 109 89 99 109 89 99 109 89 99 109 89 99 109 90 100 110 90 100 110 91 101 111 91 101 111 92 102 112 93 103 113 94 104 114 94 104 114 95 105 115 96 106 116 96 106 116 97 107 117 97 107 117 97 107 117 98 108 118 98 108 118 98 108 118 98 108 118 98 108 118 98 108 118 98 108 118 98 108 118 98 108 118 98 108 118 98 108 118 98 108 118 98 108 118 99 109 119 99 109 119 99 109 119 99 109 119 100 110 120 100 110 120 100 110 120 100 110 120 101 111 121 101 111 121 101 111 121 101 111 121 101 111 121 101 111 121 101 111 121 101 111 121 101 111 121 101 111 121 101 111 121 101 111 121 101 111 121 101 111 121 102 112 122 102 112 122 102 112 122 103 113 123 222 232 242 223 233 243 224 234 244 226 236 246 227 237 247 228 238 248 230 240 250 231 241 251 231 241 251 232 242 252 232 242 252 233 243 253 233 243 253 233 243 253 233 243 253 233 243 253 233 243 253 232 242 252 232 242 252 231 241 251 231 241 251 230 240 250 230 240 250 229 239 249 229 239 249 229 239 249 228 238 248 228 238 248 228 238 248 228 238 248 228 238 248 100 110 120 100 110 120 100 110 120 101 111 121 101 111 121 101 111 121 101 111 121 100 110 120 100 110 120 100 110 120 100 110 120 100 110 120 100 110 120 100 110 120 101 111 121 101 111 121 101 111 121 101 111 121 101 111 121 101 111 121 102 112 122 102 112 122 103 113 123 103 113 123 223 233 243 224 234 244 226 236 246 228 238 248 229 239 249 230 240 250 231 241 251 232 242 252 232 242 252 232 242 252 232 242 252 232 242 252 232 242 252 232 242 252 232 242 252 232 242 252 232 242 252 231 241 251 231 241 251 230 240 250 229 239 249 229 239 249 228 238 248 228 238 248 228 238 248 228 238 248 228 238 248 228 238 248 228 238 248 228 238 248 228 238 248 228 238 248 227 237 247 226 236 246 225 235 245 224 234 244 224 234 244 223 233 243 222 232 242 222 232 242 222 232 242 103 113 123 103 113 123 103 113 123 103 113 123 103 113 123 102 112 122 102 112 122 102 112 122 103 113 123 103 113 123 222 232 242 223 233 243 224 234 244 225 235 245 226 236 246 226 236 246 226 236 246 226 236 246 226 236 246 226 236 246 225 235 245 225 235 245 224 234 244 224 234 244 223 233 243 223 233 243 222 232 242 103 113 123 103 113 123 102 112 122 101 111 121 101 111 121 100 110 120 100 110 120 100 110 120 100 110 120 100 110 120 99 109 119 99 109 119 99 109 119 99 109 119 99 109 119 98 108 118 97 107 117 97 107 117 96 106 116 96 106 116 95 105 115 95 105 115 94 104 114 94 104 114 94 104 114 94 104 114 93 103 113 93 103 113 93 103 113 93 103 113 93 103 113 93 103 113 93 103 113 94 104 114 94 104 114 95 105 115 95 105 115 96 106 116 96 106 116 97 107 117 97 107 117 97 107 117 96 106 116 96 106 116 96 106 116 96 106 116 96 106 116 95 105 115 95 105 115 95 105 115 95 105 115 94 104 114 94 104 114 93 103 113 93 103 113 92 102 112 92 102 112 92 102 112 92 102 112 92 102 112 92 102 112 92 102 112 92 102 112 92 102 112 92 102 112 92 102 112 91 101 111 91 101 111 90 100 110 90 100 110 90 100 110 90 100 110 89 99 109 89 99 109 89 99 109 89 99 109 89 99 109 89 99 109 90 100 110 90 100 110 90 100 110 90 100 110 91 101 111 91 101 111 92 102 112 93 103 113 94 104 114 95 105 115 96 106 116 97 107 117 97 107 117 97 107 117 98 108 118 98 108 118 98 108 118 98 108 118 98 108 118 98 108 118 99 109 119 99 109 119 99 109 119 99 109 119 99 109 119 99 109 119 98 108 118 98 108 118 98 108 118 98 108 118 98 108 118 99 109 119 99 109 119 100 110 120 100 110 120 100 110 120 101 111 121 101 111 121 101 111 121 101 111 121 100 110 120 100 110 120 100 110 120 100 110 120 100 110 120 100 110 120 100 110 120 101 111 121 101 111 121 101 111 121 101 111 121 101 111 121 101 111 121 102 112 122 102 112 122 103 113 123 222 232 242 223 233 243 225 235 245 227 237 247 228 238 248 230 240 250 231 241 251 231 241 251 232 242 252 232 242 252 232 242 252 232 242 252 232 242 252 232 242 252 232 242 252 232 242 252 232 242 252 232 242 252 231 241 251 231 241 251 230 240 250 229 239 249 229 239 249 228 238 248 228 238 248 228 238 248 228 238 248 228 238 248 228 238 248 228 238 248 100 110 120 100 110 120 100 110 120 101 111 121 101 111 121 101 111 121 101 111 121 100 110 120 100 110 120 100 110 120 100 110 120 100 110 120 100 110 120 100 110 120 100 110 120 100 110 120 101 111 121 101 111 121 101 111 121 101 111 121 101 111 121 101 111 121 102 112 122 103 113 123 222 232 242 224 234 244 226 236 246 227 237 247 229 239 249 230 240 250 231 241 251 231 241 251 231 241 251 231 241 251 231 241 251 231 241 251 231 241 251 231 241 251 232 242 252 232 242 252 231 241 251 231 241 251 230 240 250 230 240 250 229 239 249 228 238 248 227 237 247 227 237 247 227 237 247 227 237 247 227 237 247 228 238 248 228 238 248 228 238 248 228 238 248 228 238 248 227 237 247 226 236 246 225 235 245 224 234 244 223 233 243 223 233 243 222 232 242 222 232 242 222 232 242 103 113 123 103 113 123 103 113 123 103 113 123 103 113 123 102 112 122 102 112 122 102 112 122 103 113 123 103 113 123 222 232 242 223 233 243 225 235 245 226 236 246 226 236 246 227 237 247 227 237 247 227 237 247 226 236 246 226 236 246 225 235 245 225 235 245 224 234 244 224 234 244 224 234 244 223 233 243 222 232 242 103 113 123 103 113 123 102 112 122 101 111 121 101 111 121 100 110 120 100 110 120 100 110 120 99 109 119 99 109 119 100 110 120 100 110 120 99 109 119 99 109 119 99 109 119 98 108 118 97 107 117 97 107 117 96 106 116 95 105 115 95 105 115 95 105 115 94 104 114 94 104 114 94 104 114 94 104 114 93 103 113 93 103 113 93 103 113 92 102 112 92 102 112 92 102 112 93 103 113 93 103 113 94 104 114 95 105 115 95 105 115 96 106 116 96 106 116 97 107 117 97 107 117 97 107 117 96 106 116 96 106 116 96 106 116 96 106 116 96 106 116 95 105 115 95 105 115 95 105 115 95 105 115 94 104 114 94 104 114 93 103 113 93 103 113 92 102 112 92 102 112 92 102 112 92 102 112 92 102 112 92 102 112 92 102 112 92 102 112 92 102 112 92 102 112 92 102 112 92 102 112 91 101 111 91 101 111 90 100 110 90 100 110 90 100 110 90 100 110 90 100 110 90 100 110 90 100 110 90 100 110 90 100 110 90 100 110 90 100 110 90 100 110 90 100 110 91 101 111 92 102 112 92 102 112 94 104 114 95 105 115 96 106 116 96 106 116 97 107 117 98 108 118 98 108 118 98 108 118 98 108 118 98 108 118 98 108 118 99 109 119 99 109 119 99 109 119 99 109 119 99 109 119 99 109 119 99 109 119 99 109 119 99 109 119 98 108 118 98 108 118 98 108 118 98 108 118 99 109 119 99 109 119 100 110 120 100 110 120 101 111 121 101 111 121 101 111 121 101 111 121 101 111 121 100 110 120 100 110 120 100 110 120 100 110 120 100 110 120 100 110 120 100 110 120 100 110 120 101 111 121 101 111 121 101 111 121 101 111 121 101 111 121 101 111 121 102 112 122 102 112 122 103 113 123 222 232 242 224 234 244 226 236 246 228 238 248 229 239 249 230 240 250 231 241 251 231 241 251 231 241 251 231 241 251 231 241 251 231 241 251 231 241 251 231 241 251 232 242 252 232 242 252 231 241 251 231 241 251 230 240 250 229 239 249 229 239 249 228 238 248 227 237 247 227 237 247 227 237 247 227 237 247 227 237 247 228 238 248 228 238 248 100 110 120 100 110 120 100 110 120 101 111 121 101 111 121 101 111 121 101 111 121 100 110 120 100 110 120 100 110 120 99 109 119 99 109 119 100 110 120 100 110 120 100 110 120 100 110 120 100 110 120 100 110 120 100 110 120 100 110 120 101 111 121 101 111 121 102 112 122 102 112 122 103 113 123 223 233 243 225 235 245 227 237 247 228 238 248 229 239 249 230 240 250 231 241 251 231 241 251 231 241 251 230 240 250 230 240 250 231 241 251 231 241 251 231 241 251 231 241 251 231 241 251 231 241 251 230 240 250 229 239 249 228 238 248 227 237 247 227 237 247 226 236 246 226 236 246 226 236 246 227 237 247 227 237 247 228 238 248 228 238 248 228 238 248 228 238 248 227 237 247 226 236 246 225 235 245 224 234 244 223 233 243 223 233 243 222 232 242 222 232 242 222 232 242 222 232 242 103 113 123 103 113 123 103 113 123 103 113 123 102 112 122 102 112 122 102 112 122 103 113 123 103 113 123 222 232 242 224 234 244 225 235 245 226 236 246 227 237 247 227 237 247 227 237 247 227 237 247 227 237 247 226 236 246 225 235 245 225 235 245 224 234 244 224 234 244 224 234 244 223 233 243 223 233 243 222 232 242 103 113 123 102 112 122 101 111 121 101 111 121 100 110 120 100 110 120 99 109 119 99 109 119 99 109 119 100 110 120 100 110 120 99 109 119 99 109 119 99 109 119 98 108 118 97 107 117 97 107 117 96 106 116 95 105 115 95 105 115 94 104 114 94 104 114 94 104 114 94 104 114 93 103 113 93 103 113 93 103 113 92 102 112 92 102 112 92 102 112 92 102 112 93 103 113 93 103 113 94 104 114 95 105 115 95 105 115 96 106 116 96 106 116 97 107 117 97 107 117 97 107 117 96 106 116 96 106 116 96 106 116 96 106 116 95 105 115 95 105 115 95 105 115 95 105 115 95 105 115 94 104 114 94 104 114 93 103 113 93 103 113 92 102 112 92 102 112 92 102 112 92 102 112 92 102 112 92 102 112 92 102 112 93 103 113 93 103 113 93 103 113 92 102 112 92 102 112 91 101 111 91 101 111 91 101 111 90 100 110 90 100 110 90 100 110 90 100 110 90 100 110 90 100 110 90 100 110 90 100 110 90 100 110 90 100 110 90 100 110 91 101 111 91 101 111 92 102 112 93 103 113 94 104 114 95 105 115 96 106 116 97 107 117 98 108 118 98 108 118 98 108 118 99 109 119 99 109 119 99 109 119 99 109 119 99 109 119 99 109 119 99 109 119 99 109 119 100 110 120 100 110 120 99 109 119 99 109 119 99 109 119 98 108 118 98 108 118 98 108 118 98 108 118 99 109 119 99 109 119 100 110 120 100 110 120 101 111 121 101 111 121 101 111 121 101 111 121 100 110 120 100 110 120 100 110 120 100 110 120 99 109 119 100 110 120 100 110 120 100 110 120 100 110 120 100 110 120 100 110 120 100 110 120 100 110 120 101 111 121 101 111 121 101 111 121 102 112 122 103 113 123 222 232 242 224 234 244 225 235 245 227 237 247 229 239 249 230 240 250 230 240 250 231 241 251 231 241 251 231 241 251 230 240 250 230 240 250 231 241 251 231 241 251 231 241 251 231 241 251 231 241 251 230 240 250 230 240 250 229 239 249 228 238 248 227 237 247 227 237 247 226 236 246 226 236 246 227 237 247 227 237 247 228 238 248 228 238 248 100 110 120 100 110 120 100 110 120 101 111 121 101 111 121 101 111 121 100 110 120 100 110 120 100 110 120 99 109 119 99 109 119 99 109 119 99 109 119 100 110 120 100 110 120 100 110 120 100 110 120 100 110 120 100 110 120 100 110 120 100 110 120 101 111 121 101 111 121 102 112 122 103 113 123 222 232 242 224 234 244 226 236 246 227 237 247 229 239 249 229 239 249 230 240 250 230 240 250 230 240 250 230 240 250 230 240 250 230 240 250 230 240 250 230 240 250 230 240 250 230 240 250 230 240 250 229 239 249 229 239 249 228 238 248 227 237 247 226 236 246 226 236 246 226 236 246 226 236 246 227 237 247 227 237 247 228 238 248 228 238 248 228 238 248 227 237 247 227 237 247 226 236 246 225 235 245 224 234 244 223 233 243 223 233 243 222 232 242 222 232 242 222 232 242 222 232 242 103 113 123 103 113 123 103 113 123 103 113 123 103 113 123 102 112 122 103 113 123 103 113 123 103 113 123 222 232 242 224 234 244 225 235 245 226 236 246 227 237 247 228 238 248 228 238 248 227 237 247 227 237 247 226 236 246 226 236 246 225 235 245 225 235 245 224 234 244 224 234 244 223 233 243 223 233 243 222 232 242 103 113 123 102 112 122 102 112 122 101 111 121 100 110 120 100 110 120 100 110 120 99 109 119 99 109 119 100 110 120 100 110 120 99 109 119 99 109 119 99 109 119 98 108 118 97 107 117 96 106 116 96 106 116 95 105 115 95 105 115 94 104 114 94 104 114 94 104 114 94 104 114 93 103 113 93 103 113 93 103 113 92 102 112 92 102 112 92 102 112 92 102 112 92 102 112 93 103 113 94 104 114 94 104 114 95 105 115 96 106 116 96 106 116 97 107 117 97 107 117 96 106 116 96 106 116 96 106 116 96 106 116 96 106 116 95 105 115 95 105 115 95 105 115 95 105 115 95 105 115 94 104 114 94 104 114 93 103 113 93 103 113 92 102 112 92 102 112 92 102 112 92 102 112 92 102 112 92 102 112 93 103 113 93 103 113 93 103 113 93 103 113 93 103 113 92 102 112 92 102 112 91 101 111 91 101 111 91 101 111 91 101 111 90 100 110 91 101 111 91 101 111 91 101 111 91 101 111 91 101 111 91 101 111 91 101 111 91 101 111 91 101 111 92 102 112 92 102 112 93 103 113 94 104 114 95 105 115 96 106 116 97 107 117 98 108 118 98 108 118 99 109 119 99 109 119 99 109 119 99 109 119 99 109 119 99 109 119 99 109 119 100 110 120 100 110 120 100 110 120 100 110 120 99 109 119 99 109 119 99 109 119 99 109 119 98 108 118 98 108 118 98 108 118 99 109 119 99 109 119 100 110 120 100 110 120 100 110 120 101 111 121 101 111 121 101 111 121 100 110 120 100 110 120 100 110 120 99 109 119 99 109 119 99 109 119 99 109 119 100 110 120 100 110 120 100 110 120 100 110 120 100 110 120 100 110 120 100 110 120 100 110 120 101 111 121 101 111 121 102 112 122 103 113 123 223 233 243 225 235 245 226 236 246 228 238 248 229 239 249 229 239 249 230 240 250 230 240 250 230 240 250 230 240 250 230 240 250 230 240 250 230 240 250 230 240 250 230 240 250 230 240 250 230 240 250 229 239 249 228 238 248 228 238 248 227 237 247 226 236 246 226 236 246 226 236 246 226 236 246 227 237 247 227 237 247 228 238 248 100 110 120 100 110 120 100 110 120 100 110 120 100 110 120 100 110 120 100 110 120 100 110 120 100 110 120 99 109 119 99 109 119 99 109 119 99 109 119 99 109 119 99 109 119 100 110 120 100 110 120 100 110 120 100 110 120 100 110 120 100 110 120 100 110 120 101 111 121 102 112 122 103 113 123 222 232 242 223 233 243 225 235 245 226 236 246 227 237 247 228 238 248 229 239 249 229 239 249 229 239 249 229 239 249 229 239 249 229 239 249 229 239 249 229 239 249 229 239 249 229 239 249 229 239 249 229 239 249 228 238 248 227 237 247 227 237 247 226 236 246 226 236 246 226 236 246 226 236 246 226 236 246 227 237 247 227 237 247 227 237 247 227 237 247 227 237 247 226 236 246 226 236 246 225 235 245 224 234 244 223 233 243 223 233 243 222 232 242 222 232 242 222 232 242 222 232 242 103 113 123 103 113 123 103 113 123 103 113 123 103 113 123 103 113 123 103 113 123 103 113 123 222 232 242 223 233 243 224 234 244 225 235 245 226 236 246 227 237 247 227 237 247 228 238 248 227 237 247 227 237 247 227 237 247 226 236 246 226 236 246 225 235 245 225 235 245 224 234 244 223 233 243 223 233 243 222 232 242 103 113 123 102 112 122 102 112 122 101 111 121 100 110 120 100 110 120 100 110 120 100 110 120 100 110 120 99 109 119 99 109 119 99 109 119 99 109 119 98 108 118 98 108 118 97 107 117 96 106 116 96 106 116 95 105 115 95 105 115 94 104 114 94 104 114 94 104 114 93 103 113 93 103 113 93 103 113 93 103 113 92 102 112 92 102 112 92 102 112 92 102 112 93 103 113 93 103 113 94 104 114 94 104 114 95 105 115 96 106 116 96 106 116 96 106 116 96 106 116 96 106 116 96 106 116 96 106 116 96 106 116 96 106 116 95 105 115 95 105 115 95 105 115 95 105 115 95 105 115 94 104 114 94 104 114 93 103 113 93 103 113 93 103 113 92 102 112 92 102 112 92 102 112 92 102 112 93 103 113 93 103 113 93 103 113 93 103 113 93 103 113 93 103 113 92 102 112 92 102 112 92 102 112 91 101 111 91 101 111 91 101 111 91 101 111 91 101 111 91 101 111 91 101 111 91 101 111 91 101 111 91 101 111 91 101 111 91 101 111 92 102 112 92 102 112 93 103 113 94 104 114 95 105 115 96 106 116 97 107 117 98 108 118 98 108 118 99 109 119 99 109 119 99 109 119 99 109 119 99 109 119 99 109 119 100 110 120 100 110 120 100 110 120 100 110 120 100 110 120 100 110 120 100 110 120 99 109 119 99 109 119 99 109 119 99 109 119 99 109 119 99 109 119 99 109 119 99 109 119 100 110 120 100 110 120 100 110 120 100 110 120 100 110 120 100 110 120 100 110 120 100 110 120 100 110 120 99 109 119 99 109 119 99 109 119 99 109 119 99 109 119 99 109 119 100 110 120 100 110 120 100 110 120 100 110 120 100 110 120 100 110 120 101 111 121 101 111 121 102 112 122 103 113 123 222 232 242 224 234 244 225 235 245 227 237 247 228 238 248 228 238 248 229 239 249 229 239 249 229 239 249 229 239 249 229 239 249 229 239 249 229 239 249 229 239 249 229 239 249 229 239 249 229 239 249 228 238 248 228 238 248 227 237 247 226 236 246 226 236 246 226 236 246 226 236 246 226 236 246 226 236 246 227 237 247 227 237 247 100 110 120 100 110 120 100 110 120 100 110 120 100 110 120 100 110 120 100 110 120 100 110 120 100 110 120 99 109 119 99 109 119 99 109 119 99 109 119 99 109 119 99 109 119 99 109 119 99 109 119 99 109 119 99 109 119 100 110 120 100 110 120 100 110 120 101 111 121 102 112 122 102 112 122 103 113 123 222 232 242 224 234 244 225 235 245 226 236 246 227 237 247 227 237 247 228 238 248 228 238 248 228 238 248 229 239 249 229 239 249 229 239 249 229 239 249 229 239 249 228 238 248 228 238 248 228 238 248 227 237 247 227 237 247 226 236 246 226 236 246 226 236 246 226 236 246 226 236 246 226 236 246 226 236 246 226 236 246 226 236 246 226 236 246 226 236 246 226 236 246 225 235 245 225 235 245 224 234 244 224 234 244 223 233 243 223 233 243 222 232 242 222 232 242 222 232 242 103 113 123 103 113 123 103 113 123 103 113 123 103 113 123 103 113 123 103 113 123 222 232 242 222 232 242 223 233 243 224 234 244 225 235 245 226 236 246 227 237 247 227 237 247 227 237 247 227 237 247 227 237 247 227 237 247 226 236 246 226 236 246 225 235 245 225 235 245 224 234 244 223 233 243 222 232 242 222 232 242 103 113 123 102 112 122 102 112 122 101 111 121 101 111 121 100 110 120 100 110 120 100 110 120 100 110 120 99 109 119 99 109 119 99 109 119 98 108 118 98 108 118 98 108 118 97 107 117 96 106 116 96 106 116 95 105 115 95 105 115 94 104 114 94 104 114 94 104 114 93 103 113 93 103 113 93 103 113 92 102 112 92 102 112 92 102 112 92 102 112 92 102 112 93 103 113 93 103 113 94 104 114 94 104 114 95 105 115 95 105 115 95 105 115 96 106 116 96 106 116 96 106 116 96 106 116 96 106 116 96 106 116 96 106 116 95 105 115 95 105 115 95 105 115 95 105 115 95 105 115 94 104 114 94 104 114 94 104 114 93 103 113 93 103 113 93 103 113 93 103 113 93 103 113 93 103 113 93 103 113 93 103 113 93 103 113 93 103 113 93 103 113 93 103 113 93 103 113 92 102 112 92 102 112 92 102 112 92 102 112 92 102 112 91 101 111 91 101 111 91 101 111 91 101 111 91 101 111 92 102 112 92 102 112 92 102 112 92 102 112 93 103 113 93 103 113 94 104 114 94 104 114 95 105 115 96 106 116 97 107 117 98 108 118 98 108 118 99 109 119 99 109 119 99 109 119 100 110 120 100 110 120 100 110 120 100 110 120 100 110 120 100 110 120 100 110 120 100 110 120 100 110 120 100 110 120 99 109 119 99 109 119 99 109 119 99 109 119 99 109 119 99 109 119 99 109 119 99 109 119 100 110 120 100 110 120 100 110 120 100 110 120 100 110 120 100 110 120 100 110 120 100 110 120 99 109 119 99 109 119 99 109 119 99 109 119 99 109 119 99 109 119 99 109 119 99 109 119 99 109 119 99 109 119 100 110 120 100 110 120 100 110 120 101 111 121 101 111 121 102 112 122 103 113 123 103 113 123 223 233 243 224 234 244 225 235 245 226 236 246 227 237 247 228 238 248 228 238 248 228 238 248 229 239 249 229 239 249 229 239 249 229 239 249 229 239 249 228 238 248 228 238 248 228 238 248 228 238 248 227 237 247 227 237 247 226 236 246 226 236 246 226 236 246 226 236 246 226 236 246 226 236 246 226 236 246 226 236 246 100 110 120 100 110 120 100 110 120 100 110 120 100 110 120 100 110 120 100 110 120 100 110 120 99 109 119 99 109 119 99 109 119 99 109 119 99 109 119 99 109 119 99 109 119 99 109 119 99 109 119 99 109 119 99 109 119 100 110 120 100 110 120 100 110 120 101 111 121 102 112 122 102 112 122 103 113 123 103 113 123 222 232 242 223 233 243 224 234 244 225 235 245 226 236 246 227 237 247 227 237 247 228 238 248 228 238 248 228 238 248 228 238 248 228 238 248 228 238 248 227 237 247 227 237 247 227 237 247 227 237 247 226 236 246 226 236 246 226 236 246 226 236 246 226 236 246 226 236 246 226 236 246 226 236 246 226 236 246 226 236 246 225 235 245 225 235 245 225 235 245 225 235 245 225 235 245 224 234 244 224 234 244 223 233 243 223 233 243 222 232 242 222 232 242 103 113 123 103 113 123 103 113 123 103 113 123 103 113 123 103 113 123 222 232 242 222 232 242 223 233 243 223 233 243 224 234 244 224 234 244 225 235 245 226 236 246 226 236 246 226 236 246 227 237 247 227 237 247 227 237 247 227 237 247 227 237 247 226 236 246 226 236 246 225 235 245 224 234 244 223 233 243 222 232 242 103 113 123 103 113 123 102 112 122 102 112 122 102 112 122 101 111 121 101 111 121 100 110 120 100 110 120 100 110 120 99 109 119 99 109 119 98 108 118 98 108 118 98 108 118 97 107 117 97 107 117 96 106 116 96 106 116 95 105 115 95 105 115 94 104 114 94 104 114 93 103 113 93 103 113 93 103 113 93 103 113 92 102 112 92 102 112 92 102 112 93 103 113 93 103 113 93 103 113 93 103 113 94 104 114 94 104 114 94 104 114 95 105 115 95 105 115 95 105 115 95 105 115 96 106 116 96 106 116 96 106 116 96 106 116 96 106 116 95 105 115 95 105 115 95 105 115 95 105 115 94 104 114 94 104 114 94 104 114 94 104 114 93 103 113 93 103 113 93 103 113 93 103 113 93 103 113 93 103 113 93 103 113 93 103 113 93 103 113 93 103 113 93 103 113 93 103 113 93 103 113 93 103 113 93 103 113 92 102 112 92 102 112 92 102 112 92 102 112 92 102 112 92 102 112 92 102 112 92 102 112 92 102 112 92 102 112 93 103 113 93 103 113 93 103 113 94 104 114 95 105 115 95 105 115 96 106 116 96 106 116 97 107 117 98 108 118 98 108 118 99 109 119 99 109 119 100 110 120 100 110 120 100 110 120 100 110 120 100 110 120 100 110 120 100 110 120 100 110 120 100 110 120 100 110 120 100 110 120 100 110 120 99 109 119 99 109 119 99 109 119 99 109 119 99 109 119 99 109 119 99 109 119 100 110 120 100 110 120 100 110 120 100 110 120 100 110 120 100 110 120 100 110 120 99 109 119 99 109 119 99 109 119 99 109 119 99 109 119 99 109 119 99 109 119 99 109 119 99 109 119 99 109 119 99 109 119 99 109 119 100 110 120 100 110 120 101 111 121 101 111 121 102 112 122 102 112 122 103 113 123 222 232 242 223 233 243 224 234 244 225 235 245 226 236 246 226 236 246 227 237 247 228 238 248 228 238 248 228 238 248 228 238 248 228 238 248 228 238 248 227 237 247 227 237 247 227 237 247 227 237 247 226 236 246 226 236 246 226 236 246 226 236 246 226 236 246 226 236 246 226 236 246 226 236 246 226 236 246 226 236 246 100 110 120 99 109 119 99 109 119 99 109 119 99 109 119 99 109 119 99 109 119 99 109 119 99 109 119 99 109 119 99 109 119 99 109 119 99 109 119 99 109 119 98 108 118 98 108 118 99 109 119 99 109 119 99 109 119 100 110 120 100 110 120 101 111 121 101 111 121 102 112 122 102 112 122 102 112 122 103 113 123 103 113 123 222 232 242 223 233 243 224 234 244 225 235 245 226 236 246 226 236 246 227 237 247 227 237 247 227 237 247 227 237 247 227 237 247 227 237 247 226 236 246 226 236 246 226 236 246 226 236 246 226 236 246 226 236 246 226 236 246 226 236 246 226 236 246 226 236 246 226 236 246 225 235 245 225 235 245 225 235 245 225 235 245 224 234 244 224 234 244 225 235 245 225 235 245 224 234 244 224 234 244 224 234 244 223 233 243 223 233 243 222 232 242 222 232 242 103 113 123 103 113 123 103 113 123 222 232 242 222 232 242 223 233 243 223 233 243 224 234 244 224 234 244 224 234 244 225 235 245 225 235 245 225 235 245 225 235 245 226 236 246 226 236 246 227 237 247 227 237 247 227 237 247 227 237 247 226 236 246 226 236 246 225 235 245 224 234 244 223 233 243 222 232 242 103 113 123 103 113 123 102 112 122 102 112 122 102 112 122 102 112 122 101 111 121 101 111 121 100 110 120 100 110 120 99 109 119 99 109 119 98 108 118 98 108 118 97 107 117 97 107 117 97 107 117 96 106 116 96 106 116 96 106 116 95 105 115 94 104 114 94 104 114 93 103 113 93 103 113 93 103 113 92 102 112 92 102 112 93 103 113 93 103 113 93 103 113 93 103 113 93 103 113 93 103 113 94 104 114 94 104 114 94 104 114 94 104 114 94 104 114 95 105 115 95 105 115 95 105 115 95 105 115 96 106 116 96 106 116 96 106 116 95 105 115 95 105 115 95 105 115 94 104 114 94 104 114 94 104 114 94 104 114 94 104 114 94 104 114 94 104 114 94 104 114 94 104 114 94 104 114 93 103 113 93 103 113 93 103 113 93 103 113 93 103 113 93 103 113 93 103 113 93 103 113 93 103 113 93 103 113 93 103 113 93 103 113 93 103 113 93 103 113 92 102 112 92 102 112 92 102 112 92 102 112 93 103 113 93 103 113 93 103 113 94 104 114 94 104 114 95 105 115 95 105 115 96 106 116 96 106 116 97 107 117 97 107 117 98 108 118 98 108 118 99 109 119 99 109 119 100 110 120 100 110 120 100 110 120 101 111 121 101 111 121 100 110 120 100 110 120 100 110 120 100 110 120 100 110 120 100 110 120 100 110 120 100 110 120 100 110 120 100 110 120 100 110 120 100 110 120 100 110 120 100 110 120 99 109 119 99 109 119 99 109 119 99 109 119 99 109 119 99 109 119 99 109 119 99 109 119 99 109 119 99 109 119 99 109 119 99 109 119 99 109 119 99 109 119 98 108 118 98 108 118 99 109 119 99 109 119 99 109 119 100 110 120 100 110 120 101 111 121 101 111 121 102 112 122 102 112 122 103 113 123 103 113 123 103 113 123 222 232 242 223 233 243 224 234 244 225 235 245 226 236 246 227 237 247 227 237 247 227 237 247 227 237 247 227 237 247 227 237 247 226 236 246 226 236 246 226 236 246 226 236 246 226 236 246 226 236 246 226 236 246 226 236 246 226 236 246 226 236 246 226 236 246 226 236 246 225 235 245 225 235 245 100 110 120 99 109 119 99 109 119 99 109 119 99 109 119 99 109 119 99 109 119 99 109 119 99 109 119 99 109 119 99 109 119 99 109 119 99 109 119 99 109 119 98 108 118 98 108 118 98 108 118 99 109 119 99 109 119 100 110 120 100 110 120 101 111 121 101 111 121 102 112 122 102 112 122 102 112 122 102 112 122 103 113 123 103 113 123 103 113 123 222 232 242 223 233 243 224 234 244 225 235 245 226 236 246 226 236 246 226 236 246 226 236 246 226 236 246 226 236 246 225 235 245 225 235 245 225 235 245 225 235 245 226 236 246 226 236 246 226 236 246 226 236 246 226 236 246 226 236 246 225 235 245 225 235 245 224 234 244 224 234 244 224 234 244 224 234 244 224 234 244 224 234 244 224 234 244 224 234 244 224 234 244 224 234 244 223 233 243 223 233 243 222 232 242 222 232 242 103 113 123 103 113 123 222 232 242 222 232 242 223 233 243 224 234 244 224 234 244 225 235 245 225 235 245 225 235 245 225 235 245 225 235 245 225 235 245 225 235 245 225 235 245 226 236 246 226 236 246 226 236 246 227 237 247 227 237 247 226 236 246 226 236 246 225 235 245 224 234 244 223 233 243 222 232 242 103 113 123 103 113 123 103 113 123 102 112 122 102 112 122 102 112 122 102 112 122 101 111 121 100 110 120 100 110 120 99 109 119 98 108 118 98 108 118 97 107 117 97 107 117 97 107 117 97 107 117 96 106 116 96 106 116 96 106 116 95 105 115 95 105 115 94 104 114 93 103 113 93 103 113 93 103 113 92 102 112 93 103 113 93 103 113 93 103 113 93 103 113 93 103 113 94 104 114 94 104 114 94 104 114 94 104 114 94 104 114 94 104 114 94 104 114 94 104 114 94 104 114 95 105 115 95 105 115 95 105 115 96 106 116 95 105 115 95 105 115 95 105 115 95 105 115 94 104 114 94 104 114 94 104 114 94 104 114 94 104 114 94 104 114 94 104 114 94 104 114 94 104 114 94 104 114 94 104 114 93 103 113 93 103 113 93 103 113 93 103 113 93 103 113 93 103 113 93 103 113 93 103 113 93 103 113 93 103 113 93 103 113 93 103 113 93 103 113 93 103 113 93 103 113 93 103 113 93 103 113 93 103 113 94 104 114 94 104 114 95 105 115 95 105 115 96 106 116 96 106 116 97 107 117 97 107 117 97 107 117 97 107 117 98 108 118 98 108 118 99 109 119 99 109 119 100 110 120 100 110 120 101 111 121 101 111 121 101 111 121 101 111 121 100 110 120 100 110 120 100 110 120 100 110 120 100 110 120 100 110 120 100 110 120 100 110 120 100 110 120 100 110 120 100 110 120 100 110 120 100 110 120 99 109 119 99 109 119 99 109 119 99 109 119 99 109 119 99 109 119 99 109 119 99 109 119 99 109 119 99 109 119 99 109 119 99 109 119 99 109 119 98 108 118 98 108 118 98 108 118 98 108 118 99 109 119 99 109 119 100 110 120 100 110 120 101 111 121 101 111 121 102 112 122 102 112 122 102 112 122 102 112 122 103 113 123 103 113 123 103 113 123 222 232 242 224 234 244 225 235 245 225 235 245 226 236 246 226 236 246 226 236 246 226 236 246 226 236 246 225 235 245 225 235 245 225 235 245 225 235 245 225 235 245 226 236 246 226 236 246 226 236 246 226 236 246 226 236 246 226 236 246 225 235 245 225 235 245 224 234 244 100 110 120 99 109 119 99 109 119 98 108 118 98 108 118 98 108 118 99 109 119 99 109 119 99 109 119 99 109 119 99 109 119 99 109 119 99 109 119 98 108 118 98 108 118 98 108 118 98 108 118 99 109 119 99 109 119 100 110 120 100 110 120 101 111 121 101 111 121 101 111 121 102 112 122 102 112 122 102 112 122 102 112 122 102 112 122 103 113 123 103 113 123 222 232 242 223 233 243 224 234 244 225 235 245 225 235 245 225 235 245 225 235 245 225 235 245 225 235 245 224 234 244 224 234 244 224 234 244 225 235 245 225 235 245 226 236 246 226 236 246 226 236 246 226 236 246 226 236 246 225 235 245 224 234 244 224 234 244 223 233 243 223 233 243 223 233 243 223 233 243 224 234 244 224 234 244 224 234 244 224 234 244 224 234 244 224 234 244 223 233 243 223 233 243 222 232 242 222 232 242 222 232 242 222 232 242 223 233 243 224 234 244 224 234 244 225 235 245 225 235 245 225 235 245 225 235 245 225 235 245 225 235 245 224 234 244 224 234 244 225 235 245 225 235 245 226 236 246 226 236 246 226 236 246 226 236 246 226 236 246 226 236 246 225 235 245 224 234 244 223 233 243 222 232 242 103 113 123 103 113 123 103 113 123 103 113 123 102 112 122 102 112 122 102 112 122 101 111 121 101 111 121 100 110 120 99 109 119 98 108 118 98 108 118 97 107 117 97 107 117 97 107 117 96 106 116 96 106 116 96 106 116 96 106 116 95 105 115 95 105 115 94 104 114 93 103 113 93 103 113 93 103 113 93 103 113 93 103 113 93 103 113 93 103 113 94 104 114 94 104 114 94 104 114 94 104 114 94 104 114 93 103 113 93 103 113 93 103 113 93 103 113 94 104 114 94 104 114 94 104 114 95 105 115 95 105 115 95 105 115 95 105 115 95 105 115 95 105 115 94 104 114 94 104 114 94 104 114 94 104 114 94 104 114 94 104 114 94 104 114 95 105 115 95 105 115 95 105 115 94 104 114 94 104 114 94 104 114 93 103 113 93 103 113 93 103 113 93 103 113 93 103 113 93 103 113 93 103 113 94 104 114 94 104 114 94 104 114 94 104 114 94 104 114 94 104 114 93 103 113 93 103 113 94 104 114 94 104 114 94 104 114 95 105 115 96 106 116 96 106 116 97 107 117 97 107 117 97 107 117 97 107 117 97 107 117 97 107 117 98 108 118 98 108 118 98 108 118 99 109 119 100 110 120 100 110 120 101 111 121 101 111 121 101 111 121 101 111 121 101 111 121 100 110 120 100 110 120 100 110 120 100 110 120 100 110 120 100 110 120 100 110 120 101 111 121 101 111 121 101 111 121 100 110 120 100 110 120 99 109 119 99 109 119 99 109 119 98 108 118 98 108 118 98 108 118 99 109 119 99 109 119 99 109 119 99 109 119 99 109 119 99 109 119 99 109 119 98 108 118 98 108 118 98 108 118 98 108 118 99 109 119 99 109 119 100 110 120 100 110 120 101 111 121 101 111 121 102 112 122 102 112 122 102 112 122 102 112 122 102 112 122 102 112 122 103 113 123 103 113 123 222 232 242 223 233 243 224 234 244 225 235 245 225 235 245 225 235 245 225 235 245 225 235 245 224 234 244 224 234 244 224 234 244 224 234 244 225 235 245 225 235 245 226 236 246 226 236 246 226 236 246 226 236 246 226 236 246 225 235 245 224 234 244 224 234 244 100 110 120 99 109 119 99 109 119 98 108 118 98 108 118 98 108 118 98 108 118 99 109 119 99 109 119 99 109 119 99 109 119 99 109 119 99 109 119 98 108 118 98 108 118 98 108 118 98 108 118 99 109 119 99 109 119 100 110 120 100 110 120 101 111 121 101 111 121 101 111 121 101 111 121 101 111 121 101 111 121 101 111 121 101 111 121 102 112 122 102 112 122 103 113 123 103 113 123 222 232 242 223 233 243 224 234 244 224 234 244 224 234 244 224 234 244 224 234 244 224 234 244 224 234 244 224 234 244 224 234 244 225 235 245 225 235 245 226 236 246 226 236 246 226 236 246 225 235 245 225 235 245 224 234 244 223 233 243 223 233 243 222 232 242 222 232 242 223 233 243 223 233 243 224 234 244 224 234 244 224 234 244 224 234 244 224 234 244 223 233 243 223 233 243 223 233 243 223 233 243 223 233 243 223 233 243 224 234 244 225 235 245 225 235 245 226 236 246 226 236 246 226 236 246 226 236 246 225 235 245 225 235 245 224 234 244 224 234 244 224 234 244 225 235 245 225 235 245 225 235 245 226 236 246 226 236 246 226 236 246 225 235 245 224 234 244 224 234 244 223 233 243 222 232 242 103 113 123 103 113 123 103 113 123 103 113 123 103 113 123 102 112 122 102 112 122 101 111 121 101 111 121 100 110 120 99 109 119 98 108 118 97 107 117 97 107 117 97 107 117 96 106 116 96 106 116 96 106 116 96 106 116 96 106 116 95 105 115 95 105 115 94 104 114 94 104 114 93 103 113 93 103 113 93 103 113 93 103 113 93 103 113 94 104 114 94 104 114 94 104 114 94 104 114 94 104 114 94 104 114 93 103 113 93 103 113 93 103 113 93 103 113 93 103 113 94 104 114 94 104 114 94 104 114 95 105 115 95 105 115 95 105 115 95 105 115 95 105 115 94 104 114 94 104 114 94 104 114 94 104 114 94 104 114 94 104 114 95 105 115 95 105 115 95 105 115 95 105 115 95 105 115 94 104 114 94 104 114 94 104 114 93 103 113 93 103 113 93 103 113 93 103 113 93 103 113 94 104 114 94 104 114 94 104 114 94 104 114 94 104 114 94 104 114 94 104 114 94 104 114 94 104 114 94 104 114 95 105 115 95 105 115 96 106 116 96 106 116 97 107 117 97 107 117 98 108 118 98 108 118 98 108 118 98 108 118 98 108 118 98 108 118 98 108 118 99 109 119 99 109 119 100 110 120 100 110 120 100 110 120 101 111 121 101 111 121 101 111 121 101 111 121 100 110 120 100 110 120 100 110 120 100 110 120 100 110 120 101 111 121 101 111 121 101 111 121 101 111 121 101 111 121 100 110 120 100 110 120 99 109 119 99 109 119 98 108 118 98 108 118 98 108 118 98 108 118 98 108 118 99 109 119 99 109 119 99 109 119 99 109 119 99 109 119 99 109 119 98 108 118 98 108 118 98 108 118 98 108 118 99 109 119 99 109 119 100 110 120 100 110 120 101 111 121 101 111 121 101 111 121 101 111 121 101 111 121 101 111 121 101 111 121 102 112 122 102 112 122 102 112 122 103 113 123 222 232 242 223 233 243 223 233 243 224 234 244 224 234 244 224 234 244 224 234 244 224 234 244 224 234 244 224 234 244 224 234 244 224 234 244 225 235 245 226 236 246 226 236 246 226 236 246 226 236 246 225 235 245 225 235 245 224 234 244 223 233 243 100 110 120 99 109 119 99 109 119 98 108 118 98 108 118 98 108 118 98 108 118 98 108 118 98 108 118 99 109 119 99 109 119 99 109 119 98 108 118 98 108 118 98 108 118 98 108 118 99 109 119 99 109 119 99 109 119 100 110 120 100 110 120 100 110 120 101 111 121 101 111 121 101 111 121 101 111 121 101 111 121 101 111 121 101 111 121 101 111 121 102 112 122 102 112 122 103 113 123 103 113 123 103 113 123 222 232 242 222 232 242 223 233 243 223 233 243 223 233 243 223 233 243 223 233 243 224 234 244 224 234 244 225 235 245 225 235 245 225 235 245 225 235 245 225 235 245 225 235 245 224 234 244 224 234 244 223 233 243 222 232 242 222 232 242 222 232 242 222 232 242 223 233 243 223 233 243 223 233 243 224 234 244 224 234 244 224 234 244 224 234 244 223 233 243 223 233 243 223 233 243 224 234 244 224 234 244 225 235 245 225 235 245 226 236 246 226 236 246 226 236 246 226 236 246 226 236 246 225 235 245 225 235 245 224 234 244 224 234 244 224 234 244 224 234 244 225 235 245 225 235 245 225 235 245 225 235 245 225 235 245 225 235 245 224 234 244 223 233 243 223 233 243 222 232 242 222 232 242 103 113 123 103 113 123 103 113 123 103 113 123 102 112 122 102 112 122 101 111 121 101 111 121 100 110 120 99 109 119 98 108 118 97 107 117 97 107 117 96 106 116 96 106 116 96 106 116 96 106 116 96 106 116 95 105 115 95 105 115 95 105 115 94 104 114 94 104 114 94 104 114 93 103 113 93 103 113 94 104 114 94 104 114 94 104 114 94 104 114 94 104 114 94 104 114 94 104 114 94 104 114 93 103 113 93 103 113 93 103 113 93 103 113 93 103 113 93 103 113 93 103 113 94 104 114 94 104 114 94 104 114 94 104 114 94 104 114 94 104 114 94 104 114 94 104 114 94 104 114 94 104 114 94 104 114 95 105 115 95 105 115 95 105 115 95 105 115 95 105 115 95 105 115 95 105 115 94 104 114 94 104 114 93 103 113 93 103 113 93 103 113 93 103 113 94 104 114 94 104 114 94 104 114 94 104 114 95 105 115 95 105 115 95 105 115 95 105 115 95 105 115 95 105 115 95 105 115 96 106 116 96 106 116 97 107 117 97 107 117 98 108 118 98 108 118 98 108 118 98 108 118 98 108 118 98 108 118 98 108 118 98 108 118 98 108 118 99 109 119 99 109 119 99 109 119 100 110 120 100 110 120 101 111 121 101 111 121 101 111 121 101 111 121 101 111 121 100 110 120 100 110 120 101 111 121 101 111 121 101 111 121 101 111 121 101 111 121 101 111 121 101 111 121 100 110 120 100 110 120 99 109 119 99 109 119 98 108 118 98 108 118 98 108 118 98 108 118 98 108 118 98 108 118 98 108 118 99 109 119 99 109 119 98 108 118 98 108 118 98 108 118 98 108 118 98 108 118 99 109 119 99 109 119 99 109 119 100 110 120 100 110 120 101 111 121 101 111 121 101 111 121 101 111 121 101 111 121 101 111 121 101 111 121 101 111 121 101 111 121 102 112 122 102 112 122 103 113 123 103 113 123 222 232 242 222 232 242 223 233 243 223 233 243 223 233 243 223 233 243 223 233 243 223 233 243 224 234 244 224 234 244 225 235 245 225 235 245 225 235 245 225 235 245 225 235 245 225 235 245 224 234 244 223 233 243 223 233 243 100 110 120 99 109 119 99 109 119 98 108 118 98 108 118 98 108 118 98 108 118 98 108 118 98 108 118 98 108 118 98 108 118 98 108 118 98 108 118 98 108 118 98 108 118 99 109 119 99 109 119 99 109 119 99 109 119 100 110 120 100 110 120 100 110 120 100 110 120 101 111 121 101 111 121 100 110 120 100 110 120 100 110 120 101 111 121 101 111 121 101 111 121 101 111 121 102 112 122 102 112 122 102 112 122 103 113 123 103 113 123 103 113 123 222 232 242 222 232 242 222 232 242 223 233 243 223 233 243 224 234 244 224 234 244 224 234 244 225 235 245 225 235 245 225 235 245 224 234 244 224 234 244 223 233 243 223 233 243 222 232 242 222 232 242 222 232 242 222 232 242 222 232 242 223 233 243 223 233 243 223 233 243 223 233 243 224 234 244 224 234 244 224 234 244 224 234 244 224 234 244 225 235 245 225 235 245 226 236 246 226 236 246 226 236 246 226 236 246 226 236 246 226 236 246 226 236 246 225 235 245 225 235 245 225 235 245 224 234 244 224 234 244 224 234 244 224 234 244 224 234 244 224 234 244 224 234 244 224 234 244 224 234 244 224 234 244 223 233 243 223 233 243 222 232 242 222 232 242 222 232 242 103 113 123 103 113 123 103 113 123 102 112 122 102 112 122 101 111 121 101 111 121 100 110 120 99 109 119 98 108 118 98 108 118 97 107 117 97 107 117 96 106 116 96 106 116 96 106 116 95 105 115 95 105 115 95 105 115 95 105 115 94 104 114 94 104 114 94 104 114 94 104 114 94 104 114 94 104 114 94 104 114 94 104 114 94 104 114 94 104 114 94 104 114 94 104 114 93 103 113 93 103 113 93 103 113 93 103 113 93 103 113 93 103 113 93 103 113 93 103 113 93 103 113 93 103 113 94 104 114 94 104 114 94 104 114 94 104 114 94 104 114 94 104 114 94 104 114 95 105 115 95 105 115 95 105 115 95 105 115 95 105 115 95 105 115 95 105 115 95 105 115 95 105 115 94 104 114 94 104 114 94 104 114 94 104 114 94 104 114 94 104 114 94 104 114 94 104 114 94 104 114 95 105 115 95 105 115 95 105 115 95 105 115 95 105 115 96 106 116 96 106 116 96 106 116 97 107 117 97 107 117 97 107 117 98 108 118 98 108 118 98 108 118 99 109 119 99 109 119 99 109 119 98 108 118 98 108 118 99 109 119 99 109 119 99 109 119 99 109 119 99 109 119 100 110 120 100 110 120 100 110 120 100 110 120 101 111 121 101 111 121 101 111 121 101 111 121 101 111 121 101 111 121 101 111 121 101 111 121 101 111 121 101 111 121 101 111 121 101 111 121 100 110 120 100 110 120 99 109 119 99 109 119 99 109 119 98 108 118 98 108 118 98 108 118 98 108 118 98 108 118 98 108 118 98 108 118 98 108 118 98 108 118 98 108 118 98 108 118 99 109 119 99 109 119 99 109 119 99 109 119 100 110 120 100 110 120 100 110 120 100 110 120 100 110 120 101 111 121 101 111 121 100 110 120 100 110 120 100 110 120 101 111 121 101 111 121 101 111 121 101 111 121 102 112 122 102 112 122 103 113 123 103 113 123 103 113 123 103 113 123 222 232 242 222 232 242 223 233 243 223 233 243 223 233 243 224 234 244 224 234 244 225 235 245 225 235 245 225 235 245 224 234 244 224 234 244 224 234 244 223 233 243 223 233 243 100 110 120 99 109 119 99 109 119 98 108 118 98 108 118 98 108 118 98 108 118 98 108 118 98 108 118 98 108 118 98 108 118 98 108 118 98 108 118 98 108 118 99 109 119 99 109 119 99 109 119 99 109 119 100 110 120 100 110 120 100 110 120 100 110 120 100 110 120 100 110 120 100 110 120 100 110 120 100 110 120 100 110 120 100 110 120 100 110 120 100 110 120 101 111 121 101 111 121 101 111 121 101 111 121 102 112 122 102 112 122 103 113 123 103 113 123 103 113 123 222 232 242 222 232 242 223 233 243 223 233 243 224 234 244 224 234 244 224 234 244 224 234 244 224 234 244 223 233 243 223 233 243 223 233 243 223 233 243 222 232 242 222 232 242 222 232 242 222 232 242 222 232 242 222 232 242 222 232 242 223 233 243 223 233 243 224 234 244 224 234 244 225 235 245 225 235 245 226 236 246 226 236 246 226 236 246 226 236 246 227 237 247 227 237 247 227 237 247 226 236 246 226 236 246 226 236 246 226 236 246 225 235 245 225 235 245 224 234 244 224 234 244 224 234 244 224 234 244 223 233 243 223 233 243 223 233 243 223 233 243 223 233 243 223 233 243 223 233 243 223 233 243 223 233 243 222 232 242 222 232 242 222 232 242 103 113 123 103 113 123 102 112 122 102 112 122 101 111 121 100 110 120 100 110 120 99 109 119 98 108 118 98 108 118 97 107 117 97 107 117 96 106 116 96 106 116 95 105 115 95 105 115 95 105 115 95 105 115 95 105 115 95 105 115 95 105 115 95 105 115 95 105 115 95 105 115 94 104 114 94 104 114 94 104 114 94 104 114 94 104 114 94 104 114 94 104 114 93 103 113 93 103 113 93 103 113 93 103 113 93 103 113 93 103 113 93 103 113 93 103 113 93 103 113 93 103 113 93 103 113 93 103 113 94 104 114 94 104 114 94 104 114 94 104 114 95 105 115 95 105 115 95 105 115 95 105 115 95 105 115 95 105 115 95 105 115 95 105 115 95 105 115 95 105 115 95 105 115 94 104 114 94 104 114 94 104 114 94 104 114 94 104 114 94 104 114 94 104 114 94 104 114 95 105 115 95 105 115 95 105 115 96 106 116 96 106 116 97 107 117 97 107 117 97 107 117 98 108 118 98 108 118 98 108 118 99 109 119 99 109 119 99 109 119 99 109 119 99 109 119 99 109 119 99 109 119 99 109 119 99 109 119 99 109 119 99 109 119 99 109 119 99 109 119 99 109 119 100 110 120 100 110 120 100 110 120 100 110 120 101 111 121 101 111 121 101 111 121 101 111 121 101 111 121 101 111 121 101 111 121 101 111 121 101 111 121 101 111 121 100 110 120 100 110 120 100 110 120 99 109 119 99 109 119 99 109 119 98 108 118 98 108 118 98 108 118 98 108 118 98 108 118 98 108 118 98 108 118 98 108 118 98 108 118 98 108 118 99 109 119 99 109 119 99 109 119 99 109 119 99 109 119 100 110 120 100 110 120 100 110 120 100 110 120 100 110 120 100 110 120 100 110 120 100 110 120 100 110 120 100 110 120 100 110 120 100 110 120 100 110 120 101 111 121 101 111 121 101 111 121 101 111 121 102 112 122 102 112 122 103 113 123 103 113 123 103 113 123 222 232 242 223 233 243 223 233 243 223 233 243 224 234 244 224 234 244 224 234 244 224 234 244 224 234 244 223 233 243 223 233 243 223 233 243 223 233 243 100 110 120 99 109 119 99 109 119 99 109 119 98 108 118 98 108 118 98 108 118 97 107 117 97 107 117 97 107 117 97 107 117 98 108 118 98 108 118 98 108 118 99 109 119 99 109 119 100 110 120 100 110 120 100 110 120 100 110 120 100 110 120 100 110 120 100 110 120 100 110 120 100 110 120 100 110 120 100 110 120 100 110 120 100 110 120 100 110 120 100 110 120 100 110 120 100 110 120 100 110 120 100 110 120 101 111 121 101 111 121 102 112 122 102 112 122 103 113 123 103 113 123 222 232 242 223 233 243 223 233 243 223 233 243 223 233 243 223 233 243 223 233 243 223 233 243 223 233 243 223 233 243 223 233 243 222 232 242 222 232 242 222 232 242 222 232 242 222 232 242 222 232 242 222 232 242 222 232 242 222 232 242 223 233 243 223 233 243 224 234 244 225 235 245 226 236 246 227 237 247 227 237 247 227 237 247 227 237 247 227 237 247 227 237 247 227 237 247 226 236 246 226 236 246 226 236 246 226 236 246 225 235 245 225 235 245 225 235 245 224 234 244 224 234 244 223 233 243 223 233 243 222 232 242 222 232 242 222 232 242 222 232 242 223 233 243 223 233 243 223 233 243 223 233 243 223 233 243 222 232 242 222 232 242 103 113 123 103 113 123 102 112 122 101 111 121 101 111 121 100 110 120 100 110 120 99 109 119 99 109 119 98 108 118 97 107 117 97 107 117 96 106 116 96 106 116 95 105 115 95 105 115 95 105 115 95 105 115 95 105 115 95 105 115 95 105 115 95 105 115 95 105 115 95 105 115 95 105 115 95 105 115 94 104 114 94 104 114 94 104 114 94 104 114 93 103 113 93 103 113 93 103 113 93 103 113 93 103 113 93 103 113 92 102 112 92 102 112 92 102 112 92 102 112 92 102 112 92 102 112 93 103 113 93 103 113 94 104 114 94 104 114 95 105 115 95 105 115 95 105 115 95 105 115 95 105 115 95 105 115 95 105 115 95 105 115 95 105 115 95 105 115 95 105 115 95 105 115 95 105 115 95 105 115 95 105 115 95 105 115 95 105 115 95 105 115 95 105 115 95 105 115 95 105 115 95 105 115 96 106 116 96 106 116 97 107 117 97 107 117 98 108 118 98 108 118 99 109 119 99 109 119 99 109 119 99 109 119 99 109 119 99 109 119 99 109 119 99 109 119 99 109 119 99 109 119 99 109 119 99 109 119 99 109 119 99 109 119 99 109 119 99 109 119 99 109 119 99 109 119 100 110 120 100 110 120 100 110 120 101 111 121 101 111 121 101 111 121 102 112 122 102 112 122 102 112 122 101 111 121 101 111 121 101 111 121 101 111 121 100 110 120 100 110 120 100 110 120 99 109 119 99 109 119 99 109 119 99 109 119 98 108 118 98 108 118 98 108 118 97 107 117 97 107 117 97 107 117 98 108 118 98 108 118 98 108 118 99 109 119 99 109 119 99 109 119 100 110 120 100 110 120 100 110 120 100 110 120 100 110 120 100 110 120 100 110 120 100 110 120 100 110 120 100 110 120 100 110 120 100 110 120 100 110 120 100 110 120 100 110 120 100 110 120 100 110 120 100 110 120 100 110 120 101 111 121 101 111 121 102 112 122 102 112 122 103 113 123 222 232 242 222 232 242 223 233 243 223 233 243 223 233 243 223 233 243 223 233 243 223 233 243 223 233 243 223 233 243 223 233 243 223 233 243 222 232 242 100 110 120 99 109 119 99 109 119 99 109 119 98 108 118 98 108 118 98 108 118 97 107 117 97 107 117 97 107 117 97 107 117 98 108 118 98 108 118 99 109 119 99 109 119 99 109 119 100 110 120 100 110 120 100 110 120 100 110 120 100 110 120 99 109 119 99 109 119 99 109 119 99 109 119 99 109 119 99 109 119 99 109 119 99 109 119 99 109 119 99 109 119 99 109 119 99 109 119 99 109 119 99 109 119 100 110 120 100 110 120 101 111 121 102 112 122 102 112 122 103 113 123 222 232 242 222 232 242 222 232 242 222 232 242 222 232 242 222 232 242 222 232 242 222 232 242 222 232 242 222 232 242 222 232 242 222 232 242 222 232 242 222 232 242 222 232 242 222 232 242 222 232 242 103 113 123 103 113 123 222 232 242 223 233 243 223 233 243 224 234 244 226 236 246 227 237 247 227 237 247 228 238 248 228 238 248 228 238 248 228 238 248 227 237 247 227 237 247 226 236 246 226 236 246 226 236 246 226 236 246 226 236 246 225 235 245 225 235 245 224 234 244 224 234 244 223 233 243 222 232 242 222 232 242 103 113 123 103 113 123 222 232 242 222 232 242 222 232 242 223 233 243 223 233 243 223 233 243 223 233 243 222 232 242 103 113 123 103 113 123 102 112 122 101 111 121 101 111 121 100 110 120 100 110 120 99 109 119 99 109 119 98 108 118 98 108 118 97 107 117 96 106 116 96 106 116 95 105 115 95 105 115 95 105 115 95 105 115 95 105 115 95 105 115 95 105 115 96 106 116 96 106 116 96 106 116 95 105 115 95 105 115 95 105 115 94 104 114 94 104 114 94 104 114 93 103 113 93 103 113 93 103 113 93 103 113 93 103 113 93 103 113 92 102 112 92 102 112 92 102 112 92 102 112 92 102 112 92 102 112 92 102 112 93 103 113 93 103 113 94 104 114 95 105 115 95 105 115 95 105 115 96 106 116 96 106 116 95 105 115 95 105 115 95 105 115 95 105 115 95 105 115 95 105 115 95 105 115 95 105 115 95 105 115 95 105 115 95 105 115 95 105 115 95 105 115 95 105 115 95 105 115 95 105 115 96 106 116 96 106 116 97 107 117 98 108 118 98 108 118 99 109 119 99 109 119 100 110 120 100 110 120 100 110 120 100 110 120 100 110 120 100 110 120 100 110 120 100 110 120 100 110 120 100 110 120 100 110 120 100 110 120 100 110 120 100 110 120 99 109 119 99 109 119 99 109 119 99 109 119 99 109 119 100 110 120 100 110 120 101 111 121 101 111 121 102 112 122 102 112 122 102 112 122 102 112 122 102 112 122 101 111 121 101 111 121 100 110 120 100 110 120 100 110 120 100 110 120 99 109 119 99 109 119 99 109 119 99 109 119 98 108 118 98 108 118 98 108 118 97 107 117 97 107 117 97 107 117 97 107 117 98 108 118 98 108 118 99 109 119 99 109 119 100 110 120 100 110 120 100 110 120 100 110 120 100 110 120 100 110 120 99 109 119 99 109 119 99 109 119 99 109 119 99 109 119 99 109 119 99 109 119 99 109 119 99 109 119 99 109 119 99 109 119 99 109 119 99 109 119 99 109 119 100 110 120 100 110 120 101 111 121 102 112 122 103 113 123 103 113 123 222 232 242 222 232 242 222 232 242 222 232 242 222 232 242 222 232 242 222 232 242 222 232 242 222 232 242 222 232 242 222 232 242 222 232 242 100 110 120 99 109 119 99 109 119 99 109 119 99 109 119 98 108 118 98 108 118 97 107 117 97 107 117 97 107 117 97 107 117 98 108 118 98 108 118 99 109 119 99 109 119 100 110 120 100 110 120 100 110 120 100 110 120 100 110 120 99 109 119 99 109 119 99 109 119 99 109 119 99 109 119 99 109 119 99 109 119 99 109 119 99 109 119 99 109 119 99 109 119 99 109 119 98 108 118 98 108 118 99 109 119 99 109 119 99 109 119 100 110 120 101 111 121 102 112 122 103 113 123 103 113 123 103 113 123 222 232 242 222 232 242 222 232 242 103 113 123 103 113 123 103 113 123 103 113 123 103 113 123 222 232 242 222 232 242 222 232 242 222 232 242 222 232 242 222 232 242 103 113 123 103 113 123 103 113 123 222 232 242 222 232 242 224 234 244 225 235 245 226 236 246 227 237 247 228 238 248 229 239 249 229 239 249 228 238 248 228 238 248 227 237 247 227 237 247 226 236 246 226 236 246 226 236 246 226 236 246 226 236 246 225 235 245 225 235 245 224 234 244 223 233 243 222 232 242 222 232 242 103 113 123 103 113 123 103 113 123 103 113 123 222 232 242 222 232 242 223 233 243 223 233 243 223 233 243 223 233 243 222 232 242 103 113 123 102 112 122 102 112 122 101 111 121 100 110 120 100 110 120 100 110 120 99 109 119 99 109 119 98 108 118 98 108 118 97 107 117 96 106 116 96 106 116 95 105 115 95 105 115 95 105 115 95 105 115 95 105 115 95 105 115 96 106 116 96 106 116 96 106 116 96 106 116 96 106 116 95 105 115 95 105 115 94 104 114 94 104 114 93 103 113 93 103 113 93 103 113 93 103 113 93 103 113 93 103 113 93 103 113 92 102 112 92 102 112 92 102 112 91 101 111 91 101 111 92 102 112 92 102 112 92 102 112 93 103 113 94 104 114 95 105 115 95 105 115 95 105 115 96 106 116 96 106 116 95 105 115 95 105 115 95 105 115 95 105 115 95 105 115 95 105 115 95 105 115 96 106 116 96 106 116 96 106 116 96 106 116 96 106 116 95 105 115 95 105 115 95 105 115 96 106 116 96 106 116 97 107 117 97 107 117 98 108 118 99 109 119 100 110 120 100 110 120 100 110 120 101 111 121 100 110 120 100 110 120 100 110 120 100 110 120 100 110 120 100 110 120 100 110 120 100 110 120 100 110 120 100 110 120 100 110 120 100 110 120 100 110 120 99 109 119 99 109 119 99 109 119 99 109 119 100 110 120 100 110 120 101 111 121 101 111 121 102 112 122 102 112 122 102 112 122 102 112 122 102 112 122 101 111 121 101 111 121 100 110 120 100 110 120 100 110 120 100 110 120 99 109 119 99 109 119 99 109 119 99 109 119 98 108 118 98 108 118 98 108 118 97 107 117 97 107 117 97 107 117 97 107 117 98 108 118 98 108 118 99 109 119 99 109 119 100 110 120 100 110 120 100 110 120 100 110 120 100 110 120 99 109 119 99 109 119 99 109 119 99 109 119 99 109 119 99 109 119 99 109 119 99 109 119 99 109 119 99 109 119 99 109 119 99 109 119 98 108 118 98 108 118 99 109 119 99 109 119 100 110 120 100 110 120 101 111 121 102 112 122 103 113 123 103 113 123 222 232 242 222 232 242 222 232 242 103 113 123 103 113 123 103 113 123 103 113 123 103 113 123 222 232 242 222 232 242 222 232 242 100 110 120 99 109 119 99 109 119 99 109 119 99 109 119 98 108 118 98 108 118 97 107 117 97 107 117 97 107 117 97 107 117 98 108 118 98 108 118 99 109 119 99 109 119 100 110 120 100 110 120 100 110 120 100 110 120 100 110 120 99 109 119 99 109 119 99 109 119 98 108 118 98 108 118 98 108 118 99 109 119 99 109 119 99 109 119 98 108 118 98 108 118 98 108 118 98 108 118 98 108 118 98 108 118 98 108 118 99 109 119 100 110 120 100 110 120 101 111 121 102 112 122 102 112 122 103 113 123 103 113 123 103 113 123 103 113 123 103 113 123 103 113 123 103 113 123 103 113 123 103 113 123 103 113 123 222 232 242 222 232 242 222 232 242 222 232 242 222 232 242 103 113 123 103 113 123 103 113 123 222 232 242 223 233 243 224 234 244 225 235 245 226 236 246 228 238 248 228 238 248 229 239 249 229 239 249 229 239 249 228 238 248 228 238 248 227 237 247 227 237 247 226 236 246 226 236 246 226 236 246 226 236 246 225 235 245 225 235 245 224 234 244 223 233 243 222 232 242 103 113 123 103 113 123 103 113 123 103 113 123 103 113 123 103 113 123 222 232 242 222 232 242 223 233 243 223 233 243 222 232 242 103 113 123 103 113 123 102 112 122 102 112 122 101 111 121 100 110 120 100 110 120 100 110 120 99 109 119 99 109 119 98 108 118 98 108 118 97 107 117 97 107 117 96 106 116 95 105 115 95 105 115 95 105 115 95 105 115 95 105 115 95 105 115 96 106 116 96 106 116 96 106 116 96 106 116 96 106 116 95 105 115 95 105 115 94 104 114 94 104 114 94 104 114 93 103 113 93 103 113 93 103 113 93 103 113 93 103 113 93 103 113 92 102 112 92 102 112 92 102 112 91 101 111 91 101 111 91 101 111 92 102 112 92 102 112 93 103 113 94 104 114 94 104 114 95 105 115 95 105 115 96 106 116 96 106 116 95 105 115 95 105 115 95 105 115 95 105 115 95 105 115 95 105 115 96 106 116 96 106 116 96 106 116 96 106 116 96 106 116 96 106 116 96 106 116 96 106 116 96 106 116 96 106 116 97 107 117 97 107 117 98 108 118 99 109 119 100 110 120 100 110 120 101 111 121 101 111 121 101 111 121 101 111 121 101 111 121 101 111 121 101 111 121 100 110 120 100 110 120 100 110 120 101 111 121 101 111 121 100 110 120 100 110 120 100 110 120 100 110 120 99 109 119 99 109 119 99 109 119 99 109 119 99 109 119 100 110 120 101 111 121 101 111 121 102 112 122 102 112 122 102 112 122 102 112 122 102 112 122 101 111 121 101 111 121 100 110 120 100 110 120 100 110 120 100 110 120 99 109 119 99 109 119 99 109 119 99 109 119 98 108 118 98 108 118 98 108 118 97 107 117 97 107 117 97 107 117 97 107 117 98 108 118 98 108 118 99 109 119 99 109 119 100 110 120 100 110 120 100 110 120 100 110 120 99 109 119 99 109 119 99 109 119 99 109 119 98 108 118 98 108 118 99 109 119 99 109 119 99 109 119 99 109 119 98 108 118 98 108 118 98 108 118 98 108 118 98 108 118 98 108 118 98 108 118 99 109 119 100 110 120 101 111 121 101 111 121 102 112 122 103 113 123 103 113 123 103 113 123 103 113 123 103 113 123 103 113 123 103 113 123 103 113 123 103 113 123 103 113 123 222 232 242 222 232 242 100 110 120 99 109 119 99 109 119 99 109 119 99 109 119 98 108 118 98 108 118 98 108 118 97 107 117 97 107 117 97 107 117 98 108 118 98 108 118 99 109 119 99 109 119 100 110 120 100 110 120 100 110 120 100 110 120 99 109 119 99 109 119 99 109 119 98 108 118 98 108 118 98 108 118 98 108 118 98 108 118 98 108 118 98 108 118 98 108 118 98 108 118 97 107 117 97 107 117 97 107 117 97 107 117 98 108 118 98 108 118 99 109 119 100 110 120 100 110 120 101 111 121 102 112 122 102 112 122 102 112 122 102 112 122 102 112 122 102 112 122 102 112 122 103 113 123 103 113 123 103 113 123 103 113 123 103 113 123 222 232 242 222 232 242 222 232 242 222 232 242 222 232 242 222 232 242 222 232 242 222 232 242 223 233 243 224 234 244 225 235 245 227 237 247 228 238 248 229 239 249 229 239 249 229 239 249 229 239 249 229 239 249 228 238 248 227 237 247 227 237 247 226 236 246 226 236 246 226 236 246 225 235 245 225 235 245 224 234 244 224 234 244 223 233 243 222 232 242 103 113 123 103 113 123 103 113 123 103 113 123 103 113 123 103 113 123 103 113 123 222 232 242 222 232 242 222 232 242 222 232 242 103 113 123 103 113 123 102 112 122 101 111 121 101 111 121 100 110 120 100 110 120 100 110 120 99 109 119 99 109 119 98 108 118 98 108 118 97 107 117 97 107 117 96 106 116 96 106 116 95 105 115 95 105 115 95 105 115 95 105 115 96 106 116 96 106 116 96 106 116 96 106 116 96 106 116 96 106 116 96 106 116 95 105 115 95 105 115 94 104 114 94 104 114 93 103 113 93 103 113 93 103 113 93 103 113 93 103 113 92 102 112 92 102 112 92 102 112 91 101 111 91 101 111 91 101 111 91 101 111 92 102 112 92 102 112 93 103 113 93 103 113 94 104 114 95 105 115 95 105 115 95 105 115 95 105 115 95 105 115 95 105 115 95 105 115 95 105 115 95 105 115 96 106 116 96 106 116 96 106 116 96 106 116 96 106 116 97 107 117 97 107 117 97 107 117 97 107 117 97 107 117 97 107 117 97 107 117 98 108 118 99 109 119 100 110 120 100 110 120 101 111 121 101 111 121 102 112 122 102 112 122 102 112 122 101 111 121 101 111 121 101 111 121 101 111 121 101 111 121 101 111 121 101 111 121 101 111 121 101 111 121 100 110 120 100 110 120 100 110 120 100 110 120 99 109 119 99 109 119 99 109 119 100 110 120 100 110 120 101 111 121 101 111 121 101 111 121 102 112 122 102 112 122 102 112 122 101 111 121 101 111 121 101 111 121 100 110 120 100 110 120 100 110 120 100 110 120 99 109 119 99 109 119 99 109 119 99 109 119 99 109 119 98 108 118 98 108 118 97 107 117 97 107 117 97 107 117 97 107 117 98 108 118 98 108 118 99 109 119 99 109 119 100 110 120 100 110 120 100 110 120 100 110 120 99 109 119 99 109 119 99 109 119 98 108 118 98 108 118 98 108 118 98 108 118 98 108 118 98 108 118 98 108 118 98 108 118 98 108 118 97 107 117 97 107 117 97 107 117 97 107 117 98 108 118 98 108 118 99 109 119 100 110 120 101 111 121 101 111 121 102 112 122 102 112 122 102 112 122 102 112 122 102 112 122 102 112 122 102 112 122 103 113 123 103 113 123 103 113 123 103 113 123 103 113 123 100 110 120 99 109 119 99 109 119 99 109 119 99 109 119 98 108 118 98 108 118 98 108 118 98 108 118 98 108 118 98 108 118 98 108 118 98 108 118 99 109 119 99 109 119 99 109 119 99 109 119 99 109 119 99 109 119 99 109 119 99 109 119 99 109 119 98 108 118 98 108 118 98 108 118 98 108 118 98 108 118 98 108 118 97 107 117 97 107 117 97 107 117 97 107 117 97 107 117 97 107 117 97 107 117 97 107 117 98 108 118 98 108 118 99 109 119 100 110 120 100 110 120 101 111 121 101 111 121 102 112 122 102 112 122 102 112 122 102 112 122 102 112 122 102 112 122 102 112 122 103 113 123 103 113 123 103 113 123 103 113 123 103 113 123 222 232 242 222 232 242 222 232 242 222 232 242 222 232 242 223 233 243 224 234 244 225 235 245 226 236 246 227 237 247 228 238 248 228 238 248 229 239 249 229 239 249 229 239 249 229 239 249 228 238 248 228 238 248 227 237 247 227 237 247 226 236 246 226 236 246 225 235 245 225 235 245 224 234 244 223 233 243 223 233 243 222 232 242 103 113 123 103 113 123 103 113 123 103 113 123 103 113 123 103 113 123 103 113 123 103 113 123 103 113 123 103 113 123 103 113 123 103 113 123 102 112 122 102 112 122 101 111 121 101 111 121 100 110 120 100 110 120 100 110 120 99 109 119 99 109 119 98 108 118 98 108 118 97 107 117 97 107 117 96 106 116 96 106 116 96 106 116 96 106 116 96 106 116 96 106 116 96 106 116 96 106 116 96 106 116 96 106 116 96 106 116 96 106 116 96 106 116 95 105 115 95 105 115 94 104 114 94 104 114 94 104 114 93 103 113 93 103 113 93 103 113 92 102 112 92 102 112 92 102 112 92 102 112 91 101 111 91 101 111 91 101 111 91 101 111 92 102 112 92 102 112 93 103 113 93 103 113 94 104 114 94 104 114 95 105 115 95 105 115 95 105 115 95 105 115 95 105 115 96 106 116 96 106 116 96 106 116 96 106 116 96 106 116 96 106 116 97 107 117 97 107 117 97 107 117 97 107 117 97 107 117 97 107 117 97 107 117 98 108 118 98 108 118 99 109 119 100 110 120 100 110 120 101 111 121 101 111 121 102 112 122 102 112 122 102 112 122 102 112 122 102 112 122 102 112 122 102 112 122 102 112 122 101 111 121 101 111 121 101 111 121 101 111 121 101 111 121 101 111 121 100 110 120 100 110 120 100 110 120 100 110 120 100 110 120 100 110 120 100 110 120 100 110 120 100 110 120 101 111 121 101 111 121 101 111 121 101 111 121 101 111 121 101 111 121 101 111 121 101 111 121 100 110 120 100 110 120 100 110 120 100 110 120 99 109 119 99 109 119 99 109 119 99 109 119 98 108 118 98 108 118 98 108 118 98 108 118 98 108 118 98 108 118 98 108 118 98 108 118 98 108 118 99 109 119 99 109 119 99 109 119 99 109 119 99 109 119 99 109 119 99 109 119 99 109 119 99 109 119 98 108 118 98 108 118 98 108 118 98 108 118 98 108 118 98 108 118 97 107 117 97 107 117 97 107 117 97 107 117 97 107 117 97 107 117 97 107 117 97 107 117 98 108 118 99 109 119 99 109 119 100 110 120 101 111 121 101 111 121 101 111 121 102 112 122 102 112 122 102 112 122 102 112 122 102 112 122 102 112 122 103 113 123 103 113 123 103 113 123 103 113 123 100 110 120 99 109 119 99 109 119 99 109 119 99 109 119 98 108 118 98 108 118 98 108 118 98 108 118 98 108 118 98 108 118 98 108 118 98 108 118 99 109 119 99 109 119 99 109 119 99 109 119 99 109 119 99 109 119 99 109 119 99 109 119 99 109 119 98 108 118 98 108 118 98 108 118 98 108 118 97 107 117 97 107 117 97 107 117 97 107 117 97 107 117 97 107 117 97 107 117 97 107 117 97 107 117 97 107 117 97 107 117 98 108 118 98 108 118 99 109 119 99 109 119 100 110 120 100 110 120 101 111 121 101 111 121 101 111 121 102 112 122 102 112 122 102 112 122 102 112 122 102 112 122 103 113 123 103 113 123 103 113 123 103 113 123 103 113 123 222 232 242 222 232 242 223 233 243 223 233 243 224 234 244 225 235 245 225 235 245 226 236 246 227 237 247 227 237 247 228 238 248 228 238 248 229 239 249 229 239 249 229 239 249 228 238 248 228 238 248 228 238 248 227 237 247 226 236 246 226 236 246 225 235 245 224 234 244 224 234 244 223 233 243 222 232 242 222 232 242 103 113 123 103 113 123 103 113 123 103 113 123 103 113 123 103 113 123 103 113 123 103 113 123 103 113 123 103 113 123 103 113 123 102 112 122 102 112 122 102 112 122 101 111 121 101 111 121 101 111 121 100 110 120 100 110 120 99 109 119 99 109 119 98 108 118 98 108 118 98 108 118 97 107 117 97 107 117 97 107 117 96 106 116 96 106 116 96 106 116 96 106 116 96 106 116 96 106 116 96 106 116 96 106 116 96 106 116 96 106 116 96 106 116 95 105 115 95 105 115 95 105 115 94 104 114 94 104 114 93 103 113 93 103 113 93 103 113 92 102 112 92 102 112 92 102 112 92 102 112 91 101 111 91 101 111 91 101 111 92 102 112 92 102 112 92 102 112 93 103 113 93 103 113 93 103 113 94 104 114 94 104 114 95 105 115 95 105 115 95 105 115 96 106 116 96 106 116 96 106 116 96 106 116 96 106 116 96 106 116 97 107 117 97 107 117 97 107 117 97 107 117 97 107 117 98 108 118 98 108 118 98 108 118 99 109 119 99 109 119 100 110 120 100 110 120 101 111 121 101 111 121 102 112 122 102 112 122 102 112 122 102 112 122 102 112 122 102 112 122 102 112 122 102 112 122 102 112 122 102 112 122 102 112 122 101 111 121 101 111 121 101 111 121 101 111 121 100 110 120 100 110 120 100 110 120 100 110 120 100 110 120 100 110 120 100 110 120 100 110 120 100 110 120 101 111 121 101 111 121 101 111 121 101 111 121 101 111 121 101 111 121 101 111 121 101 111 121 100 110 120 100 110 120 100 110 120 100 110 120 99 109 119 99 109 119 99 109 119 99 109 119 98 108 118 98 108 118 98 108 118 98 108 118 98 108 118 98 108 118 98 108 118 98 108 118 99 109 119 99 109 119 99 109 119 99 109 119 99 109 119 99 109 119 99 109 119 99 109 119 99 109 119 98 108 118 98 108 118 98 108 118 98 108 118 97 107 117 97 107 117 97 107 117 97 107 117 97 107 117 97 107 117 97 107 117 97 107 117 97 107 117 97 107 117 97 107 117 98 108 118 98 108 118 99 109 119 99 109 119 100 110 120 100 110 120 100 110 120 101 111 121 101 111 121 101 111 121 102 112 122 102 112 122 102 112 122 102 112 122 103 113 123 103 113 123 103 113 123 100 110 120 99 109 119 99 109 119 99 109 119 99 109 119 98 108 118 98 108 118 98 108 118 99 109 119 99 109 119 99 109 119 99 109 119 99 109 119 99 109 119 99 109 119 99 109 119 99 109 119 99 109 119 99 109 119 99 109 119 99 109 119 98 108 118 98 108 118 98 108 118 98 108 118 97 107 117 97 107 117 97 107 117 96 106 116 96 106 116 96 106 116 96 106 116 96 106 116 96 106 116 97 107 117 97 107 117 97 107 117 97 107 117 98 108 118 98 108 118 99 109 119 99 109 119 99 109 119 100 110 120 100 110 120 101 111 121 101 111 121 102 112 122 102 112 122 102 112 122 102 112 122 102 112 122 102 112 122 103 113 123 103 113 123 103 113 123 222 232 242 222 232 242 223 233 243 224 234 244 225 235 245 225 235 245 226 236 246 226 236 246 227 237 247 227 237 247 228 238 248 228 238 248 228 238 248 228 238 248 228 238 248 228 238 248 228 238 248 228 238 248 227 237 247 227 237 247 226 236 246 225 235 245 224 234 244 223 233 243 223 233 243 222 232 242 222 232 242 103 113 123 103 113 123 103 113 123 103 113 123 103 113 123 103 113 123 102 112 122 102 112 122 102 112 122 102 112 122 102 112 122 102 112 122 102 112 122 102 112 122 101 111 121 101 111 121 101 111 121 100 110 120 100 110 120 99 109 119 99 109 119 98 108 118 98 108 118 98 108 118 97 107 117 97 107 117 97 107 117 97 107 117 97 107 117 97 107 117 97 107 117 96 106 116 96 106 116 96 106 116 96 106 116 96 106 116 96 106 116 96 106 116 95 105 115 95 105 115 95 105 115 94 104 114 94 104 114 93 103 113 93 103 113 92 102 112 92 102 112 92 102 112 92 102 112 92 102 112 92 102 112 92 102 112 92 102 112 92 102 112 92 102 112 92 102 112 93 103 113 93 103 113 93 103 113 93 103 113 94 104 114 94 104 114 95 105 115 95 105 115 96 106 116 96 106 116 96 106 116 96 106 116 97 107 117 97 107 117 97 107 117 97 107 117 97 107 117 98 108 118 98 108 118 98 108 118 99 109 119 99 109 119 100 110 120 100 110 120 101 111 121 101 111 121 101 111 121 102 112 122 102 112 122 102 112 122 102 112 122 103 113 123 103 113 123 103 113 123 103 113 123 103 113 123 103 113 123 102 112 122 102 112 122 102 112 122 101 111 121 101 111 121 101 111 121 101 111 121 100 110 120 100 110 120 100 110 120 100 110 120 100 110 120 100 110 120 100 110 120 100 110 120 100 110 120 100 110 120 100 110 120 100 110 120 100 110 120 101 111 121 101 111 121 101 111 121 100 110 120 100 110 120 100 110 120 100 110 120 99 109 119 99 109 119 99 109 119 99 109 119 98 108 118 98 108 118 98 108 118 98 108 118 99 109 119 99 109 119 99 109 119 99 109 119 99 109 119 99 109 119 99 109 119 99 109 119 99 109 119 99 109 119 99 109 119 99 109 119 98 108 118 98 108 118 98 108 118 98 108 118 97 107 117 97 107 117 97 107 117 96 106 116 96 106 116 96 106 116 96 106 116 96 106 116 96 106 116 97 107 117 97 107 117 97 107 117 97 107 117 98 108 118 98 108 118 98 108 118 99 109 119 99 109 119 100 110 120 100 110 120 100 110 120 101 111 121 101 111 121 102 112 122 102 112 122 102 112 122 102 112 122 102 112 122 103 113 123 100 110 120 99 109 119 99 109 119 99 109 119 99 109 119 99 109 119 99 109 119 99 109 119 99 109 119 99 109 119 99 109 119 99 109 119 99 109 119 99 109 119 98 108 118 98 108 118 98 108 118 98 108 118 98 108 118 98 108 118 98 108 118 98 108 118 98 108 118 98 108 118 97 107 117 97 107 117 96 106 116 96 106 116 96 106 116 96 106 116 96 106 116 96 106 116 96 106 116 96 106 116 97 107 117 97 107 117 97 107 117 97 107 117 97 107 117 97 107 117 98 108 118 98 108 118 98 108 118 99 109 119 100 110 120 100 110 120 101 111 121 101 111 121 102 112 122 102 112 122 102 112 122 102 112 122 102 112 122 102 112 122 103 113 123 103 113 123 222 232 242 223 233 243 224 234 244 225 235 245 225 235 245 226 236 246 226 236 246 227 237 247 227 237 247 227 237 247 227 237 247 227 237 247 228 238 248 228 238 248 228 238 248 228 238 248 228 238 248 228 238 248 227 237 247 227 237 247 226 236 246 225 235 245 224 234 244 223 233 243 222 232 242 222 232 242 222 232 242 222 232 242 103 113 123 103 113 123 103 113 123 103 113 123 103 113 123 102 112 122 102 112 122 102 112 122 101 111 121 101 111 121 101 111 121 101 111 121 101 111 121 101 111 121 101 111 121 101 111 121 100 110 120 100 110 120 99 109 119 99 109 119 98 108 118 98 108 118 98 108 118 98 108 118 98 108 118 98 108 118 98 108 118 98 108 118 97 107 117 97 107 117 97 107 117 96 106 116 96 106 116 96 106 116 96 106 116 96 106 116 95 105 115 95 105 115 95 105 115 95 105 115 95 105 115 94 104 114 94 104 114 93 103 113 92 102 112 92 102 112 92 102 112 92 102 112 92 102 112 92 102 112 92 102 112 92 102 112 92 102 112 92 102 112 92 102 112 93 103 113 93 103 113 93 103 113 93 103 113 93 103 113 94 104 114 94 104 114 95 105 115 96 106 116 96 106 116 96 106 116 97 107 117 97 107 117 97 107 117 97 107 117 97 107 117 98 108 118 98 108 118 98 108 118 99 109 119 100 110 120 100 110 120 101 111 121 101 111 121 101 111 121 102 112 122 102 112 122 102 112 122 102 112 122 102 112 122 103 113 123 103 113 123 103 113 123 103 113 123 103 113 123 103 113 123 103 113 123 103 113 123 102 112 122 102 112 122 102 112 122 101 111 121 101 111 121 101 111 121 101 111 121 101 111 121 101 111 121 101 111 121 101 111 121 101 111 121 101 111 121 100 110 120 100 110 120 100 110 120 100 110 120 100 110 120 100 110 120 100 110 120 100 110 120 100 110 120 100 110 120 100 110 120 100 110 120 100 110 120 99 109 119 99 109 119 99 109 119 99 109 119 99 109 119 99 109 119 99 109 119 99 109 119 99 109 119 99 109 119 99 109 119 99 109 119 99 109 119 99 109 119 98 108 118 98 108 118 98 108 118 98 108 118 98 108 118 98 108 118 98 108 118 98 108 118 98 108 118 98 108 118 97 107 117 97 107 117 96 106 116 96 106 116 96 106 116 96 106 116 96 106 116 96 106 116 96 106 116 96 106 116 97 107 117 97 107 117 97 107 117 97 107 117 97 107 117 97 107 117 98 108 118 98 108 118 99 109 119 99 109 119 100 110 120 100 110 120 101 111 121 101 111 121 102 112 122 102 112 122 102 112 122 102 112 122 102 112 122 100 110 120 99 109 119 99 109 119 99 109 119 99 109 119 99 109 119 99 109 119 99 109 119 99 109 119 100 110 120 99 109 119 99 109 119 99 109 119 99 109 119 98 108 118 98 108 118 98 108 118 98 108 118 98 108 118 98 108 118 98 108 118 98 108 118 98 108 118 98 108 118 97 107 117 97 107 117 96 106 116 96 106 116 95 105 115 95 105 115 95 105 115 95 105 115 96 106 116 96 106 116 96 106 116 97 107 117 97 107 117 97 107 117 97 107 117 97 107 117 97 107 117 97 107 117 98 108 118 98 108 118 99 109 119 99 109 119 100 110 120 101 111 121 101 111 121 101 111 121 102 112 122 102 112 122 102 112 122 102 112 122 103 113 123 103 113 123 222 232 242 223 233 243 224 234 244 225 235 245 226 236 246 227 237 247 227 237 247 227 237 247 227 237 247 227 237 247 227 237 247 227 237 247 227 237 247 228 238 248 228 238 248 228 238 248 228 238 248 228 238 248 227 237 247 226 236 246 225 235 245 224 234 244 223 233 243 223 233 243 222 232 242 222 232 242 222 232 242 222 232 242 222 232 242 103 113 123 103 113 123 103 113 123 102 112 122 102 112 122 101 111 121 101 111 121 101 111 121 101 111 121 101 111 121 101 111 121 101 111 121 101 111 121 101 111 121 101 111 121 100 110 120 100 110 120 99 109 119 99 109 119 98 108 118 98 108 118 98 108 118 98 108 118 98 108 118 98 108 118 98 108 118 98 108 118 98 108 118 97 107 117 97 107 117 96 106 116 96 106 116 96 106 116 95 105 115 95 105 115 95 105 115 95 105 115 95 105 115 95 105 115 95 105 115 94 104 114 94 104 114 93 103 113 92 102 112 92 102 112 92 102 112 92 102 112 92 102 112 92 102 112 92 102 112 92 102 112 93 103 113 93 103 113 93 103 113 92 102 112 92 102 112 92 102 112 93 103 113 93 103 113 94 104 114 94 104 114 95 105 115 95 105 115 96 106 116 97 107 117 97 107 117 97 107 117 97 107 117 97 107 117 98 108 118 98 108 118 98 108 118 99 109 119 100 110 120 100 110 120 101 111 121 102 112 122 102 112 122 102 112 122 102 112 122 102 112 122 102 112 122 102 112 122 103 113 123 103 113 123 103 113 123 103 113 123 222 232 242 222 232 242 222 232 242 222 232 242 103 113 123 103 113 123 102 112 122 102 112 122 101 111 121 101 111 121 101 111 121 101 111 121 101 111 121 101 111 121 101 111 121 101 111 121 101 111 121 101 111 121 100 110 120 100 110 120 100 110 120 100 110 120 100 110 120 100 110 120 100 110 120 100 110 120 100 110 120 100 110 120 100 110 120 100 110 120 100 110 120 99 109 119 99 109 119 99 109 119 99 109 119 99 109 119 99 109 119 99 109 119 99 109 119 99 109 119 100 110 120 99 109 119 99 109 119 99 109 119 98 108 118 98 108 118 98 108 118 98 108 118 98 108 118 98 108 118 98 108 118 98 108 118 98 108 118 98 108 118 97 107 117 97 107 117 96 106 116 96 106 116 96 106 116 95 105 115 95 105 115 95 105 115 96 106 116 96 106 116 96 106 116 96 106 116 97 107 117 97 107 117 97 107 117 97 107 117 97 107 117 97 107 117 97 107 117 98 108 118 98 108 118 99 109 119 100 110 120 100 110 120 101 111 121 101 111 121 102 112 122 102 112 122 102 112 122 102 112 122 100 110 120 99 109 119 99 109 119 99 109 119 99 109 119 99 109 119 99 109 119 100 110 120 100 110 120 100 110 120 100 110 120 99 109 119 99 109 119 99 109 119 98 108 118 98 108 118 97 107 117 97 107 117 97 107 117 97 107 117 98 108 118 98 108 118 97 107 117 97 107 117 97 107 117 96 106 116 96 106 116 95 105 115 95 105 115 95 105 115 95 105 115 95 105 115 96 106 116 96 106 116 96 106 116 96 106 116 96 106 116 96 106 116 96 106 116 96 106 116 96 106 116 96 106 116 97 107 117 97 107 117 98 108 118 99 109 119 100 110 120 100 110 120 101 111 121 101 111 121 101 111 121 102 112 122 102 112 122 102 112 122 103 113 123 103 113 123 222 232 242 223 233 243 225 235 245 226 236 246 227 237 247 227 237 247 227 237 247 227 237 247 227 237 247 226 236 246 226 236 246 226 236 246 227 237 247 227 237 247 227 237 247 228 238 248 228 238 248 228 238 248 227 237 247 226 236 246 225 235 245 224 234 244 223 233 243 223 233 243 222 232 242 222 232 242 222 232 242 222 232 242 222 232 242 222 232 242 103 113 123 103 113 123 102 112 122 102 112 122 101 111 121 101 111 121 100 110 120 100 110 120 100 110 120 100 110 120 101 111 121 101 111 121 101 111 121 100 110 120 100 110 120 100 110 120 99 109 119 99 109 119 99 109 119 98 108 118 98 108 118 99 109 119 99 109 119 99 109 119 99 109 119 99 109 119 98 108 118 98 108 118 97 107 117 97 107 117 96 106 116 96 106 116 95 105 115 95 105 115 95 105 115 95 105 115 95 105 115 95 105 115 95 105 115 94 104 114 94 104 114 93 103 113 93 103 113 92 102 112 92 102 112 92 102 112 92 102 112 92 102 112 92 102 112 93 103 113 93 103 113 93 103 113 93 103 113 92 102 112 92 102 112 92 102 112 92 102 112 93 103 113 93 103 113 94 104 114 95 105 115 95 105 115 96 106 116 97 107 117 97 107 117 97 107 117 98 108 118 98 108 118 98 108 118 98 108 118 99 109 119 100 110 120 100 110 120 101 111 121 102 112 122 102 112 122 103 113 123 103 113 123 103 113 123 103 113 123 103 113 123 103 113 123 103 113 123 103 113 123 103 113 123 222 232 242 222 232 242 222 232 242 222 232 242 222 232 242 103 113 123 103 113 123 103 113 123 102 112 122 102 112 122 102 112 122 101 111 121 101 111 121 102 112 122 102 112 122 102 112 122 101 111 121 101 111 121 101 111 121 100 110 120 100 110 120 99 109 119 99 109 119 99 109 119 99 109 119 100 110 120 100 110 120 100 110 120 100 110 120 100 110 120 100 110 120 100 110 120 99 109 119 99 109 119 99 109 119 99 109 119 99 109 119 99 109 119 99 109 119 100 110 120 100 110 120 100 110 120 100 110 120 99 109 119 99 109 119 98 108 118 98 108 118 98 108 118 97 107 117 97 107 117 97 107 117 97 107 117 98 108 118 98 108 118 97 107 117 97 107 117 97 107 117 96 106 116 96 106 116 95 105 115 95 105 115 95 105 115 95 105 115 95 105 115 96 106 116 96 106 116 96 106 116 96 106 116 96 106 116 96 106 116 96 106 116 96 106 116 96 106 116 96 106 116 97 107 117 98 108 118 98 108 118 99 109 119 100 110 120 100 110 120 101 111 121 101 111 121 101 111 121 102 112 122 102 112 122 100 110 120 99 109 119 99 109 119 99 109 119 99 109 119 99 109 119 100 110 120 100 110 120 100 110 120 100 110 120 100 110 120 100 110 120 99 109 119 99 109 119 98 108 118 98 108 118 97 107 117 97 107 117 97 107 117 97 107 117 97 107 117 97 107 117 97 107 117 97 107 117 96 106 116 96 106 116 96 106 116 95 105 115 95 105 115 95 105 115 95 105 115 95 105 115 95 105 115 96 106 116 96 106 116 96 106 116 96 106 116 96 106 116 96 106 116 96 106 116 96 106 116 96 106 116 96 106 116 97 107 117 97 107 117 98 108 118 99 109 119 100 110 120 100 110 120 101 111 121 101 111 121 101 111 121 102 112 122 102 112 122 103 113 123 103 113 123 222 232 242 224 234 244 225 235 245 226 236 246 227 237 247 227 237 247 227 237 247 227 237 247 227 237 247 226 236 246 226 236 246 226 236 246 226 236 246 227 237 247 227 237 247 227 237 247 227 237 247 227 237 247 227 237 247 226 236 246 225 235 245 224 234 244 223 233 243 223 233 243 222 232 242 222 232 242 222 232 242 222 232 242 222 232 242 103 113 123 103 113 123 103 113 123 102 112 122 101 111 121 101 111 121 100 110 120 100 110 120 100 110 120 100 110 120 100 110 120 100 110 120 100 110 120 100 110 120 100 110 120 100 110 120 100 110 120 99 109 119 99 109 119 99 109 119 99 109 119 99 109 119 99 109 119 99 109 119 99 109 119 99 109 119 99 109 119 99 109 119 98 108 118 97 107 117 97 107 117 96 106 116 96 106 116 95 105 115 95 105 115 95 105 115 95 105 115 95 105 115 95 105 115 95 105 115 94 104 114 94 104 114 93 103 113 93 103 113 92 102 112 92 102 112 92 102 112 92 102 112 92 102 112 93 103 113 93 103 113 93 103 113 93 103 113 93 103 113 93 103 113 92 102 112 92 102 112 92 102 112 93 103 113 93 103 113 94 104 114 94 104 114 95 105 115 96 106 116 97 107 117 97 107 117 97 107 117 98 108 118 98 108 118 99 109 119 99 109 119 100 110 120 100 110 120 101 111 121 102 112 122 103 113 123 103 113 123 103 113 123 103 113 123 103 113 123 103 113 123 103 113 123 103 113 123 103 113 123 103 113 123 103 113 123 222 232 242 222 232 242 223 233 243 223 233 243 222 232 242 222 232 242 103 113 123 103 113 123 102 112 122 102 112 122 102 112 122 102 112 122 102 112 122 102 112 122 102 112 122 102 112 122 102 112 122 101 111 121 101 111 121 100 110 120 100 110 120 99 109 119 99 109 119 99 109 119 99 109 119 99 109 119 99 109 119 100 110 120 100 110 120 100 110 120 100 110 120 100 110 120 99 109 119 99 109 119 99 109 119 99 109 119 99 109 119 99 109 119 100 110 120 100 110 120 100 110 120 100 110 120 100 110 120 99 109 119 99 109 119 98 108 118 98 108 118 97 107 117 97 107 117 97 107 117 97 107 117 97 107 117 97 107 117 97 107 117 97 107 117 97 107 117 96 106 116 96 106 116 95 105 115 95 105 115 95 105 115 95 105 115 95 105 115 95 105 115 95 105 115 96 106 116 96 106 116 96 106 116 96 106 116 96 106 116 96 106 116 96 106 116 96 106 116 96 106 116 96 106 116 97 107 117 98 108 118 98 108 118 99 109 119 100 110 120 100 110 120 101 111 121 101 111 121 101 111 121 102 112 122 100 110 120 99 109 119 99 109 119 99 109 119 100 110 120 100 110 120 100 110 120 100 110 120 100 110 120 100 110 120 100 110 120 100 110 120 99 109 119 99 109 119 98 108 118 98 108 118 97 107 117 97 107 117 97 107 117 97 107 117 97 107 117 97 107 117 96 106 116 96 106 116 96 106 116 96 106 116 95 105 115 95 105 115 95 105 115 95 105 115 95 105 115 95 105 115 95 105 115 95 105 115 95 105 115 95 105 115 95 105 115 95 105 115 95 105 115 95 105 115 95 105 115 95 105 115 96 106 116 96 106 116 97 107 117 97 107 117 98 108 118 99 109 119 99 109 119 100 110 120 101 111 121 101 111 121 102 112 122 102 112 122 103 113 123 222 232 242 223 233 243 224 234 244 225 235 245 226 236 246 227 237 247 227 237 247 227 237 247 227 237 247 227 237 247 226 236 246 226 236 246 226 236 246 226 236 246 226 236 246 226 236 246 227 237 247 227 237 247 226 236 246 226 236 246 226 236 246 225 235 245 224 234 244 224 234 244 223 233 243 223 233 243 223 233 243 222 232 242 222 232 242 222 232 242 103 113 123 103 113 123 102 112 122 102 112 122 101 111 121 101 111 121 100 110 120 100 110 120 100 110 120 100 110 120 100 110 120 100 110 120 100 110 120 100 110 120 100 110 120 100 110 120 100 110 120 99 109 119 99 109 119 99 109 119 99 109 119 99 109 119 99 109 119 99 109 119 99 109 119 99 109 119 99 109 119 99 109 119 98 108 118 98 108 118 97 107 117 96 106 116 96 106 116 96 106 116 95 105 115 95 105 115 95 105 115 95 105 115 95 105 115 94 104 114 94 104 114 94 104 114 93 103 113 93 103 113 93 103 113 93 103 113 93 103 113 93 103 113 93 103 113 93 103 113 93 103 113 93 103 113 93 103 113 93 103 113 93 103 113 92 102 112 92 102 112 92 102 112 93 103 113 93 103 113 94 104 114 94 104 114 95 105 115 96 106 116 96 106 116 97 107 117 98 108 118 98 108 118 99 109 119 99 109 119 100 110 120 100 110 120 101 111 121 102 112 122 103 113 123 103 113 123 222 232 242 222 232 242 222 232 242 222 232 242 222 232 242 222 232 242 222 232 242 222 232 242 222 232 242 222 232 242 222 232 242 222 232 242 223 233 243 223 233 243 222 232 242 222 232 242 222 232 242 103 113 123 103 113 123 103 113 123 103 113 123 102 112 122 102 112 122 102 112 122 102 112 122 102 112 122 102 112 122 101 111 121 101 111 121 100 110 120 100 110 120 99 109 119 99 109 119 99 109 119 99 109 119 99 109 119 99 109 119 99 109 119 99 109 119 100 110 120 100 110 120 100 110 120 99 109 119 99 109 119 99 109 119 100 110 120 100 110 120 100 110 120 100 110 120 100 110 120 100 110 120 100 110 120 100 110 120 99 109 119 99 109 119 98 108 118 98 108 118 97 107 117 97 107 117 97 107 117 97 107 117 97 107 117 97 107 117 97 107 117 96 106 116 96 106 116 96 106 116 96 106 116 95 105 115 95 105 115 95 105 115 95 105 115 95 105 115 95 105 115 95 105 115 95 105 115 95 105 115 95 105 115 95 105 115 95 105 115 95 105 115 95 105 115 95 105 115 95 105 115 96 106 116 96 106 116 97 107 117 98 108 118 98 108 118 99 109 119 100 110 120 100 110 120 101 111 121 101 111 121 102 112 122 100 110 120 100 110 120 100 110 120 100 110 120 100 110 120 100 110 120 100 110 120 100 110 120 100 110 120 100 110 120 100 110 120 99 109 119 99 109 119 99 109 119 98 108 118 98 108 118 97 107 117 97 107 117 97 107 117 96 106 116 96 106 116 96 106 116 96 106 116 96 106 116 95 105 115 95 105 115 95 105 115 95 105 115 95 105 115 95 105 115 95 105 115 95 105 115 95 105 115 95 105 115 95 105 115 95 105 115 95 105 115 95 105 115 95 105 115 95 105 115 95 105 115 95 105 115 95 105 115 96 106 116 96 106 116 97 107 117 97 107 117 98 108 118 99 109 119 99 109 119 100 110 120 101 111 121 102 112 122 102 112 122 103 113 123 222 232 242 223 233 243 224 234 244 225 235 245 226 236 246 226 236 246 227 237 247 227 237 247 227 237 247 227 237 247 226 236 246 226 236 246 226 236 246 226 236 246 226 236 246 226 236 246 226 236 246 226 236 246 226 236 246 225 235 245 225 235 245 225 235 245 224 234 244 224 234 244 224 234 244 223 233 243 223 233 243 222 232 242 222 232 242 103 113 123 103 113 123 103 113 123 102 112 122 102 112 122 101 111 121 101 111 121 100 110 120 100 110 120 99 109 119 99 109 119 99 109 119 99 109 119 99 109 119 99 109 119 99 109 119 99 109 119 99 109 119 100 110 120 100 110 120 100 110 120 100 110 120 100 110 120 100 110 120 100 110 120 100 110 120 99 109 119 99 109 119 99 109 119 98 108 118 98 108 118 97 107 117 97 107 117 96 106 116 96 106 116 95 105 115 95 105 115 95 105 115 95 105 115 94 104 114 94 104 114 94 104 114 94 104 114 94 104 114 93 103 113 93 103 113 93 103 113 93 103 113 93 103 113 93 103 113 93 103 113 93 103 113 93 103 113 93 103 113 93 103 113 93 103 113 93 103 113 93 103 113 93 103 113 93 103 113 93 103 113 94 104 114 94 104 114 95 105 115 95 105 115 96 106 116 97 107 117 98 108 118 98 108 118 99 109 119 100 110 120 101 111 121 101 111 121 102 112 122 103 113 123 103 113 123 222 232 242 222 232 242 223 233 243 223 233 243 223 233 243 223 233 243 223 233 243 223 233 243 223 233 243 222 232 242 222 232 242 222 232 242 222 232 242 222 232 242 222 232 242 222 232 242 222 232 242 222 232 242 222 232 242 103 113 123 103 113 123 103 113 123 103 113 123 103 113 123 103 113 123 102 112 122 102 112 122 102 112 122 101 111 121 101 111 121 100 110 120 100 110 120 99 109 119 99 109 119 99 109 119 99 109 119 99 109 119 99 109 119 99 109 119 99 109 119 99 109 119 99 109 119 99 109 119 100 110 120 100 110 120 100 110 120 100 110 120 100 110 120 100 110 120 100 110 120 100 110 120 100 110 120 100 110 120 100 110 120 99 109 119 99 109 119 98 108 118 98 108 118 98 108 118 97 107 117 97 107 117 97 107 117 96 106 116 96 106 116 96 106 116 96 106 116 96 106 116 95 105 115 95 105 115 95 105 115 95 105 115 95 105 115 95 105 115 95 105 115 95 105 115 95 105 115 95 105 115 95 105 115 95 105 115 95 105 115 95 105 115 95 105 115 95 105 115 95 105 115 95 105 115 95 105 115 96 106 116 96 106 116 97 107 117 98 108 118 98 108 118 99 109 119 100 110 120 100 110 120 101 111 121 102 112 122 100 110 120 100 110 120 100 110 120 100 110 120 100 110 120 101 111 121 100 110 120 100 110 120 100 110 120 100 110 120 100 110 120 99 109 119 99 109 119 99 109 119 98 108 118 98 108 118 97 107 117 97 107 117 96 106 116 96 106 116 96 106 116 95 105 115 95 105 115 95 105 115 95 105 115 95 105 115 95 105 115 95 105 115 95 105 115 95 105 115 95 105 115 95 105 115 95 105 115 95 105 115 94 104 114 94 104 114 94 104 114 94 104 114 94 104 114 94 104 114 94 104 114 95 105 115 95 105 115 95 105 115 96 106 116 96 106 116 97 107 117 97 107 117 98 108 118 99 109 119 100 110 120 101 111 121 102 112 122 102 112 122 103 113 123 222 232 242 223 233 243 224 234 244 225 235 245 225 235 245 226 236 246 226 236 246 226 236 246 226 236 246 226 236 246 226 236 246 226 236 246 226 236 246 226 236 246 225 235 245 225 235 245 225 235 245 225 235 245 225 235 245 225 235 245 225 235 245 224 234 244 224 234 244 224 234 244 224 234 244 224 234 244 223 233 243 223 233 243 222 232 242 103 113 123 103 113 123 102 112 122 102 112 122 101 111 121 101 111 121 100 110 120 100 110 120 100 110 120 99 109 119 99 109 119 99 109 119 99 109 119 99 109 119 99 109 119 99 109 119 99 109 119 99 109 119 100 110 120 100 110 120 100 110 120 100 110 120 100 110 120 100 110 120 100 110 120 100 110 120 100 110 120 99 109 119 99 109 119 98 108 118 98 108 118 98 108 118 97 107 117 97 107 117 96 106 116 96 106 116 95 105 115 95 105 115 94 104 114 94 104 114 94 104 114 94 104 114 94 104 114 94 104 114 94 104 114 94 104 114 94 104 114 94 104 114 94 104 114 93 103 113 93 103 113 93 103 113 93 103 113 93 103 113 93 103 113 93 103 113 93 103 113 93 103 113 93 103 113 93 103 113 93 103 113 94 104 114 94 104 114 95 105 115 95 105 115 96 106 116 97 107 117 98 108 118 99 109 119 100 110 120 100 110 120 101 111 121 102 112 122 103 113 123 103 113 123 222 232 242 222 232 242 223 233 243 223 233 243 223 233 243 224 234 244 224 234 244 224 234 244 224 234 244 223 233 243 223 233 243 223 233 243 223 233 243 222 232 242 222 232 242 222 232 242 222 232 242 222 232 242 222 232 242 222 232 242 222 232 242 222 232 242 222 232 242 222 232 242 103 113 123 103 113 123 102 112 122 102 112 122 102 112 122 101 111 121 101 111 121 100 110 120 100 110 120 100 110 120 99 109 119 99 109 119 99 109 119 99 109 119 99 109 119 98 108 118 99 109 119 99 109 119 99 109 119 99 109 119 100 110 120 100 110 120 100 110 120 100 110 120 100 110 120 101 111 121 100 110 120 100 110 120 100 110 120 100 110 120 100 110 120 99 109 119 99 109 119 98 108 118 98 108 118 98 108 118 97 107 117 97 107 117 96 106 116 96 106 116 96 106 116 95 105 115 95 105 115 95 105 115 95 105 115 95 105 115 95 105 115 95 105 115 95 105 115 95 105 115 95 105 115 95 105 115 95 105 115 95 105 115 94 104 114 94 104 114 94 104 114 94 104 114 94 104 114 94 104 114 95 105 115 95 105 115 95 105 115 95 105 115 96 106 116 96 106 116 97 107 117 97 107 117 98 108 118 99 109 119 100 110 120 101 111 121 102 112 122 100 110 120 100 110 120 100 110 120 101 111 121 101 111 121 101 111 121 101 111 121 100 110 120 100 110 120 100 110 120 99 109 119 99 109 119 99 109 119 99 109 119 98 108 118 98 108 118 97 107 117 97 107 117 96 106 116 96 106 116 95 105 115 95 105 115 95 105 115 95 105 115 95 105 115 95 105 115 95 105 115 95 105 115 95 105 115 95 105 115 95 105 115 95 105 115 95 105 115 94 104 114 94 104 114 94 104 114 94 104 114 94 104 114 94 104 114 94 104 114 94 104 114 94 104 114 95 105 115 95 105 115 95 105 115 95 105 115 96 106 116 97 107 117 97 107 117 98 108 118 99 109 119 100 110 120 102 112 122 103 113 123 103 113 123 223 233 243 223 233 243 224 234 244 225 235 245 225 235 245 225 235 245 226 236 246 226 236 246 226 236 246 226 236 246 226 236 246 226 236 246 226 236 246 226 236 246 225 235 245 225 235 245 224 234 244 224 234 244 224 234 244 224 234 244 224 234 244 224 234 244 224 234 244 225 235 245 224 234 244 224 234 244 223 233 243 223 233 243 222 232 242 103 113 123 102 112 122 102 112 122 101 111 121 101 111 121 101 111 121 100 110 120 100 110 120 100 110 120 99 109 119 99 109 119 99 109 119 98 108 118 98 108 118 98 108 118 99 109 119 99 109 119 99 109 119 100 110 120 100 110 120 100 110 120 101 111 121 101 111 121 101 111 121 100 110 120 100 110 120 100 110 120 99 109 119 99 109 119 98 108 118 98 108 118 98 108 118 97 107 117 97 107 117 96 106 116 96 106 116 95 105 115 95 105 115 94 104 114 94 104 114 94 104 114 94 104 114 94 104 114 94 104 114 94 104 114 94 104 114 94 104 114 94 104 114 94 104 114 94 104 114 93 103 113 93 103 113 93 103 113 93 103 113 93 103 113 93 103 113 93 103 113 93 103 113 93 103 113 93 103 113 94 104 114 94 104 114 94 104 114 95 105 115 95 105 115 96 106 116 97 107 117 98 108 118 99 109 119 100 110 120 101 111 121 102 112 122 103 113 123 103 113 123 222 232 242 222 232 242 223 233 243 223 233 243 223 233 243 224 234 244 224 234 244 224 234 244 224 234 244 224 234 244 224 234 244 224 234 244 223 233 243 223 233 243 223 233 243 222 232 242 222 232 242 222 232 242 222 232 242 223 233 243 223 233 243 223 233 243 223 233 243 223 233 243 222 232 242 222 232 242 103 113 123 103 113 123 102 112 122 102 112 122 101 111 121 101 111 121 100 110 120 100 110 120 100 110 120 99 109 119 99 109 119 99 109 119 99 109 119 98 108 118 98 108 118 98 108 118 98 108 118 99 109 119 99 109 119 100 110 120 100 110 120 100 110 120 101 111 121 101 111 121 101 111 121 101 111 121 100 110 120 100 110 120 100 110 120 99 109 119 99 109 119 99 109 119 98 108 118 98 108 118 98 108 118 97 107 117 97 107 117 96 106 116 96 106 116 95 105 115 95 105 115 95 105 115 95 105 115 95 105 115 95 105 115 95 105 115 95 105 115 95 105 115 95 105 115 95 105 115 95 105 115 94 104 114 94 104 114 94 104 114 94 104 114 94 104 114 94 104 114 94 104 114 94 104 114 94 104 114 95 105 115 95 105 115 95 105 115 95 105 115 96 106 116 96 106 116 97 107 117 98 108 118 99 109 119 100 110 120 101 111 121 102 112 122 100 110 120 100 110 120 101 111 121 101 111 121 101 111 121 101 111 121 101 111 121 100 110 120 100 110 120 100 110 120 99 109 119 99 109 119 99 109 119 98 108 118 98 108 118 98 108 118 97 107 117 97 107 117 96 106 116 95 105 115 95 105 115 94 104 114 94 104 114 94 104 114 94 104 114 94 104 114 95 105 115 95 105 115 95 105 115 95 105 115 95 105 115 95 105 115 94 104 114 94 104 114 94 104 114 93 103 113 93 103 113 93 103 113 94 104 114 94 104 114 94 104 114 94 104 114 94 104 114 95 105 115 95 105 115 95 105 115 95 105 115 96 106 116 97 107 117 98 108 118 99 109 119 100 110 120 101 111 121 102 112 122 103 113 123 222 232 242 223 233 243 224 234 244 224 234 244 224 234 244 225 235 245 225 235 245 225 235 245 226 236 246 226 236 246 226 236 246 226 236 246 226 236 246 225 235 245 225 235 245 224 234 244 223 233 243 223 233 243 223 233 243 223 233 243 223 233 243 224 234 244 224 234 244 225 235 245 225 235 245 224 234 244 223 233 243 223 233 243 103 113 123 103 113 123 102 112 122 102 112 122 101 111 121 101 111 121 101 111 121 100 110 120 100 110 120 100 110 120 99 109 119 99 109 119 98 108 118 98 108 118 98 108 118 98 108 118 98 108 118 99 109 119 99 109 119 100 110 120 100 110 120 101 111 121 101 111 121 101 111 121 101 111 121 100 110 120 100 110 120 100 110 120 99 109 119 99 109 119 99 109 119 98 108 118 98 108 118 98 108 118 97 107 117 97 107 117 96 106 116 95 105 115 95 105 115 94 104 114 94 104 114 94 104 114 94 104 114 94 104 114 94 104 114 94 104 114 95 105 115 95 105 115 95 105 115 94 104 114 94 104 114 94 104 114 93 103 113 93 103 113 93 103 113 93 103 113 93 103 113 93 103 113 93 103 113 94 104 114 94 104 114 94 104 114 94 104 114 94 104 114 95 105 115 95 105 115 96 106 116 97 107 117 98 108 118 99 109 119 100 110 120 101 111 121 102 112 122 103 113 123 222 232 242 223 233 243 223 233 243 223 233 243 224 234 244 224 234 244 224 234 244 225 235 245 225 235 245 225 235 245 225 235 245 225 235 245 225 235 245 224 234 244 223 233 243 223 233 243 222 232 242 222 232 242 222 232 242 222 232 242 223 233 243 223 233 243 224 234 244 224 234 244 224 234 244 223 233 243 222 232 242 103 113 123 103 113 123 102 112 122 102 112 122 101 111 121 101 111 121 100 110 120 100 110 120 100 110 120 100 110 120 99 109 119 99 109 119 98 108 118 98 108 118 98 108 118 98 108 118 98 108 118 99 109 119 99 109 119 100 110 120 100 110 120 101 111 121 101 111 121 101 111 121 101 111 121 101 111 121 100 110 120 100 110 120 99 109 119 99 109 119 99 109 119 99 109 119 98 108 118 98 108 118 98 108 118 97 107 117 97 107 117 96 106 116 95 105 115 95 105 115 94 104 114 94 104 114 94 104 114 94 104 114 95 105 115 95 105 115 95 105 115 95 105 115 95 105 115 95 105 115 95 105 115 94 104 114 94 104 114 94 104 114 93 103 113 93 103 113 93 103 113 94 104 114 94 104 114 94 104 114 94 104 114 94 104 114 95 105 115 95 105 115 95 105 115 96 106 116 96 106 116 97 107 117 98 108 118 99 109 119 101 111 121 102 112 122 100 110 120 100 110 120 101 111 121 101 111 121 101 111 121 101 111 121 101 111 121 100 110 120 100 110 120 99 109 119 99 109 119 99 109 119 99 109 119 98 108 118 98 108 118 98 108 118 97 107 117 97 107 117 96 106 116 95 105 115 95 105 115 94 104 114 94 104 114 94 104 114 94 104 114 94 104 114 95 105 115 95 105 115 95 105 115 95 105 115 95 105 115 95 105 115 94 104 114 94 104 114 93 103 113 93 103 113 93 103 113 93 103 113 93 103 113 94 104 114 94 104 114 94 104 114 94 104 114 94 104 114 94 104 114 95 105 115 95 105 115 96 106 116 96 106 116 97 107 117 99 109 119 100 110 120 101 111 121 102 112 122 103 113 123 222 232 242 223 233 243 223 233 243 224 234 244 224 234 244 224 234 244 225 235 245 225 235 245 225 235 245 226 236 246 226 236 246 226 236 246 226 236 246 225 235 245 224 234 244 224 234 244 223 233 243 223 233 243 222 232 242 223 233 243 223 233 243 224 234 244 224 234 244 224 234 244 224 234 244 224 234 244 223 233 243 222 232 242 103 113 123 103 113 123 102 112 122 101 111 121 101 111 121 101 111 121 101 111 121 100 110 120 100 110 120 100 110 120 99 109 119 99 109 119 98 108 118 98 108 118 98 108 118 98 108 118 98 108 118 99 109 119 99 109 119 100 110 120 100 110 120 101 111 121 101 111 121 101 111 121 101 111 121 100 110 120 100 110 120 100 110 120 99 109 119 99 109 119 99 109 119 98 108 118 98 108 118 98 108 118 97 107 117 97 107 117 96 106 116 95 105 115 95 105 115 94 104 114 94 104 114 94 104 114 94 104 114 94 104 114 94 104 114 95 105 115 95 105 115 95 105 115 95 105 115 95 105 115 94 104 114 94 104 114 93 103 113 93 103 113 93 103 113 93 103 113 93 103 113 93 103 113 94 104 114 94 104 114 94 104 114 94 104 114 94 104 114 94 104 114 95 105 115 95 105 115 96 106 116 97 107 117 98 108 118 99 109 119 101 111 121 102 112 122 103 113 123 222 232 242 223 233 243 223 233 243 224 234 244 224 234 244 224 234 244 224 234 244 225 235 245 225 235 245 225 235 245 226 236 246 226 236 246 226 236 246 225 235 245 224 234 244 224 234 244 223 233 243 223 233 243 222 232 242 222 232 242 223 233 243 223 233 243 224 234 244 224 234 244 224 234 244 224 234 244 224 234 244 223 233 243 103 113 123 103 113 123 102 112 122 102 112 122 101 111 121 101 111 121 101 111 121 100 110 120 100 110 120 100 110 120 99 109 119 99 109 119 98 108 118 98 108 118 98 108 118 98 108 118 98 108 118 99 109 119 99 109 119 100 110 120 100 110 120 101 111 121 101 111 121 101 111 121 101 111 121 101 111 121 100 110 120 100 110 120 99 109 119 99 109 119 99 109 119 99 109 119 98 108 118 98 108 118 98 108 118 97 107 117 96 106 116 96 106 116 95 105 115 95 105 115 94 104 114 94 104 114 94 104 114 94 104 114 94 104 114 95 105 115 95 105 115 95 105 115 95 105 115 95 105 115 94 104 114 94 104 114 94 104 114 93 103 113 93 103 113 93 103 113 93 103 113 93 103 113 94 104 114 94 104 114 94 104 114 94 104 114 94 104 114 94 104 114 95 105 115 95 105 115 96 106 116 97 107 117 98 108 118 99 109 119 100 110 120 102 112 122 100 110 120 100 110 120 101 111 121 101 111 121 101 111 121 101 111 121 101 111 121 100 110 120 100 110 120 99 109 119 99 109 119 99 109 119 98 108 118 98 108 118 98 108 118 98 108 118 97 107 117 97 107 117 96 106 116 95 105 115 95 105 115 94 104 114 94 104 114 94 104 114 94 104 114 94 104 114 94 104 114 95 105 115 95 105 115 95 105 115 95 105 115 94 104 114 94 104 114 93 103 113 93 103 113 93 103 113 93 103 113 93 103 113 93 103 113 93 103 113 94 104 114 94 104 114 94 104 114 94 104 114 94 104 114 94 104 114 95 105 115 95 105 115 96 106 116 97 107 117 98 108 118 100 110 120 101 111 121 102 112 122 103 113 123 222 232 242 222 232 242 223 233 243 223 233 243 224 234 244 224 234 244 224 234 244 224 234 244 225 235 245 225 235 245 225 235 245 225 235 245 225 235 245 225 235 245 224 234 244 223 233 243 223 233 243 222 232 242 222 232 242 222 232 242 223 233 243 223 233 243 224 234 244 224 234 244 224 234 244 224 234 244 223 233 243 222 232 242 103 113 123 102 112 122 102 112 122 101 111 121 101 111 121 101 111 121 100 110 120 100 110 120 100 110 120 100 110 120 99 109 119 99 109 119 98 108 118 98 108 118 98 108 118 98 108 118 98 108 118 99 109 119 99 109 119 100 110 120 100 110 120 101 111 121 101 111 121 101 111 121 101 111 121 101 111 121 100 110 120 100 110 120 99 109 119 99 109 119 99 109 119 99 109 119 98 108 118 98 108 118 97 107 117 97 107 117 96 106 116 96 106 116 95 105 115 94 104 114 94 104 114 94 104 114 94 104 114 94 104 114 95 105 115 95 105 115 95 105 115 95 105 115 95 105 115 95 105 115 94 104 114 94 104 114 94 104 114 93 103 113 93 103 113 93 103 113 93 103 113 94 104 114 94 104 114 94 104 114 94 104 114 94 104 114 95 105 115 95 105 115 95 105 115 96 106 116 96 106 116 97 107 117 98 108 118 100 110 120 101 111 121 102 112 122 103 113 123 222 232 242 223 233 243 224 234 244 224 234 244 224 234 244 224 234 244 225 235 245 225 235 245 225 235 245 226 236 246 226 236 246 226 236 246 226 236 246 225 235 245 225 235 245 224 234 244 223 233 243 223 233 243 223 233 243 223 233 243 223 233 243 224 234 244 224 234 244 224 234 244 225 235 245 224 234 244 224 234 244 223 233 243 222 232 242 103 113 123 102 112 122 102 112 122 101 111 121 101 111 121 101 111 121 100 110 120 100 110 120 100 110 120 99 109 119 99 109 119 99 109 119 98 108 118 98 108 118 98 108 118 98 108 118 99 109 119 99 109 119 100 110 120 100 110 120 101 111 121 101 111 121 101 111 121 101 111 121 101 111 121 100 110 120 100 110 120 99 109 119 99 109 119 99 109 119 98 108 118 98 108 118 98 108 118 97 107 117 97 107 117 96 106 116 96 106 116 95 105 115 94 104 114 94 104 114 94 104 114 94 104 114 94 104 114 94 104 114 94 104 114 95 105 115 95 105 115 95 105 115 94 104 114 94 104 114 94 104 114 93 103 113 93 103 113 93 103 113 93 103 113 93 103 113 93 103 113 93 103 113 94 104 114 94 104 114 94 104 114 94 104 114 94 104 114 94 104 114 95 105 115 96 106 116 97 107 117 98 108 118 99 109 119 100 110 120 101 111 121 100 110 120 100 110 120 100 110 120 101 111 121 101 111 121 101 111 121 101 111 121 100 110 120 100 110 120 99 109 119 99 109 119 99 109 119 98 108 118 98 108 118 98 108 118 97 107 117 97 107 117 96 106 116 96 106 116 95 105 115 95 105 115 94 104 114 94 104 114 94 104 114 94 104 114 94 104 114 94 104 114 94 104 114 94 104 114 94 104 114 94 104 114 94 104 114 94 104 114 93 103 113 93 103 113 93 103 113 93 103 113 93 103 113 93 103 113 93 103 113 93 103 113 93 103 113 94 104 114 94 104 114 94 104 114 94 104 114 95 105 115 95 105 115 96 106 116 97 107 117 98 108 118 99 109 119 100 110 120 102 112 122 102 112 122 103 113 123 222 232 242 222 232 242 223 233 243 223 233 243 223 233 243 224 234 244 224 234 244 224 234 244 225 235 245 225 235 245 225 235 245 224 234 244 224 234 244 223 233 243 223 233 243 222 232 242 222 232 242 222 232 242 222 232 242 222 232 242 223 233 243 223 233 243 223 233 243 223 233 243 223 233 243 222 232 242 222 232 242 103 113 123 102 112 122 102 112 122 101 111 121 101 111 121 101 111 121 100 110 120 100 110 120 100 110 120 99 109 119 99 109 119 99 109 119 98 108 118 98 108 118 98 108 118 98 108 118 98 108 118 99 109 119 99 109 119 100 110 120 100 110 120 101 111 121 101 111 121 101 111 121 101 111 121 101 111 121 100 110 120 100 110 120 99 109 119 99 109 119 99 109 119 99 109 119 98 108 118 98 108 118 98 108 118 97 107 117 96 106 116 96 106 116 95 105 115 95 105 115 95 105 115 94 104 114 94 104 114 95 105 115 95 105 115 95 105 115 95 105 115 95 105 115 95 105 115 95 105 115 95 105 115 94 104 114 94 104 114 94 104 114 94 104 114 94 104 114 94 104 114 94 104 114 94 104 114 94 104 114 94 104 114 95 105 115 95 105 115 95 105 115 96 106 116 96 106 116 97 107 117 98 108 118 99 109 119 100 110 120 101 111 121 102 112 122 103 113 123 222 232 242 223 233 243 224 234 244 224 234 244 225 235 245 225 235 245 225 235 245 226 236 246 226 236 246 226 236 246 226 236 246 226 236 246 226 236 246 226 236 246 225 235 245 225 235 245 224 234 244 224 234 244 223 233 243 223 233 243 224 234 244 224 234 244 224 234 244 225 235 245 225 235 245 224 234 244 224 234 244 223 233 243 222 232 242 103 113 123 103 113 123 102 112 122 102 112 122 101 111 121 101 111 121 100 110 120 100 110 120 100 110 120 99 109 119 99 109 119 99 109 119 98 108 118 98 108 118 98 108 118 98 108 118 99 109 119 99 109 119 100 110 120 100 110 120 101 111 121 101 111 121 101 111 121 101 111 121 100 110 120 100 110 120 100 110 120 99 109 119 99 109 119 99 109 119 98 108 118 98 108 118 98 108 118 97 107 117 97 107 117 96 106 116 95 105 115 95 105 115 94 104 114 94 104 114 94 104 114 94 104 114 94 104 114 94 104 114 94 104 114 94 104 114 94 104 114 94 104 114 94 104 114 94 104 114 94 104 114 93 103 113 93 103 113 93 103 113 93 103 113 93 103 113 93 103 113 93 103 113 93 103 113 93 103 113 94 104 114 94 104 114 94 104 114 94 104 114 95 105 115 96 106 116 96 106 116 97 107 117 99 109 119 100 110 120 101 111 121 100 110 120 100 110 120 100 110 120 100 110 120 100 110 120 100 110 120 100 110 120 100 110 120 100 110 120 99 109 119 99 109 119 99 109 119 98 108 118 98 108 118 97 107 117 97 107 117 97 107 117 96 106 116 96 106 116 95 105 115 95 105 115 94 104 114 94 104 114 94 104 114 94 104 114 94 104 114 94 104 114 94 104 114 94 104 114 94 104 114 94 104 114 94 104 114 93 103 113 93 103 113 93 103 113 93 103 113 93 103 113 93 103 113 93 103 113 93 103 113 93 103 113 93 103 113 93 103 113 94 104 114 94 104 114 94 104 114 95 105 115 95 105 115 96 106 116 97 107 117 98 108 118 99 109 119 100 110 120 101 111 121 102 112 122 102 112 122 103 113 123 103 113 123 222 232 242 223 233 243 223 233 243 223 233 243 224 234 244 224 234 244 224 234 244 224 234 244 224 234 244 224 234 244 223 233 243 223 233 243 223 233 243 222 232 242 222 232 242 222 232 242 222 232 242 222 232 242 222 232 242 223 233 243 223 233 243 222 232 242 222 232 242 222 232 242 103 113 123 103 113 123 102 112 122 102 112 122 101 111 121 101 111 121 101 111 121 100 110 120 100 110 120 100 110 120 99 109 119 99 109 119 99 109 119 99 109 119 98 108 118 98 108 118 98 108 118 99 109 119 99 109 119 99 109 119 100 110 120 100 110 120 100 110 120 101 111 121 101 111 121 101 111 121 100 110 120 100 110 120 100 110 120 100 110 120 99 109 119 99 109 119 99 109 119 98 108 118 98 108 118 97 107 117 97 107 117 97 107 117 96 106 116 96 106 116 95 105 115 95 105 115 95 105 115 95 105 115 95 105 115 95 105 115 95 105 115 95 105 115 95 105 115 95 105 115 95 105 115 95 105 115 95 105 115 94 104 114 94 104 114 94 104 114 94 104 114 94 104 114 94 104 114 94 104 114 95 105 115 95 105 115 95 105 115 95 105 115 96 106 116 96 106 116 97 107 117 97 107 117 98 108 118 99 109 119 100 110 120 101 111 121 102 112 122 103 113 123 222 232 242 223 233 243 224 234 244 225 235 245 225 235 245 225 235 245 226 236 246 226 236 246 226 236 246 226 236 246 226 236 246 226 236 246 226 236 246 226 236 246 225 235 245 225 235 245 225 235 245 224 234 244 224 234 244 224 234 244 224 234 244 224 234 244 224 234 244 224 234 244 224 234 244 224 234 244 224 234 244 223 233 243 222 232 242 103 113 123 103 113 123 102 112 122 102 112 122 101 111 121 101 111 121 101 111 121 100 110 120 100 110 120 99 109 119 99 109 119 99 109 119 99 109 119 99 109 119 99 109 119 99 109 119 99 109 119 99 109 119 100 110 120 100 110 120 100 110 120 100 110 120 100 110 120 100 110 120 100 110 120 100 110 120 100 110 120 99 109 119 99 109 119 99 109 119 98 108 118 98 108 118 97 107 117 97 107 117 96 106 116 96 106 116 95 105 115 95 105 115 94 104 114 94 104 114 94 104 114 94 104 114 94 104 114 94 104 114 94 104 114 94 104 114 94 104 114 94 104 114 94 104 114 94 104 114 93 103 113 93 103 113 93 103 113 93 103 113 93 103 113 93 103 113 93 103 113 93 103 113 93 103 113 93 103 113 93 103 113 94 104 114 94 104 114 94 104 114 95 105 115 96 106 116 96 106 116 97 107 117 98 108 118 99 109 119 100 110 120 100 110 120 100 110 120 100 110 120 100 110 120 100 110 120 100 110 120 100 110 120 100 110 120 100 110 120 99 109 119 99 109 119 99 109 119 98 108 118 98 108 118 97 107 117 97 107 117 96 106 116 96 106 116 95 105 115 95 105 115 95 105 115 94 104 114 94 104 114 94 104 114 94 104 114 94 104 114 94 104 114 94 104 114 93 103 113 93 103 113 93 103 113 93 103 113 93 103 113 93 103 113 93 103 113 93 103 113 93 103 113 93 103 113 93 103 113 93 103 113 93 103 113 93 103 113 93 103 113 93 103 113 94 104 114 94 104 114 95 105 115 96 106 116 96 106 116 97 107 117 98 108 118 99 109 119 99 109 119 100 110 120 101 111 121 102 112 122 102 112 122 103 113 123 103 113 123 222 232 242 223 233 243 223 233 243 223 233 243 223 233 243 223 233 243 223 233 243 223 233 243 223 233 243 223 233 243 223 233 243 222 232 242 222 232 242 222 232 242 222 232 242 222 232 242 222 232 242 222 232 242 222 232 242 222 232 242 103 113 123 103 113 123 103 113 123 103 113 123 103 113 123 102 112 122 102 112 122 101 111 121 101 111 121 101 111 121 100 110 120 100 110 120 99 109 119 99 109 119 99 109 119 99 109 119 99 109 119 99 109 119 99 109 119 99 109 119 99 109 119 99 109 119 99 109 119 100 110 120 100 110 120 100 110 120 100 110 120 100 110 120 100 110 120 100 110 120 100 110 120 100 110 120 100 110 120 99 109 119 99 109 119 99 109 119 98 108 118 98 108 118 97 107 117 97 107 117 97 107 117 96 106 116 96 106 116 96 106 116 96 106 116 95 105 115 95 105 115 95 105 115 95 105 115 95 105 115 95 105 115 95 105 115 95 105 115 95 105 115 95 105 115 95 105 115 95 105 115 95 105 115 95 105 115 95 105 115 95 105 115 95 105 115 95 105 115 95 105 115 95 105 115 95 105 115 96 106 116 96 106 116 97 107 117 97 107 117 98 108 118 99 109 119 100 110 120 101 111 121 101 111 121 102 112 122 103 113 123 222 232 242 223 233 243 224 234 244 225 235 245 225 235 245 226 236 246 226 236 246 227 237 247 227 237 247 227 237 247 226 236 246 226 236 246 226 236 246 226 236 246 226 236 246 226 236 246 225 235 245 225 235 245 225 235 245 225 235 245 225 235 245 225 235 245 225 235 245 224 234 244 224 234 244 224 234 244 223 233 243 223 233 243 222 232 242 103 113 123 103 113 123 103 113 123 102 112 122 102 112 122 101 111 121 101 111 121 100 110 120 100 110 120 100 110 120 99 109 119 99 109 119 99 109 119 99 109 119 99 109 119 99 109 119 99 109 119 99 109 119 100 110 120 100 110 120 100 110 120 100 110 120 100 110 120 100 110 120 100 110 120 100 110 120 100 110 120 99 109 119 99 109 119 99 109 119 98 108 118 98 108 118 97 107 117 97 107 117 96 106 116 96 106 116 95 105 115 95 105 115 95 105 115 94 104 114 94 104 114 94 104 114 94 104 114 94 104 114 94 104 114 93 103 113 93 103 113 93 103 113 93 103 113 93 103 113 93 103 113 93 103 113 93 103 113 93 103 113 93 103 113 93 103 113 93 103 113 93 103 113 93 103 113 93 103 113 93 103 113 93 103 113 94 104 114 95 105 115 95 105 115 96 106 116 97 107 117 97 107 117 98 108 118 99 109 119 100 110 120 100 110 120 99 109 119 99 109 119 99 109 119 99 109 119 99 109 119 100 110 120 100 110 120 100 110 120 99 109 119 99 109 119 99 109 119 98 108 118 98 108 118 97 107 117 96 106 116 96 106 116 96 106 116 95 105 115 95 105 115 95 105 115 95 105 115 95 105 115 94 104 114 94 104 114 94 104 114 93 103 113 93 103 113 93 103 113 93 103 113 93 103 113 93 103 113 93 103 113 93 103 113 93 103 113 93 103 113 93 103 113 93 103 113 92 102 112 92 102 112 92 102 112 93 103 113 93 103 113 93 103 113 94 104 114 94 104 114 95 105 115 96 106 116 97 107 117 97 107 117 98 108 118 98 108 118 99 109 119 100 110 120 100 110 120 101 111 121 102 112 122 102 112 122 103 113 123 103 113 123 222 232 242 222 232 242 223 233 243 222 232 242 222 232 242 222 232 242 222 232 242 222 232 242 222 232 242 222 232 242 222 232 242 222 232 242 223 233 243 222 232 242 222 232 242 222 232 242 222 232 242 103 113 123 103 113 123 103 113 123 103 113 123 103 113 123 102 112 122 102 112 122 102 112 122 102 112 122 102 112 122 101 111 121 101 111 121 100 110 120 100 110 120 99 109 119 99 109 119 99 109 119 99 109 119 99 109 119 99 109 119 99 109 119 99 109 119 99 109 119 99 109 119 99 109 119 100 110 120 100 110 120 100 110 120 100 110 120 100 110 120 100 110 120 100 110 120 100 110 120 100 110 120 100 110 120 100 110 120 99 109 119 99 109 119 98 108 118 98 108 118 97 107 117 97 107 117 97 107 117 97 107 117 96 106 116 96 106 116 96 106 116 96 106 116 96 106 116 96 106 116 95 105 115 95 105 115 95 105 115 95 105 115 95 105 115 95 105 115 95 105 115 95 105 115 95 105 115 95 105 115 95 105 115 95 105 115 95 105 115 95 105 115 95 105 115 95 105 115 95 105 115 96 106 116 96 106 116 97 107 117 98 108 118 98 108 118 99 109 119 100 110 120 100 110 120 101 111 121 101 111 121 102 112 122 103 113 123 103 113 123 222 232 242 224 234 244 225 235 245 226 236 246 226 236 246 227 237 247 227 237 247 227 237 247 227 237 247 226 236 246 226 236 246 226 236 246 226 236 246 226 236 246 226 236 246 226 236 246 226 236 246 226 236 246 226 236 246 226 236 246 225 235 245 225 235 245 224 234 244 224 234 244 223 233 243 223 233 243 222 232 242 222 232 242 222 232 242 103 113 123 103 113 123 102 112 122 102 112 122 101 111 121 101 111 121 100 110 120 100 110 120 100 110 120 99 109 119 99 109 119 99 109 119 100 110 120 100 110 120 100 110 120 100 110 120 100 110 120 99 109 119 99 109 119 99 109 119 99 109 119 99 109 119 100 110 120 100 110 120 100 110 120 99 109 119 99 109 119 99 109 119 98 108 118 98 108 118 97 107 117 97 107 117 96 106 116 96 106 116 95 105 115 95 105 115 95 105 115 95 105 115 95 105 115 94 104 114 94 104 114 94 104 114 94 104 114 93 103 113 93 103 113 93 103 113 93 103 113 93 103 113 93 103 113 93 103 113 93 103 113 93 103 113 93 103 113 93 103 113 93 103 113 92 102 112 92 102 112 92 102 112 93 103 113 93 103 113 93 103 113 94 104 114 95 105 115 95 105 115 96 106 116 97 107 117 97 107 117 98 108 118 99 109 119 99 109 119 100 110 120 99 109 119 99 109 119 99 109 119 99 109 119 99 109 119 99 109 119 99 109 119 99 109 119 99 109 119 99 109 119 98 108 118 98 108 118 97 107 117 97 107 117 96 106 116 96 106 116 95 105 115 95 105 115 95 105 115 95 105 115 95 105 115 95 105 115 94 104 114 94 104 114 94 104 114 93 103 113 93 103 113 92 102 112 92 102 112 92 102 112 92 102 112 93 103 113 93 103 113 93 103 113 93 103 113 93 103 113 93 103 113 92 102 112 92 102 112 92 102 112 92 102 112 93 103 113 93 103 113 94 104 114 95 105 115 95 105 115 96 106 116 97 107 117 97 107 117 98 108 118 98 108 118 98 108 118 99 109 119 100 110 120 100 110 120 101 111 121 102 112 122 102 112 122 103 113 123 103 113 123 222 232 242 222 232 242 222 232 242 103 113 123 103 113 123 103 113 123 103 113 123 103 113 123 222 232 242 222 232 242 222 232 242 223 233 243 223 233 243 222 232 242 222 232 242 103 113 123 103 113 123 103 113 123 102 112 122 102 112 122 102 112 122 102 112 122 102 112 122 102 112 122 102 112 122 102 112 122 101 111 121 101 111 121 100 110 120 100 110 120 99 109 119 99 109 119 99 109 119 99 109 119 99 109 119 99 109 119 100 110 120 100 110 120 100 110 120 100 110 120 100 110 120 99 109 119 99 109 119 99 109 119 99 109 119 99 109 119 100 110 120 100 110 120 100 110 120 100 110 120 100 110 120 100 110 120 99 109 119 99 109 119 98 108 118 98 108 118 97 107 117 97 107 117 97 107 117 97 107 117 97 107 117 97 107 117 97 107 117 97 107 117 96 106 116 96 106 116 96 106 116 95 105 115 95 105 115 95 105 115 95 105 115 95 105 115 95 105 115 95 105 115 96 106 116 96 106 116 96 106 116 96 106 116 95 105 115 95 105 115 95 105 115 95 105 115 96 106 116 96 106 116 97 107 117 98 108 118 98 108 118 99 109 119 100 110 120 100 110 120 101 111 121 101 111 121 102 112 122 102 112 122 103 113 123 103 113 123 222 232 242 223 233 243 225 235 245 226 236 246 226 236 246 227 237 247 227 237 247 227 237 247 227 237 247 226 236 246 226 236 246 226 236 246 226 236 246 226 236 246 227 237 247 227 237 247 227 237 247 227 237 247 227 237 247 226 236 246 225 235 245 225 235 245 224 234 244 223 233 243 223 233 243 222 232 242 222 232 242 222 232 242 222 232 242 103 113 123 103 113 123 103 113 123 102 112 122 102 112 122 101 111 121 100 110 120 100 110 120 100 110 120 100 110 120 100 110 120 100 110 120 100 110 120 100 110 120 100 110 120 100 110 120 100 110 120 99 109 119 99 109 119 99 109 119 99 109 119 99 109 119 99 109 119 99 109 119 99 109 119 99 109 119 99 109 119 99 109 119 98 108 118 98 108 118 97 107 117 97 107 117 96 106 116 96 106 116 95 105 115 95 105 115 95 105 115 95 105 115 95 105 115 95 105 115 94 104 114 94 104 114 93 103 113 93 103 113 93 103 113 92 102 112 92 102 112 92 102 112 92 102 112 93 103 113 93 103 113 93 103 113 93 103 113 93 103 113 93 103 113 92 102 112 92 102 112 92 102 112 93 103 113 93 103 113 93 103 113 94 104 114 95 105 115 96 106 116 96 106 116 97 107 117 97 107 117 98 108 118 98 108 118 99 109 119 100 110 120 99 109 119 99 109 119 99 109 119 99 109 119 99 109 119 99 109 119 99 109 119 99 109 119 99 109 119 99 109 119 98 108 118 98 108 118 97 107 117 96 106 116 96 106 116 96 106 116 95 105 115 95 105 115 95 105 115 95 105 115 95 105 115 95 105 115 95 105 115 94 104 114 94 104 114 93 103 113 92 102 112 92 102 112 92 102 112 92 102 112 92 102 112 92 102 112 93 103 113 93 103 113 93 103 113 93 103 113 93 103 113 92 102 112 92 102 112 92 102 112 92 102 112 93 103 113 93 103 113 94 104 114 95 105 115 96 106 116 96 106 116 97 107 117 97 107 117 97 107 117 98 108 118 98 108 118 98 108 118 99 109 119 99 109 119 100 110 120 101 111 121 102 112 122 102 112 122 103 113 123 103 113 123 103 113 123 103 113 123 103 113 123 103 113 123 103 113 123 103 113 123 103 113 123 103 113 123 222 232 242 222 232 242 222 232 242 222 232 242 222 232 242 103 113 123 103 113 123 103 113 123 102 112 122 102 112 122 102 112 122 102 112 122 102 112 122 102 112 122 102 112 122 102 112 122 101 111 121 101 111 121 101 111 121 100 110 120 100 110 120 99 109 119 99 109 119 99 109 119 99 109 119 99 109 119 100 110 120 100 110 120 100 110 120 100 110 120 100 110 120 100 110 120 99 109 119 99 109 119 99 109 119 99 109 119 99 109 119 99 109 119 100 110 120 100 110 120 100 110 120 100 110 120 100 110 120 99 109 119 99 109 119 98 108 118 98 108 118 97 107 117 97 107 117 97 107 117 97 107 117 97 107 117 97 107 117 97 107 117 97 107 117 97 107 117 96 106 116 96 106 116 95 105 115 95 105 115 95 105 115 95 105 115 95 105 115 95 105 115 96 106 116 96 106 116 96 106 116 96 106 116 96 106 116 96 106 116 96 106 116 96 106 116 96 106 116 96 106 116 97 107 117 98 108 118 98 108 118 99 109 119 100 110 120 100 110 120 101 111 121 101 111 121 101 111 121 102 112 122 102 112 122 102 112 122 103 113 123 222 232 242 223 233 243 224 234 244 226 236 246 226 236 246 227 237 247 227 237 247 227 237 247 227 237 247 226 236 246 226 236 246 226 236 246 226 236 246 227 237 247 227 237 247 228 238 248 228 238 248 228 238 248 227 237 247 227 237 247 226 236 246 225 235 245 224 234 244 223 233 243 222 232 242 222 232 242 222 232 242 222 232 242 222 232 242 222 232 242 103 113 123 103 113 123 102 112 122 102 112 122 101 111 121 101 111 121 100 110 120 100 110 120 100 110 120 100 110 120 100 110 120 100 110 120 100 110 120 100 110 120 100 110 120 100 110 120 99 109 119 99 109 119 99 109 119 99 109 119 99 109 119 99 109 119 99 109 119 99 109 119 99 109 119 99 109 119 99 109 119 98 108 118 97 107 117 97 107 117 96 106 116 96 106 116 96 106 116 95 105 115 95 105 115 95 105 115 95 105 115 95 105 115 95 105 115 94 104 114 94 104 114 93 103 113 93 103 113 92 102 112 92 102 112 92 102 112 92 102 112 92 102 112 92 102 112 93 103 113 93 103 113 93 103 113 93 103 113 93 103 113 92 102 112 92 102 112 92 102 112 93 103 113 93 103 113 94 104 114 94 104 114 95 105 115 96 106 116 96 106 116 97 107 117 97 107 117 98 108 118 98 108 118 98 108 118 100 110 120 99 109 119 99 109 119 98 108 118 98 108 118 98 108 118 98 108 118 98 108 118 98 108 118 98 108 118 98 108 118 98 108 118 97 107 117 97 107 117 96 106 116 96 106 116 96 106 116 95 105 115 95 105 115 95 105 115 95 105 115 95 105 115 95 105 115 95 105 115 94 104 114 93 103 113 93 103 113 92 102 112 92 102 112 92 102 112 92 102 112 92 102 112 92 102 112 92 102 112 93 103 113 93 103 113 93 103 113 93 103 113 92 102 112 92 102 112 92 102 112 93 103 113 93 103 113 94 104 114 94 104 114 95 105 115 96 106 116 96 106 116 97 107 117 97 107 117 97 107 117 97 107 117 98 108 118 98 108 118 98 108 118 99 109 119 99 109 119 100 110 120 101 111 121 102 112 122 102 112 122 102 112 122 103 113 123 103 113 123 103 113 123 102 112 122 103 113 123 103 113 123 103 113 123 103 113 123 222 232 242 222 232 242 222 232 242 222 232 242 222 232 242 103 113 123 103 113 123 102 112 122 102 112 122 101 111 121 101 111 121 101 111 121 101 111 121 101 111 121 101 111 121 101 111 121 101 111 121 101 111 121 101 111 121 100 110 120 100 110 120 100 110 120 99 109 119 99 109 119 100 110 120 100 110 120 100 110 120 100 110 120 100 110 120 100 110 120 100 110 120 100 110 120 99 109 119 99 109 119 99 109 119 99 109 119 99 109 119 99 109 119 99 109 119 99 109 119 100 110 120 100 110 120 99 109 119 99 109 119 99 109 119 98 108 118 98 108 118 98 108 118 98 108 118 98 108 118 98 108 118 98 108 118 98 108 118 98 108 118 98 108 118 97 107 117 97 107 117 96 106 116 96 106 116 95 105 115 95 105 115 95 105 115 95 105 115 96 106 116 96 106 116 96 106 116 96 106 116 97 107 117 97 107 117 96 106 116 96 106 116 96 106 116 97 107 117 97 107 117 98 108 118 98 108 118 99 109 119 100 110 120 100 110 120 101 111 121 101 111 121 101 111 121 102 112 122 102 112 122 102 112 122 102 112 122 103 113 123 222 232 242 223 233 243 224 234 244 225 235 245 226 236 246 227 237 247 227 237 247 227 237 247 227 237 247 227 237 247 227 237 247 227 237 247 227 237 247 227 237 247 228 238 248 228 238 248 228 238 248 228 238 248 228 238 248 227 237 247 226 236 246 225 235 245 224 234 244 223 233 243 222 232 242 222 232 242 222 232 242 222 232 242 222 232 242 222 232 242 103 113 123 103 113 123 102 112 122 102 112 122 101 111 121 101 111 121 101 111 121 101 111 121 101 111 121 101 111 121 101 111 121 101 111 121 101 111 121 101 111 121 100 110 120 100 110 120 99 109 119 99 109 119 99 109 119 98 108 118 98 108 118 98 108 118 98 108 118 98 108 118 98 108 118 98 108 118 98 108 118 98 108 118 97 107 117 97 107 117 96 106 116 96 106 116 96 106 116 95 105 115 95 105 115 95 105 115 95 105 115 95 105 115 95 105 115 94 104 114 94 104 114 93 103 113 93 103 113 92 102 112 92 102 112 92 102 112 92 102 112 92 102 112 92 102 112 92 102 112 93 103 113 93 103 113 93 103 113 93 103 113 92 102 112 92 102 112 92 102 112 93 103 113 93 103 113 94 104 114 95 105 115 95 105 115 96 106 116 96 106 116 97 107 117 97 107 117 97 107 117 97 107 117 98 108 118 100 110 120 99 109 119 99 109 119 98 108 118 98 108 118 98 108 118 98 108 118 98 108 118 98 108 118 98 108 118 98 108 118 97 107 117 97 107 117 97 107 117 96 106 116 96 106 116 96 106 116 96 106 116 95 105 115 95 105 115 95 105 115 95 105 115 95 105 115 94 104 114 94 104 114 93 103 113 93 103 113 92 102 112 92 102 112 92 102 112 92 102 112 92 102 112 92 102 112 92 102 112 92 102 112 92 102 112 92 102 112 92 102 112 93 103 113 93 103 113 93 103 113 93 103 113 93 103 113 94 104 114 95 105 115 95 105 115 96 106 116 96 106 116 97 107 117 97 107 117 97 107 117 97 107 117 97 107 117 97 107 117 98 108 118 98 108 118 99 109 119 99 109 119 100 110 120 101 111 121 101 111 121 102 112 122 102 112 122 102 112 122 102 112 122 102 112 122 102 112 122 102 112 122 103 113 123 103 113 123 103 113 123 103 113 123 222 232 242 103 113 123 103 113 123 103 113 123 102 112 122 102 112 122 101 111 121 101 111 121 101 111 121 101 111 121 101 111 121 101 111 121 101 111 121 101 111 121 101 111 121 101 111 121 101 111 121 100 110 120 100 110 120 100 110 120 100 110 120 100 110 120 100 110 120 100 110 120 100 110 120 100 110 120 100 110 120 100 110 120 100 110 120 100 110 120 99 109 119 99 109 119 99 109 119 99 109 119 99 109 119 99 109 119 99 109 119 99 109 119 99 109 119 99 109 119 99 109 119 99 109 119 99 109 119 98 108 118 98 108 118 98 108 118 98 108 118 98 108 118 98 108 118 98 108 118 98 108 118 98 108 118 98 108 118 97 107 117 97 107 117 96 106 116 96 106 116 96 106 116 95 105 115 95 105 115 96 106 116 96 106 116 96 106 116 96 106 116 97 107 117 97 107 117 97 107 117 97 107 117 97 107 117 97 107 117 98 108 118 98 108 118 98 108 118 99 109 119 100 110 120 100 110 120 101 111 121 101 111 121 102 112 122 102 112 122 102 112 122 102 112 122 102 112 122 103 113 123 103 113 123 103 113 123 222 232 242 224 234 244 225 235 245 225 235 245 226 236 246 226 236 246 227 237 247 227 237 247 227 237 247 227 237 247 227 237 247 227 237 247 228 238 248 228 238 248 228 238 248 228 238 248 228 238 248 228 238 248 227 237 247 226 236 246 225 235 245 224 234 244 223 233 243 222 232 242 222 232 242 222 232 242 222 232 242 222 232 242 103 113 123 103 113 123 103 113 123 103 113 123 102 112 122 102 112 122 101 111 121 101 111 121 101 111 121 101 111 121 101 111 121 101 111 121 101 111 121 101 111 121 101 111 121 100 110 120 100 110 120 99 109 119 99 109 119 98 108 118 98 108 118 98 108 118 98 108 118 98 108 118 98 108 118 98 108 118 98 108 118 98 108 118 97 107 117 97 107 117 97 107 117 96 106 116 96 106 116 96 106 116 95 105 115 95 105 115 95 105 115 95 105 115 95 105 115 95 105 115 94 104 114 94 104 114 93 103 113 93 103 113 92 102 112 92 102 112 92 102 112 92 102 112 92 102 112 92 102 112 92 102 112 92 102 112 92 102 112 92 102 112 92 102 112 93 103 113 93 103 113 93 103 113 93 103 113 94 104 114 94 104 114 95 105 115 95 105 115 96 106 116 96 106 116 97 107 117 97 107 117 97 107 117 97 107 117 97 107 117 100 110 120 99 109 119 99 109 119 98 108 118 98 108 118 98 108 118 98 108 118 97 107 117 97 107 117 97 107 117 97 107 117 97 107 117 97 107 117 96 106 116 96 106 116 96 106 116 96 106 116 96 106 116 96 106 116 95 105 115 95 105 115 95 105 115 95 105 115 94 104 114 94 104 114 93 103 113 93 103 113 92 102 112 92 102 112 92 102 112 92 102 112 92 102 112 92 102 112 92 102 112 92 102 112 92 102 112 92 102 112 92 102 112 93 103 113 93 103 113 93 103 113 93 103 113 94 104 114 94 104 114 95 105 115 95 105 115 96 106 116 96 106 116 96 106 116 97 107 117 97 107 117 97 107 117 97 107 117 97 107 117 97 107 117 98 108 118 98 108 118 99 109 119 99 109 119 100 110 120 100 110 120 101 111 121 101 111 121 101 111 121 102 112 122 102 112 122 102 112 122 102 112 122 103 113 123 103 113 123 103 113 123 103 113 123 103 113 123 103 113 123 103 113 123 102 112 122 102 112 122 102 112 122 101 111 121 101 111 121 101 111 121 101 111 121 101 111 121 101 111 121 101 111 121 101 111 121 101 111 121 101 111 121 100 110 120 100 110 120 100 110 120 100 110 120 100 110 120 100 110 120 100 110 120 100 110 120 101 111 121 101 111 121 100 110 120 100 110 120 100 110 120 100 110 120 99 109 119 99 109 119 99 109 119 99 109 119 98 108 118 98 108 118 99 109 119 99 109 119 99 109 119 99 109 119 99 109 119 99 109 119 99 109 119 99 109 119 98 108 118 98 108 118 98 108 118 98 108 118 98 108 118 98 108 118 98 108 118 98 108 118 98 108 118 98 108 118 97 107 117 97 107 117 96 106 116 96 106 116 96 106 116 96 106 116 96 106 116 96 106 116 96 106 116 97 107 117 97 107 117 97 107 117 97 107 117 98 108 118 98 108 118 98 108 118 98 108 118 99 109 119 99 109 119 100 110 120 100 110 120 101 111 121 101 111 121 102 112 122 102 112 122 102 112 122 102 112 122 102 112 122 102 112 122 103 113 123 103 113 123 103 113 123 222 232 242 223 233 243 224 234 244 225 235 245 225 235 245 226 236 246 226 236 246 227 237 247 227 237 247 227 237 247 228 238 248 228 238 248 228 238 248 228 238 248 228 238 248 228 238 248 228 238 248 228 238 248 227 237 247 226 236 246 225 235 245 224 234 244 223 233 243 223 233 243 222 232 242 222 232 242 222 232 242 103 113 123 103 113 123 103 113 123 103 113 123 103 113 123 102 112 122 102 112 122 102 112 122 102 112 122 102 112 122 102 112 122 102 112 122 101 111 121 101 111 121 101 111 121 101 111 121 100 110 120 100 110 120 99 109 119 99 109 119 98 108 118 98 108 118 98 108 118 98 108 118 97 107 117 97 107 117 97 107 117 97 107 117 97 107 117 97 107 117 97 107 117 96 106 116 96 106 116 96 106 116 96 106 116 96 106 116 96 106 116 95 105 115 95 105 115 95 105 115 95 105 115 94 104 114 94 104 114 93 103 113 93 103 113 92 102 112 92 102 112 92 102 112 92 102 112 92 102 112 92 102 112 92 102 112 92 102 112 92 102 112 92 102 112 92 102 112 93 103 113 93 103 113 93 103 113 94 104 114 94 104 114 94 104 114 95 105 115 95 105 115 96 106 116 96 106 116 96 106 116 97 107 117 97 107 117 97 107 117 97 107 117 100 110 120 99 109 119 99 109 119 98 108 118 98 108 118 97 107 117 97 107 117 97 107 117 97 107 117 97 107 117 97 107 117 96 106 116 96 106 116 96 106 116 96 106 116 96 106 116 96 106 116 96 106 116 96 106 116 95 105 115 95 105 115 95 105 115 95 105 115 94 104 114 94 104 114 93 103 113 93 103 113 92 102 112 92 102 112 92 102 112 92 102 112 91 101 111 91 101 111 91 101 111 92 102 112 92 102 112 92 102 112 92 102 112 93 103 113 93 103 113 93 103 113 94 104 114 94 104 114 95 105 115 95 105 115 95 105 115 96 106 116 96 106 116 96 106 116 96 106 116 96 106 116 97 107 117 97 107 117 97 107 117 97 107 117 97 107 117 98 108 118 98 108 118 98 108 118 99 109 119 99 109 119 100 110 120 100 110 120 101 111 121 101 111 121 101 111 121 102 112 122 102 112 122 102 112 122 103 113 123 103 113 123 103 113 123 103 113 123 102 112 122 102 112 122 102 112 122 102 112 122 101 111 121 101 111 121 101 111 121 101 111 121 100 110 120 100 110 120 100 110 120 100 110 120 100 110 120 100 110 120 100 110 120 100 110 120 100 110 120 101 111 121 101 111 121 101 111 121 101 111 121 101 111 121 101 111 121 101 111 121 101 111 121 100 110 120 100 110 120 100 110 120 100 110 120 99 109 119 99 109 119 99 109 119 99 109 119 98 108 118 98 108 118 98 108 118 98 108 118 98 108 118 98 108 118 98 108 118 98 108 118 99 109 119 99 109 119 99 109 119 99 109 119 99 109 119 99 109 119 99 109 119 99 109 119 99 109 119 98 108 118 98 108 118 98 108 118 97 107 117 97 107 117 97 107 117 97 107 117 97 107 117 96 106 116 96 106 116 96 106 116 97 107 117 97 107 117 97 107 117 97 107 117 98 108 118 98 108 118 98 108 118 99 109 119 99 109 119 100 110 120 100 110 120 101 111 121 101 111 121 101 111 121 102 112 122 102 112 122 102 112 122 102 112 122 102 112 122 103 113 123 103 113 123 103 113 123 103 113 123 103 113 123 222 232 242 223 233 243 223 233 243 224 234 244 225 235 245 225 235 245 226 236 246 227 237 247 227 237 247 228 238 248 228 238 248 228 238 248 229 239 249 229 239 249 228 238 248 228 238 248 228 238 248 227 237 247 227 237 247 226 236 246 225 235 245 224 234 244 224 234 244 223 233 243 222 232 242 222 232 242 103 113 123 103 113 123 103 113 123 103 113 123 103 113 123 103 113 123 103 113 123 103 113 123 103 113 123 102 112 122 102 112 122 102 112 122 102 112 122 102 112 122 101 111 121 101 111 121 101 111 121 100 110 120 100 110 120 99 109 119 99 109 119 98 108 118 98 108 118 98 108 118 97 107 117 97 107 117 97 107 117 97 107 117 97 107 117 96 106 116 96 106 116 96 106 116 96 106 116 96 106 116 96 106 116 96 106 116 96 106 116 96 106 116 95 105 115 95 105 115 95 105 115 94 104 114 94 104 114 94 104 114 93 103 113 93 103 113 92 102 112 92 102 112 92 102 112 92 102 112 91 101 111 91 101 111 92 102 112 92 102 112 92 102 112 92 102 112 92 102 112 93 103 113 93 103 113 94 104 114 94 104 114 94 104 114 95 105 115 95 105 115 95 105 115 96 106 116 96 106 116 96 106 116 96 106 116 96 106 116 97 107 117 97 107 117 100 110 120 99 109 119 99 109 119 98 108 118 98 108 118 97 107 117 97 107 117 96 106 116 96 106 116 96 106 116 96 106 116 96 106 116 96 106 116 96 106 116 96 106 116 96 106 116 96 106 116 96 106 116 96 106 116 95 105 115 95 105 115 95 105 115 94 104 114 94 104 114 93 103 113 93 103 113 93 103 113 93 103 113 92 102 112 92 102 112 92 102 112 91 101 111 91 101 111 91 101 111 91 101 111 92 102 112 92 102 112 92 102 112 93 103 113 93 103 113 94 104 114 94 104 114 95 105 115 95 105 115 95 105 115 95 105 115 96 106 116 96 106 116 96 106 116 96 106 116 96 106 116 96 106 116 97 107 117 97 107 117 97 107 117 97 107 117 97 107 117 97 107 117 98 108 118 98 108 118 98 108 118 99 109 119 99 109 119 100 110 120 101 111 121 101 111 121 102 112 122 102 112 122 102 112 122 102 112 122 102 112 122 102 112 122 102 112 122 102 112 122 102 112 122 102 112 122 101 111 121 101 111 121 101 111 121 101 111 121 101 111 121 100 110 120 100 110 120 100 110 120 100 110 120 100 110 120 100 110 120 100 110 120 100 110 120 101 111 121 101 111 121 101 111 121 101 111 121 101 111 121 101 111 121 101 111 121 101 111 121 101 111 121 100 110 120 100 110 120 100 110 120 100 110 120 99 109 119 99 109 119 99 109 119 99 109 119 98 108 118 98 108 118 98 108 118 98 108 118 98 108 118 98 108 118 98 108 118 98 108 118 99 109 119 99 109 119 99 109 119 99 109 119 99 109 119 99 109 119 99 109 119 99 109 119 99 109 119 98 108 118 98 108 118 98 108 118 98 108 118 98 108 118 97 107 117 97 107 117 97 107 117 97 107 117 97 107 117 97 107 117 97 107 117 97 107 117 97 107 117 98 108 118 98 108 118 99 109 119 99 109 119 100 110 120 100 110 120 101 111 121 101 111 121 101 111 121 102 112 122 102 112 122 102 112 122 102 112 122 102 112 122 103 113 123 103 113 123 103 113 123 103 113 123 103 113 123 103 113 123 222 232 242 222 232 242 222 232 242 222 232 242 223 233 243 224 234 244 225 235 245 226 236 246 226 236 246 227 237 247 228 238 248 229 239 249 229 239 249 229 239 249 229 239 249 228 238 248 228 238 248 227 237 247 227 237 247 226 236 246 226 236 246 225 235 245 225 235 245 224 234 244 223 233 243 223 233 243 222 232 242 103 113 123 103 113 123 103 113 123 103 113 123 103 113 123 103 113 123 103 113 123 103 113 123 103 113 123 103 113 123 103 113 123 103 113 123 102 112 122 102 112 122 102 112 122 101 111 121 101 111 121 100 110 120 100 110 120 99 109 119 99 109 119 99 109 119 98 108 118 98 108 118 97 107 117 97 107 117 96 106 116 96 106 116 96 106 116 96 106 116 96 106 116 96 106 116 96 106 116 96 106 116 96 106 116 96 106 116 96 106 116 96 106 116 95 105 115 95 105 115 95 105 115 94 104 114 94 104 114 93 103 113 93 103 113 93 103 113 92 102 112 92 102 112 92 102 112 92 102 112 91 101 111 91 101 111 91 101 111 91 101 111 92 102 112 92 102 112 92 102 112 93 103 113 94 104 114 94 104 114 94 104 114 95 105 115 95 105 115 95 105 115 95 105 115 96 106 116 96 106 116 96 106 116 96 106 116 96 106 116 96 106 116 97 107 117 100 110 120 99 109 119 99 109 119 98 108 118 98 108 118 97 107 117 97 107 117 96 106 116 96 106 116 95 105 115 95 105 115 95 105 115 96 106 116 96 106 116 96 106 116 96 106 116 96 106 116 96 106 116 96 106 116 95 105 115 95 105 115 94 104 114 94 104 114 94 104 114 93 103 113 93 103 113 93 103 113 93 103 113 92 102 112 92 102 112 92 102 112 92 102 112 91 101 111 91 101 111 91 101 111 91 101 111 92 102 112 92 102 112 93 103 113 94 104 114 94 104 114 95 105 115 95 105 115 95 105 115 95 105 115 95 105 115 95 105 115 95 105 115 95 105 115 96 106 116 96 106 116 96 106 116 96 106 116 96 106 116 97 107 117 97 107 117 97 107 117 97 107 117 97 107 117 97 107 117 97 107 117 98 108 118 99 109 119 99 109 119 100 110 120 101 111 121 101 111 121 102 112 122 102 112 122 102 112 122 102 112 122 102 112 122 101 111 121 101 111 121 101 111 121 101 111 121 101 111 121 101 111 121 101 111 121 101 111 121 100 110 120 100 110 120 100 110 120 100 110 120 99 109 119 99 109 119 99 109 119 100 110 120 100 110 120 101 111 121 101 111 121 101 111 121 102 112 122 102 112 122 101 111 121 101 111 121 101 111 121 101 111 121 100 110 120 100 110 120 100 110 120 100 110 120 99 109 119 99 109 119 99 109 119 99 109 119 98 108 118 98 108 118 98 108 118 97 107 117 97 107 117 97 107 117 98 108 118 98 108 118 99 109 119 99 109 119 99 109 119 100 110 120 100 110 120 100 110 120 99 109 119 99 109 119 99 109 119 99 109 119 98 108 118 98 108 118 98 108 118 98 108 118 98 108 118 98 108 118 98 108 118 98 108 118 97 107 117 97 107 117 97 107 117 97 107 117 97 107 117 98 108 118 98 108 118 99 109 119 100 110 120 101 111 121 101 111 121 102 112 122 102 112 122 102 112 122 102 112 122 102 112 122 102 112 122 102 112 122 103 113 123 103 113 123 103 113 123 103 113 123 103 113 123 222 232 242 222 232 242 222 232 242 222 232 242 222 232 242 222 232 242 222 232 242 223 233 243 224 234 244 225 235 245 226 236 246 227 237 247 228 238 248 229 239 249 229 239 249 229 239 249 229 239 249 228 238 248 228 238 248 227 237 247 227 237 247 226 236 246 226 236 246 226 236 246 225 235 245 225 235 245 224 234 244 223 233 243 222 232 242 103 113 123 103 113 123 103 113 123 103 113 123 103 113 123 103 113 123 103 113 123 103 113 123 222 232 242 222 232 242 103 113 123 103 113 123 103 113 123 102 112 122 102 112 122 101 111 121 101 111 121 100 110 120 100 110 120 99 109 119 99 109 119 99 109 119 98 108 118 98 108 118 97 107 117 96 106 116 96 106 116 96 106 116 95 105 115 95 105 115 96 106 116 96 106 116 96 106 116 96 106 116 96 106 116 96 106 116 96 106 116 96 106 116 95 105 115 95 105 115 94 104 114 94 104 114 94 104 114 93 103 113 93 103 113 93 103 113 93 103 113 92 102 112 92 102 112 92 102 112 91 101 111 91 101 111 91 101 111 91 101 111 91 101 111 92 102 112 93 103 113 93 103 113 94 104 114 94 104 114 95 105 115 95 105 115 95 105 115 95 105 115 95 105 115 95 105 115 95 105 115 96 106 116 96 106 116 96 106 116 96 106 116 96 106 116 100 110 120 99 109 119 99 109 119 98 108 118 98 108 118 97 107 117 96 106 116 96 106 116 95 105 115 95 105 115 95 105 115 95 105 115 95 105 115 96 106 116 96 106 116 96 106 116 96 106 116 96 106 116 96 106 116 95 105 115 95 105 115 94 104 114 94 104 114 93 103 113 93 103 113 93 103 113 93 103 113 93 103 113 93 103 113 92 102 112 92 102 112 92 102 112 91 101 111 91 101 111 91 101 111 91 101 111 92 102 112 92 102 112 93 103 113 94 104 114 95 105 115 95 105 115 95 105 115 96 106 116 96 106 116 95 105 115 95 105 115 95 105 115 95 105 115 95 105 115 96 106 116 96 106 116 96 106 116 96 106 116 96 106 116 96 106 116 96 106 116 96 106 116 96 106 116 96 106 116 97 107 117 97 107 117 98 108 118 99 109 119 99 109 119 100 110 120 101 111 121 101 111 121 101 111 121 101 111 121 101 111 121 101 111 121 101 111 121 101 111 121 101 111 121 101 111 121 101 111 121 101 111 121 101 111 121 100 110 120 100 110 120 100 110 120 100 110 120 99 109 119 99 109 119 99 109 119 99 109 119 100 110 120 100 110 120 101 111 121 101 111 121 102 112 122 102 112 122 102 112 122 102 112 122 101 111 121 101 111 121 101 111 121 100 110 120 100 110 120 100 110 120 100 110 120 99 109 119 99 109 119 99 109 119 99 109 119 98 108 118 98 108 118 98 108 118 97 107 117 97 107 117 97 107 117 97 107 117 98 108 118 98 108 118 99 109 119 99 109 119 100 110 120 100 110 120 100 110 120 100 110 120 99 109 119 99 109 119 99 109 119 98 108 118 98 108 118 98 108 118 98 108 118 98 108 118 98 108 118 98 108 118 98 108 118 98 108 118 98 108 118 98 108 118 98 108 118 98 108 118 98 108 118 99 109 119 100 110 120 101 111 121 101 111 121 102 112 122 103 113 123 103 113 123 103 113 123 103 113 123 103 113 123 103 113 123 103 113 123 103 113 123 103 113 123 103 113 123 103 113 123 222 232 242 222 232 242 222 232 242 222 232 242 222 232 242 103 113 123 103 113 123 222 232 242 223 233 243 224 234 244 225 235 245 226 236 246 227 237 247 228 238 248 229 239 249 229 239 249 229 239 249 229 239 249 228 238 248 227 237 247 227 237 247 226 236 246 226 236 246 226 236 246 226 236 246 225 235 245 225 235 245 224 234 244 223 233 243 222 232 242 222 232 242 103 113 123 103 113 123 103 113 123 103 113 123 103 113 123 103 113 123 222 232 242 222 232 242 222 232 242 222 232 242 222 232 242 103 113 123 102 112 122 102 112 122 101 111 121 101 111 121 100 110 120 100 110 120 99 109 119 99 109 119 99 109 119 98 108 118 97 107 117 97 107 117 96 106 116 96 106 116 95 105 115 95 105 115 95 105 115 95 105 115 95 105 115 96 106 116 96 106 116 96 106 116 96 106 116 96 106 116 96 106 116 95 105 115 95 105 115 94 104 114 94 104 114 93 103 113 93 103 113 93 103 113 93 103 113 93 103 113 93 103 113 92 102 112 92 102 112 92 102 112 91 101 111 91 101 111 91 101 111 91 101 111 92 102 112 93 103 113 93 103 113 94 104 114 95 105 115 95 105 115 95 105 115 96 106 116 95 105 115 95 105 115 95 105 115 95 105 115 95 105 115 95 105 115 96 106 116 96 106 116 96 106 116 100 110 120 99 109 119 99 109 119 98 108 118 98 108 118 97 107 117 96 106 116 96 106 116 95 105 115 95 105 115 95 105 115 95 105 115 95 105 115 95 105 115 96 106 116 96 106 116 96 106 116 96 106 116 96 106 116 95 105 115 95 105 115 94 104 114 94 104 114 93 103 113 93 103 113 93 103 113 93 103 113 93 103 113 93 103 113 92 102 112 92 102 112 92 102 112 92 102 112 91 101 111 91 101 111 92 102 112 92 102 112 93 103 113 93 103 113 94 104 114 95 105 115 95 105 115 96 106 116 96 106 116 96 106 116 95 105 115 95 105 115 95 105 115 95 105 115 95 105 115 95 105 115 96 106 116 96 106 116 96 106 116 96 106 116 96 106 116 96 106 116 96 106 116 96 106 116 96 106 116 96 106 116 96 106 116 97 107 117 98 108 118 99 109 119 100 110 120 100 110 120 101 111 121 101 111 121 101 111 121 101 111 121 100 110 120 100 110 120 100 110 120 100 110 120 100 110 120 100 110 120 100 110 120 100 110 120 100 110 120 100 110 120 100 110 120 99 109 119 99 109 119 99 109 119 99 109 119 99 109 119 100 110 120 100 110 120 101 111 121 101 111 121 102 112 122 102 112 122 102 112 122 102 112 122 101 111 121 101 111 121 101 111 121 100 110 120 100 110 120 100 110 120 100 110 120 99 109 119 99 109 119 99 109 119 99 109 119 98 108 118 98 108 118 97 107 117 97 107 117 97 107 117 97 107 117 97 107 117 98 108 118 98 108 118 99 109 119 99 109 119 100 110 120 100 110 120 100 110 120 100 110 120 99 109 119 99 109 119 99 109 119 99 109 119 99 109 119 99 109 119 99 109 119 99 109 119 99 109 119 99 109 119 99 109 119 98 108 118 98 108 118 98 108 118 98 108 118 99 109 119 99 109 119 100 110 120 100 110 120 101 111 121 102 112 122 103 113 123 103 113 123 103 113 123 103 113 123 103 113 123 103 113 123 103 113 123 103 113 123 103 113 123 103 113 123 222 232 242 222 232 242 222 232 242 222 232 242 222 232 242 222 232 242 222 232 242 103 113 123 103 113 123 222 232 242 222 232 242 223 233 243 224 234 244 226 236 246 227 237 247 228 238 248 229 239 249 229 239 249 229 239 249 228 238 248 228 238 248 227 237 247 227 237 247 226 236 246 226 236 246 226 236 246 226 236 246 225 235 245 225 235 245 224 234 244 224 234 244 223 233 243 222 232 242 103 113 123 103 113 123 103 113 123 103 113 123 103 113 123 222 232 242 222 232 242 223 233 243 223 233 243 223 233 243 222 232 242 103 113 123 103 113 123 102 112 122 101 111 121 101 111 121 100 110 120 100 110 120 99 109 119 99 109 119 99 109 119 98 108 118 97 107 117 97 107 117 96 106 116 95 105 115 95 105 115 95 105 115 95 105 115 95 105 115 95 105 115 96 106 116 96 106 116 96 106 116 96 106 116 96 106 116 96 106 116 95 105 115 94 104 114 94 104 114 94 104 114 93 103 113 93 103 113 93 103 113 93 103 113 93 103 113 93 103 113 92 102 112 92 102 112 92 102 112 91 101 111 91 101 111 91 101 111 92 102 112 92 102 112 93 103 113 94 104 114 94 104 114 95 105 115 95 105 115 96 106 116 96 106 116 96 106 116 95 105 115 95 105 115 95 105 115 95 105 115 95 105 115 95 105 115 96 106 116 96 106 116 100 110 120 99 109 119 99 109 119 98 108 118 97 107 117 97 107 117 96 106 116 95 105 115 95 105 115 95 105 115 95 105 115 95 105 115 95 105 115 95 105 115 96 106 116 96 106 116 96 106 116 96 106 116 95 105 115 95 105 115 95 105 115 94 104 114 94 104 114 93 103 113 93 103 113 93 103 113 93 103 113 93 103 113 93 103 113 93 103 113 92 102 112 92 102 112 92 102 112 92 102 112 92 102 112 92 102 112 92 102 112 93 103 113 94 104 114 94 104 114 95 105 115 95 105 115 95 105 115 96 106 116 96 106 116 95 105 115 95 105 115 95 105 115 95 105 115 95 105 115 95 105 115 95 105 115 95 105 115 95 105 115 95 105 115 95 105 115 95 105 115 95 105 115 95 105 115 95 105 115 95 105 115 96 106 116 97 107 117 97 107 117 98 108 118 99 109 119 99 109 119 100 110 120 100 110 120 100 110 120 100 110 120 100 110 120 100 110 120 100 110 120 100 110 120 100 110 120 100 110 120 100 110 120 100 110 120 100 110 120 100 110 120 100 110 120 99 109 119 99 109 119 99 109 119 99 109 119 99 109 119 100 110 120 100 110 120 101 111 121 101 111 121 102 112 122 102 112 122 102 112 122 102 112 122 101 111 121 101 111 121 101 111 121 100 110 120 100 110 120 100 110 120 100 110 120 99 109 119 99 109 119 99 109 119 99 109 119 98 108 118 98 108 118 97 107 117 97 107 117 97 107 117 97 107 117 97 107 117 98 108 118 98 108 118 99 109 119 99 109 119 100 110 120 100 110 120 100 110 120 100 110 120 100 110 120 99 109 119 99 109 119 99 109 119 99 109 119 99 109 119 99 109 119 99 109 119 99 109 119 99 109 119 99 109 119 99 109 119 99 109 119 99 109 119 99 109 119 99 109 119 100 110 120 100 110 120 101 111 121 102 112 122 103 113 123 103 113 123 222 232 242 222 232 242 222 232 242 222 232 242 222 232 242 222 232 242 222 232 242 222 232 242 222 232 242 222 232 242 222 232 242 222 232 242 222 232 242 222 232 242 222 232 242 222 232 242 103 113 123 103 113 123 222 232 242 222 232 242 223 233 243 224 234 244 225 235 245 226 236 246 227 237 247 228 238 248 228 238 248 228 238 248 228 238 248 227 237 247 227 237 247 227 237 247 226 236 246 226 236 246 226 236 246 226 236 246 225 235 245 225 235 245 224 234 244 224 234 244 223 233 243 222 232 242 222 232 242 103 113 123 103 113 123 103 113 123 222 232 242 222 232 242 223 233 243 223 233 243 223 233 243 223 233 243 222 232 242 103 113 123 103 113 123 102 112 122 101 111 121 101 111 121 100 110 120 100 110 120 99 109 119 99 109 119 98 108 118 98 108 118 97 107 117 97 107 117 96 106 116 95 105 115 95 105 115 95 105 115 95 105 115 95 105 115 95 105 115 95 105 115 96 106 116 96 106 116 96 106 116 96 106 116 95 105 115 95 105 115 94 104 114 94 104 114 94 104 114 93 103 113 93 103 113 93 103 113 93 103 113 93 103 113 93 103 113 92 102 112 92 102 112 92 102 112 92 102 112 92 102 112 92 102 112 92 102 112 92 102 112 93 103 113 94 104 114 94 104 114 95 105 115 95 105 115 96 106 116 96 106 116 96 106 116 95 105 115 95 105 115 95 105 115 95 105 115 95 105 115 95 105 115 95 105 115 95 105 115 100 110 120 99 109 119 98 108 118 98 108 118 97 107 117 97 107 117 96 106 116 95 105 115 95 105 115 95 105 115 95 105 115 95 105 115 95 105 115 95 105 115 95 105 115 95 105 115 95 105 115 95 105 115 95 105 115 95 105 115 94 104 114 94 104 114 94 104 114 94 104 114 93 103 113 93 103 113 93 103 113 93 103 113 93 103 113 93 103 113 92 102 112 92 102 112 92 102 112 92 102 112 92 102 112 92 102 112 93 103 113 93 103 113 94 104 114 94 104 114 95 105 115 95 105 115 95 105 115 95 105 115 95 105 115 95 105 115 95 105 115 95 105 115 95 105 115 95 105 115 95 105 115 95 105 115 95 105 115 95 105 115 95 105 115 95 105 115 95 105 115 95 105 115 95 105 115 95 105 115 95 105 115 96 106 116 96 106 116 97 107 117 97 107 117 98 108 118 99 109 119 99 109 119 99 109 119 99 109 119 99 109 119 99 109 119 99 109 119 99 109 119 99 109 119 99 109 119 99 109 119 100 110 120 100 110 120 100 110 120 99 109 119 99 109 119 99 109 119 99 109 119 99 109 119 99 109 119 100 110 120 100 110 120 100 110 120 101 111 121 101 111 121 102 112 122 102 112 122 102 112 122 102 112 122 101 111 121 101 111 121 101 111 121 100 110 120 100 110 120 100 110 120 100 110 120 99 109 119 99 109 119 99 109 119 98 108 118 98 108 118 98 108 118 98 108 118 97 107 117 97 107 117 97 107 117 98 108 118 98 108 118 98 108 118 99 109 119 99 109 119 100 110 120 100 110 120 100 110 120 100 110 120 100 110 120 100 110 120 100 110 120 99 109 119 99 109 119 99 109 119 100 110 120 100 110 120 100 110 120 100 110 120 100 110 120 100 110 120 100 110 120 100 110 120 100 110 120 100 110 120 101 111 121 101 111 121 102 112 122 102 112 122 103 113 123 222 232 242 222 232 242 223 233 243 223 233 243 223 233 243 223 233 243 223 233 243 222 232 242 222 232 242 222 232 242 222 232 242 222 232 242 222 232 242 222 232 242 222 232 242 222 232 242 222 232 242 222 232 242 222 232 242 222 232 242 222 232 242 223 233 243 224 234 244 225 235 245 226 236 246 227 237 247 227 237 247 228 238 248 228 238 248 227 237 247 227 237 247 227 237 247 226 236 246 226 236 246 226 236 246 226 236 246 226 236 246 225 235 245 225 235 245 224 234 244 224 234 244 223 233 243 223 233 243 222 232 242 222 232 242 222 232 242 222 232 242 222 232 242 223 233 243 223 233 243 223 233 243 223 233 243 223 233 243 222 232 242 103 113 123 103 113 123 102 112 122 102 112 122 101 111 121 100 110 120 100 110 120 99 109 119 99 109 119 98 108 118 98 108 118 97 107 117 96 106 116 96 106 116 95 105 115 95 105 115 95 105 115 95 105 115 95 105 115 95 105 115 95 105 115 95 105 115 95 105 115 95 105 115 95 105 115 95 105 115 95 105 115 94 104 114 94 104 114 94 104 114 93 103 113 93 103 113 93 103 113 93 103 113 93 103 113 93 103 113 93 103 113 92 102 112 92 102 112 92 102 112 92 102 112 92 102 112 92 102 112 93 103 113 93 103 113 94 104 114 94 104 114 95 105 115 95 105 115 95 105 115 95 105 115 95 105 115 95 105 115 95 105 115 95 105 115 95 105 115 95 105 115 95 105 115 95 105 115 95 105 115 100 110 120 99 109 119 98 108 118 98 108 118 97 107 117 96 106 116 96 106 116 96 106 116 95 105 115 95 105 115 95 105 115 95 105 115 95 105 115 95 105 115 95 105 115 95 105 115 95 105 115 95 105 115 95 105 115 94 104 114 94 104 114 94 104 114 94 104 114 94 104 114 93 103 113 93 103 113 93 103 113 93 103 113 93 103 113 93 103 113 93 103 113 92 102 112 92 102 112 93 103 113 93 103 113 93 103 113 93 103 113 94 104 114 94 104 114 94 104 114 95 105 115 95 105 115 95 105 115 95 105 115 95 105 115 95 105 115 95 105 115 95 105 115 95 105 115 95 105 115 95 105 115 95 105 115 95 105 115 94 104 114 94 104 114 94 104 114 94 104 114 94 104 114 94 104 114 95 105 115 95 105 115 95 105 115 96 106 116 96 106 116 97 107 117 97 107 117 98 108 118 98 108 118 98 108 118 98 108 118 99 109 119 99 109 119 99 109 119 99 109 119 99 109 119 99 109 119 99 109 119 99 109 119 99 109 119 99 109 119 99 109 119 99 109 119 99 109 119 99 109 119 99 109 119 100 110 120 100 110 120 100 110 120 100 110 120 101 111 121 101 111 121 101 111 121 101 111 121 101 111 121 101 111 121 101 111 121 101 111 121 101 111 121 101 111 121 100 110 120 100 110 120 100 110 120 99 109 119 99 109 119 99 109 119 98 108 118 98 108 118 98 108 118 98 108 118 98 108 118 98 108 118 98 108 118 98 108 118 98 108 118 98 108 118 99 109 119 99 109 119 99 109 119 99 109 119 100 110 120 100 110 120 100 110 120 100 110 120 100 110 120 100 110 120 100 110 120 100 110 120 100 110 120 100 110 120 100 110 120 100 110 120 100 110 120 100 110 120 100 110 120 101 111 121 101 111 121 101 111 121 102 112 122 102 112 122 103 113 123 103 113 123 103 113 123 222 232 242 223 233 243 223 233 243 223 233 243 224 234 244 224 234 244 224 234 244 223 233 243 223 233 243 223 233 243 223 233 243 223 233 243 222 232 242 222 232 242 222 232 242 222 232 242 222 232 242 222 232 242 222 232 242 222 232 242 223 233 243 223 233 243 224 234 244 225 235 245 225 235 245 226 236 246 226 236 246 227 237 247 227 237 247 227 237 247 227 237 247 227 237 247 227 237 247 226 236 246 226 236 246 226 236 246 225 235 245 225 235 245 225 235 245 224 234 244 224 234 244 224 234 244 223 233 243 223 233 243 223 233 243 223 233 243 223 233 243 223 233 243 223 233 243 223 233 243 223 233 243 223 233 243 222 232 242 222 232 242 103 113 123 103 113 123 102 112 122 102 112 122 101 111 121 101 111 121 100 110 120 99 109 119 99 109 119 98 108 118 97 107 117 97 107 117 96 106 116 96 106 116 95 105 115 95 105 115 95 105 115 95 105 115 95 105 115 95 105 115 95 105 115 95 105 115 95 105 115 95 105 115 95 105 115 95 105 115 94 104 114 94 104 114 94 104 114 94 104 114 94 104 114 93 103 113 93 103 113 93 103 113 93 103 113 93 103 113 93 103 113 92 102 112 92 102 112 92 102 112 93 103 113 93 103 113 93 103 113 93 103 113 94 104 114 94 104 114 94 104 114 95 105 115 95 105 115 95 105 115 95 105 115 95 105 115 95 105 115 95 105 115 95 105 115 95 105 115 95 105 115 95 105 115 95 105 115 95 105 115 100 110 120 99 109 119 98 108 118 97 107 117 97 107 117 96 106 116 96 106 116 96 106 116 95 105 115 95 105 115 95 105 115 95 105 115 95 105 115 94 104 114 94 104 114 94 104 114 94 104 114 94 104 114 94 104 114 94 104 114 94 104 114 94 104 114 94 104 114 94 104 114 94 104 114 93 103 113 93 103 113 93 103 113 93 103 113 93 103 113 93 103 113 93 103 113 93 103 113 93 103 113 93 103 113 94 104 114 94 104 114 94 104 114 94 104 114 94 104 114 94 104 114 95 105 115 95 105 115 95 105 115 95 105 115 95 105 115 95 105 115 95 105 115 95 105 115 95 105 115 95 105 115 94 104 114 94 104 114 94 104 114 94 104 114 94 104 114 94 104 114 94 104 114 94 104 114 94 104 114 95 105 115 95 105 115 95 105 115 96 106 116 96 106 116 96 106 116 96 106 116 97 107 117 97 107 117 98 108 118 98 108 118 98 108 118 98 108 118 99 109 119 99 109 119 99 109 119 99 109 119 99 109 119 99 109 119 99 109 119 99 109 119 99 109 119 99 109 119 99 109 119 100 110 120 100 110 120 100 110 120 100 110 120 101 111 121 101 111 121 101 111 121 101 111 121 101 111 121 101 111 121 101 111 121 101 111 121 101 111 121 101 111 121 101 111 121 100 110 120 100 110 120 100 110 120 99 109 119 99 109 119 98 108 118 98 108 118 98 108 118 98 108 118 98 108 118 98 108 118 98 108 118 98 108 118 98 108 118 98 108 118 98 108 118 98 108 118 99 109 119 99 109 119 99 109 119 99 109 119 100 110 120 100 110 120 100 110 120 100 110 120 100 110 120 100 110 120 100 110 120 100 110 120 100 110 120 100 110 120 100 110 120 101 111 121 101 111 121 101 111 121 102 112 122 102 112 122 102 112 122 103 113 123 103 113 123 103 113 123 222 232 242 222 232 242 223 233 243 223 233 243 223 233 243 224 234 244 224 234 244 224 234 244 224 234 244 224 234 244 224 234 244 224 234 244 223 233 243 223 233 243 222 232 242 222 232 242 222 232 242 222 232 242 222 232 242 222 232 242 223 233 243 223 233 243 223 233 243 223 233 243 224 234 244 224 234 244 224 234 244 225 235 245 225 235 245 225 235 245 226 236 246 226 236 246 226 236 246 227 237 247 226 236 246 226 236 246 226 236 246 226 236 246 225 235 245 225 235 245 224 234 244 224 234 244 224 234 244 224 234 244 224 234 244 224 234 244 224 234 244 224 234 244 224 234 244 223 233 243 223 233 243 223 233 243 223 233 243 222 232 242 222 232 242 103 113 123 103 113 123 103 113 123 102 112 122 102 112 122 101 111 121 101 111 121 100 110 120 99 109 119 99 109 119 98 108 118 97 107 117 97 107 117 96 106 116 96 106 116 96 106 116 95 105 115 95 105 115 95 105 115 95 105 115 95 105 115 94 104 114 94 104 114 94 104 114 94 104 114 94 104 114 94 104 114 94 104 114 94 104 114 94 104 114 94 104 114 94 104 114 93 103 113 93 103 113 93 103 113 93 103 113 93 103 113 93 103 113 93 103 113 93 103 113 93 103 113 93 103 113 93 103 113 94 104 114 94 104 114 94 104 114 94 104 114 94 104 114 94 104 114 95 105 115 95 105 115 95 105 115 95 105 115 95 105 115 95 105 115 95 105 115 95 105 115 95 105 115 95 105 115 94 104 114 94 104 114 100 110 120 99 109 119 98 108 118 97 107 117 97 107 117 96 106 116 96 106 116 96 106 116 96 106 116 95 105 115 95 105 115 95 105 115 95 105 115 94 104 114 94 104 114 94 104 114 94 104 114 94 104 114 94 104 114 94 104 114 94 104 114 94 104 114 94 104 114 94 104 114 94 104 114 93 103 113 93 103 113 93 103 113 93 103 113 93 103 113 93 103 113 93 103 113 93 103 113 94 104 114 94 104 114 94 104 114 94 104 114 94 104 114 94 104 114 94 104 114 94 104 114 94 104 114 94 104 114 95 105 115 95 105 115 95 105 115 95 105 115 95 105 115 95 105 115 95 105 115 94 104 114 94 104 114 94 104 114 94 104 114 93 103 113 93 103 113 94 104 114 94 104 114 94 104 114 94 104 114 95 105 115 95 105 115 95 105 115 95 105 115 95 105 115 95 105 115 95 105 115 96 106 116 96 106 116 97 107 117 97 107 117 98 108 118 98 108 118 98 108 118 98 108 118 98 108 118 98 108 118 98 108 118 98 108 118 98 108 118 98 108 118 99 109 119 99 109 119 100 110 120 100 110 120 100 110 120 100 110 120 101 111 121 101 111 121 101 111 121 101 111 121 101 111 121 101 111 121 101 111 121 101 111 121 101 111 121 101 111 121 101 111 121 101 111 121 101 111 121 100 110 120 100 110 120 99 109 119 99 109 119 98 108 118 98 108 118 98 108 118 98 108 118 98 108 118 98 108 118 98 108 118 98 108 118 98 108 118 98 108 118 98 108 118 98 108 118 98 108 118 99 109 119 99 109 119 99 109 119 100 110 120 100 110 120 100 110 120 101 111 121 101 111 121 101 111 121 101 111 121 101 111 121 101 111 121 101 111 121 101 111 121 101 111 121 102 112 122 102 112 122 103 113 123 103 113 123 103 113 123 222 232 242 222 232 242 222 232 242 222 232 242 223 233 243 223 233 243 223 233 243 224 234 244 224 234 244 225 235 245 225 235 245 225 235 245 225 235 245 225 235 245 224 234 244 224 234 244 223 233 243 223 233 243 222 232 242 222 232 242 222 232 242 222 232 242 223 233 243 223 233 243 223 233 243 224 234 244 224 234 244 224 234 244 224 234 244 224 234 244 224 234 244 224 234 244 224 234 244 225 235 245 225 235 245 226 236 246 226 236 246 226 236 246 226 236 246 226 236 246 226 236 246 225 235 245 225 235 245 224 234 244 224 234 244 224 234 244 224 234 244 224 234 244 225 235 245 225 235 245 225 235 245 225 235 245 224 234 244 224 234 244 223 233 243 222 232 242 222 232 242 103 113 123 103 113 123 103 113 123 103 113 123 103 113 123 102 112 122 102 112 122 101 111 121 100 110 120 99 109 119 98 108 118 98 108 118 97 107 117 97 107 117 96 106 116 96 106 116 96 106 116 96 106 116 95 105 115 95 105 115 95 105 115 94 104 114 94 104 114 94 104 114 94 104 114 94 104 114 94 104 114 94 104 114 94 104 114 94 104 114 94 104 114 94 104 114 94 104 114 94 104 114 93 103 113 93 103 113 93 103 113 93 103 113 93 103 113 93 103 113 93 103 113 93 103 113 94 104 114 94 104 114 94 104 114 94 104 114 94 104 114 94 104 114 94 104 114 94 104 114 94 104 114 95 105 115 95 105 115 95 105 115 95 105 115 95 105 115 95 105 115 95 105 115 95 105 115 94 104 114 94 104 114 94 104 114 100 110 120 99 109 119 98 108 118 97 107 117 97 107 117 96 106 116 96 106 116 96 106 116 96 106 116 96 106 116 95 105 115 95 105 115 95 105 115 94 104 114 94 104 114 93 103 113 93 103 113 93 103 113 93 103 113 94 104 114 94 104 114 94 104 114 94 104 114 94 104 114 94 104 114 93 103 113 93 103 113 93 103 113 93 103 113 93 103 113 93 103 113 93 103 113 94 104 114 94 104 114 95 105 115 95 105 115 95 105 115 95 105 115 94 104 114 94 104 114 94 104 114 94 104 114 94 104 114 94 104 114 95 105 115 95 105 115 95 105 115 95 105 115 95 105 115 95 105 115 94 104 114 94 104 114 93 103 113 93 103 113 93 103 113 93 103 113 93 103 113 94 104 114 94 104 114 94 104 114 94 104 114 94 104 114 94 104 114 94 104 114 94 104 114 94 104 114 94 104 114 95 105 115 95 105 115 96 106 116 96 106 116 97 107 117 97 107 117 98 108 118 98 108 118 98 108 118 98 108 118 98 108 118 98 108 118 98 108 118 98 108 118 99 109 119 99 109 119 100 110 120 100 110 120 101 111 121 101 111 121 101 111 121 101 111 121 101 111 121 100 110 120 100 110 120 100 110 120 100 110 120 101 111 121 101 111 121 101 111 121 101 111 121 101 111 121 101 111 121 100 110 120 100 110 120 99 109 119 99 109 119 98 108 118 98 108 118 98 108 118 98 108 118 98 108 118 99 109 119 99 109 119 99 109 119 99 109 119 99 109 119 98 108 118 98 108 118 98 108 118 98 108 118 99 109 119 99 109 119 99 109 119 100 110 120 100 110 120 101 111 121 101 111 121 101 111 121 101 111 121 101 111 121 101 111 121 101 111 121 101 111 121 102 112 122 102 112 122 103 113 123 103 113 123 222 232 242 223 233 243 223 233 243 224 234 244 224 234 244 223 233 243 223 233 243 223 233 243 224 234 244 224 234 244 225 235 245 225 235 245 226 236 246 226 236 246 226 236 246 225 235 245 225 235 245 224 234 244 223 233 243 223 233 243 222 232 242 222 232 242 222 232 242 223 233 243 223 233 243 224 234 244 224 234 244 224 234 244 224 234 244 224 234 244 223 233 243 223 233 243 223 233 243 223 233 243 223 233 243 224 234 244 225 235 245 225 235 245 226 236 246 226 236 246 226 236 246 226 236 246 225 235 245 225 235 245 224 234 244 224 234 244 224 234 244 224 234 244 225 235 245 225 235 245 225 235 245 226 236 246 226 236 246 225 235 245 225 235 245 224 234 244 223 233 243 222 232 242 103 113 123 103 113 123 103 113 123 103 113 123 103 113 123 103 113 123 102 112 122 102 112 122 101 111 121 100 110 120 99 109 119 98 108 118 98 108 118 97 107 117 97 107 117 96 106 116 96 106 116 96 106 116 96 106 116 96 106 116 95 105 115 95 105 115 94 104 114 94 104 114 94 104 114 93 103 113 93 103 113 93 103 113 93 103 113 94 104 114 94 104 114 94 104 114 94 104 114 94 104 114 94 104 114 93 103 113 93 103 113 93 103 113 93 103 113 93 103 113 93 103 113 94 104 114 94 104 114 94 104 114 95 105 115 95 105 115 95 105 115 95 105 115 94 104 114 94 104 114 94 104 114 94 104 114 94 104 114 94 104 114 95 105 115 95 105 115 95 105 115 95 105 115 95 105 115 95 105 115 94 104 114 94 104 114 93 103 113 100 110 120 99 109 119 98 108 118 97 107 117 97 107 117 97 107 117 96 106 116 96 106 116 96 106 116 96 106 116 96 106 116 95 105 115 94 104 114 94 104 114 93 103 113 93 103 113 93 103 113 93 103 113 93 103 113 93 103 113 93 103 113 94 104 114 94 104 114 94 104 114 94 104 114 94 104 114 93 103 113 93 103 113 93 103 113 93 103 113 94 104 114 94 104 114 94 104 114 95 105 115 95 105 115 95 105 115 95 105 115 95 105 115 95 105 115 94 104 114 94 104 114 94 104 114 94 104 114 94 104 114 94 104 114 95 105 115 95 105 115 95 105 115 95 105 115 94 104 114 94 104 114 94 104 114 93 103 113 93 103 113 93 103 113 93 103 113 93 103 113 93 103 113 94 104 114 94 104 114 94 104 114 94 104 114 94 104 114 94 104 114 94 104 114 94 104 114 94 104 114 94 104 114 94 104 114 95 105 115 95 105 115 96 106 116 97 107 117 97 107 117 97 107 117 97 107 117 97 107 117 97 107 117 98 108 118 98 108 118 98 108 118 99 109 119 99 109 119 100 110 120 100 110 120 101 111 121 101 111 121 101 111 121 101 111 121 100 110 120 100 110 120 100 110 120 100 110 120 100 110 120 100 110 120 100 110 120 101 111 121 101 111 121 101 111 121 100 110 120 100 110 120 100 110 120 99 109 119 99 109 119 98 108 118 98 108 118 98 108 118 98 108 118 99 109 119 99 109 119 99 109 119 99 109 119 99 109 119 99 109 119 98 108 118 98 108 118 98 108 118 98 108 118 98 108 118 99 109 119 99 109 119 100 110 120 101 111 121 101 111 121 101 111 121 101 111 121 102 112 122 102 112 122 102 112 122 102 112 122 102 112 122 103 113 123 103 113 123 222 232 242 223 233 243 224 234 244 224 234 244 225 235 245 225 235 245 225 235 245 224 234 244 224 234 244 224 234 244 224 234 244 224 234 244 225 235 245 225 235 245 226 236 246 226 236 246 226 236 246 226 236 246 225 235 245 225 235 245 224 234 244 223 233 243 223 233 243 223 233 243 223 233 243 223 233 243 224 234 244 224 234 244 224 234 244 224 234 244 224 234 244 223 233 243 223 233 243 222 232 242 222 232 242 222 232 242 222 232 242 223 233 243 224 234 244 224 234 244 225 235 245 226 236 246 226 236 246 225 235 245 225 235 245 225 235 245 224 234 244 224 234 244 224 234 244 225 235 245 225 235 245 226 236 246 226 236 246 226 236 246 226 236 246 226 236 246 225 235 245 224 234 244 223 233 243 222 232 242 103 113 123 103 113 123 103 113 123 103 113 123 103 113 123 102 112 122 102 112 122 102 112 122 101 111 121 100 110 120 99 109 119 98 108 118 98 108 118 97 107 117 97 107 117 96 106 116 96 106 116 96 106 116 96 106 116 96 106 116 95 105 115 95 105 115 94 104 114 94 104 114 93 103 113 93 103 113 93 103 113 93 103 113 93 103 113 93 103 113 94 104 114 94 104 114 94 104 114 94 104 114 94 104 114 93 103 113 93 103 113 93 103 113 93 103 113 93 103 113 94 104 114 94 104 114 94 104 114 95 105 115 95 105 115 95 105 115 95 105 115 95 105 115 95 105 115 94 104 114 94 104 114 94 104 114 94 104 114 94 104 114 94 104 114 95 105 115 95 105 115 95 105 115 95 105 115 94 104 114 94 104 114 93 103 113 93 103 113 100 110 120 99 109 119 98 108 118 98 108 118 97 107 117 97 107 117 97 107 117 96 106 116 96 106 116 96 106 116 96 106 116 95 105 115 94 104 114 94 104 114 93 103 113 93 103 113 93 103 113 93 103 113 93 103 113 93 103 113 93 103 113 93 103 113 94 104 114 94 104 114 94 104 114 94 104 114 94 104 114 93 103 113 94 104 114 94 104 114 94 104 114 94 104 114 95 105 115 95 105 115 95 105 115 95 105 115 95 105 115 95 105 115 95 105 115 94 104 114 94 104 114 94 104 114 94 104 114 94 104 114 94 104 114 94 104 114 94 104 114 94 104 114 94 104 114 94 104 114 94 104 114 93 103 113 93 103 113 93 103 113 93 103 113 93 103 113 93 103 113 93 103 113 93 103 113 94 104 114 94 104 114 94 104 114 93 103 113 93 103 113 93 103 113 93 103 113 93 103 113 93 103 113 94 104 114 94 104 114 95 105 115 95 105 115 96 106 116 96 106 116 97 107 117 97 107 117 97 107 117 97 107 117 97 107 117 98 108 118 98 108 118 99 109 119 99 109 119 100 110 120 100 110 120 101 111 121 101 111 121 101 111 121 101 111 121 100 110 120 100 110 120 100 110 120 100 110 120 100 110 120 100 110 120 100 110 120 100 110 120 100 110 120 100 110 120 100 110 120 100 110 120 100 110 120 99 109 119 99 109 119 99 109 119 99 109 119 99 109 119 99 109 119 99 109 119 99 109 119 99 109 119 99 109 119 99 109 119 99 109 119 99 109 119 98 108 118 98 108 118 98 108 118 98 108 118 99 109 119 99 109 119 100 110 120 100 110 120 101 111 121 101 111 121 102 112 122 102 112 122 102 112 122 102 112 122 103 113 123 103 113 123 103 113 123 222 232 242 223 233 243 224 234 244 225 235 245 226 236 246 226 236 246 226 236 246 226 236 246 225 235 245 225 235 245 225 235 245 225 235 245 225 235 245 225 235 245 226 236 246 226 236 246 226 236 246 226 236 246 226 236 246 226 236 246 225 235 245 224 234 244 224 234 244 223 233 243 223 233 243 224 234 244 224 234 244 224 234 244 224 234 244 224 234 244 224 234 244 224 234 244 223 233 243 223 233 243 222 232 242 222 232 242 222 232 242 222 232 242 222 232 242 223 233 243 224 234 244 224 234 244 225 235 245 225 235 245 225 235 245 225 235 245 225 235 245 225 235 245 225 235 245 225 235 245 225 235 245 226 236 246 226 236 246 227 237 247 227 237 247 226 236 246 226 236 246 225 235 245 224 234 244 223 233 243 222 232 242 103 113 123 103 113 123 103 113 123 103 113 123 102 112 122 102 112 122 102 112 122 101 111 121 101 111 121 100 110 120 99 109 119 99 109 119 98 108 118 97 107 117 97 107 117 97 107 117 97 107 117 96 106 116 96 106 116 96 106 116 95 105 115 95 105 115 94 104 114 94 104 114 93 103 113 93 103 113 93 103 113 93 103 113 93 103 113 93 103 113 93 103 113 94 104 114 94 104 114 94 104 114 94 104 114 94 104 114 93 103 113 93 103 113 94 104 114 94 104 114 94 104 114 95 105 115 95 105 115 95 105 115 95 105 115 95 105 115 95 105 115 95 105 115 95 105 115 94 104 114 94 104 114 94 104 114 94 104 114 94 104 114 94 104 114 94 104 114 94 104 114 94 104 114 94 104 114 94 104 114 94 104 114 93 103 113 93 103 113 100 110 120 99 109 119 98 108 118 98 108 118 97 107 117 97 107 117 97 107 117 97 107 117 96 106 116 96 106 116 95 105 115 95 105 115 94 104 114 94 104 114 93 103 113 93 103 113 93 103 113 92 102 112 92 102 112 93 103 113 93 103 113 93 103 113 93 103 113 93 103 113 94 104 114 94 104 114 94 104 114 94 104 114 94 104 114 94 104 114 95 105 115 95 105 115 95 105 115 95 105 115 96 106 116 96 106 116 96 106 116 95 105 115 95 105 115 95 105 115 94 104 114 94 104 114 94 104 114 94 104 114 94 104 114 94 104 114 94 104 114 94 104 114 94 104 114 94 104 114 93 103 113 93 103 113 93 103 113 93 103 113 93 103 113 93 103 113 93 103 113 93 103 113 93 103 113 93 103 113 93 103 113 93 103 113 93 103 113 93 103 113 93 103 113 92 102 112 92 102 112 93 103 113 93 103 113 93 103 113 94 104 114 94 104 114 95 105 115 95 105 115 96 106 116 96 106 116 97 107 117 97 107 117 97 107 117 98 108 118 98 108 118 99 109 119 99 109 119 100 110 120 100 110 120 101 111 121 101 111 121 101 111 121 100 110 120 100 110 120 100 110 120 100 110 120 100 110 120 100 110 120 100 110 120 100 110 120 100 110 120 100 110 120 100 110 120 100 110 120 100 110 120 100 110 120 99 109 119 99 109 119 99 109 119 99 109 119 99 109 119 99 109 119 99 109 119 99 109 119 99 109 119 99 109 119 99 109 119 99 109 119 99 109 119 98 108 118 98 108 118 98 108 118 99 109 119 99 109 119 99 109 119 100 110 120 100 110 120 101 111 121 101 111 121 102 112 122 102 112 122 103 113 123 103 113 123 103 113 123 222 232 242 223 233 243 224 234 244 225 235 245 226 236 246 226 236 246 227 237 247 227 237 247 227 237 247 227 237 247 226 236 246 226 236 246 226 236 246 226 236 246 226 236 246 226 236 246 226 236 246 226 236 246 226 236 246 226 236 246 226 236 246 226 236 246 225 235 245 225 235 245 225 235 245 224 234 244 224 234 244 224 234 244 224 234 244 224 234 244 224 234 244 224 234 244 224 234 244 224 234 244 223 233 243 222 232 242 222 232 242 103 113 123 103 113 123 103 113 123 222 232 242 222 232 242 223 233 243 223 233 243 224 234 244 224 234 244 225 235 245 225 235 245 225 235 245 225 235 245 225 235 245 225 235 245 226 236 246 226 236 246 227 237 247 227 237 247 227 237 247 227 237 247 226 236 246 225 235 245 224 234 244 223 233 243 222 232 242 103 113 123 103 113 123 103 113 123 102 112 122 102 112 122 102 112 122 101 111 121 101 111 121 101 111 121 100 110 120 99 109 119 99 109 119 98 108 118 98 108 118 97 107 117 97 107 117 97 107 117 96 106 116 96 106 116 96 106 116 95 105 115 95 105 115 94 104 114 94 104 114 93 103 113 93 103 113 92 102 112 92 102 112 93 103 113 93 103 113 93 103 113 93 103 113 93 103 113 94 104 114 94 104 114 94 104 114 94 104 114 94 104 114 94 104 114 94 104 114 95 105 115 95 105 115 95 105 115 96 106 116 96 106 116 96 106 116 95 105 115 95 105 115 95 105 115 94 104 114 94 104 114 94 104 114 94 104 114 94 104 114 94 104 114 94 104 114 94 104 114 94 104 114 94 104 114 94 104 114 93 103 113 93 103 113 93 103 113 100 110 120 99 109 119 99 109 119 98 108 118 98 108 118 97 107 117 97 107 117 97 107 117 96 106 116 96 106 116 95 105 115 95 105 115 94 104 114 94 104 114 93 103 113 93 103 113 93 103 113 92 102 112 92 102 112 92 102 112 93 103 113 93 103 113 93 103 113 93 103 113 93 103 113 94 104 114 94 104 114 94 104 114 95 105 115 95 105 115 95 105 115 95 105 115 96 106 116 96 106 116 96 106 116 96 106 116 96 106 116 95 105 115 95 105 115 95 105 115 94 104 114 94 104 114 94 104 114 94 104 114 94 104 114 94 104 114 93 103 113 93 103 113 93 103 113 93 103 113 93 103 113 93 103 113 93 103 113 93 103 113 93 103 113 93 103 113 93 103 113 93 103 113 93 103 113 93 103 113 93 103 113 92 102 112 92 102 112 92 102 112 92 102 112 92 102 112 92 102 112 92 102 112 92 102 112 93 103 113 93 103 113 93 103 113 94 104 114 95 105 115 95 105 115 96 106 116 96 106 116 97 107 117 97 107 117 98 108 118 98 108 118 99 109 119 99 109 119 100 110 120 100 110 120 100 110 120 100 110 120 100 110 120 100 110 120 100 110 120 100 110 120 100 110 120 100 110 120 100 110 120 100 110 120 100 110 120 100 110 120 100 110 120 100 110 120 100 110 120 100 110 120 100 110 120 99 109 119 99 109 119 99 109 119 99 109 119 99 109 119 99 109 119 99 109 119 99 109 119 99 109 119 99 109 119 99 109 119 99 109 119 99 109 119 99 109 119 99 109 119 99 109 119 99 109 119 99 109 119 99 109 119 100 110 120 100 110 120 101 111 121 101 111 121 102 112 122 102 112 122 103 113 123 222 232 242 223 233 243 224 234 244 224 234 244 225 235 245 226 236 246 227 237 247 227 237 247 228 238 248 228 238 248 228 238 248 228 238 248 227 237 247 227 237 247 227 237 247 226 236 246 226 236 246 226 236 246 226 236 246 226 236 246 226 236 246 226 236 246 226 236 246 226 236 246 226 236 246 226 236 246 225 235 245 225 235 245 225 235 245 225 235 245 225 235 245 225 235 245 224 234 244 224 234 244 224 234 244 223 233 243 223 233 243 222 232 242 222 232 242 103 113 123 103 113 123 103 113 123 103 113 123 222 232 242 222 232 242 222 232 242 223 233 243 223 233 243 224 234 244 224 234 244 225 235 245 225 235 245 226 236 246 226 236 246 226 236 246 227 237 247 227 237 247 227 237 247 227 237 247 226 236 246 226 236 246 225 235 245 224 234 244 223 233 243 222 232 242 222 232 242 103 113 123 103 113 123 102 112 122 102 112 122 101 111 121 101 111 121 101 111 121 100 110 120 100 110 120 99 109 119 99 109 119 98 108 118 98 108 118 98 108 118 97 107 117 97 107 117 97 107 117 96 106 116 96 106 116 95 105 115 95 105 115 94 104 114 94 104 114 93 103 113 93 103 113 93 103 113 92 102 112 92 102 112 92 102 112 93 103 113 93 103 113 93 103 113 93 103 113 94 104 114 94 104 114 94 104 114 94 104 114 95 105 115 95 105 115 95 105 115 95 105 115 96 106 116 96 106 116 96 106 116 96 106 116 96 106 116 95 105 115 95 105 115 95 105 115 94 104 114 94 104 114 94 104 114 94 104 114 94 104 114 94 104 114 93 103 113 93 103 113 93 103 113 93 103 113 93 103 113 93 103 113 93 103 113 100 110 120 99 109 119 99 109 119 99 109 119 98 108 118 98 108 118 97 107 117 97 107 117 96 106 116 96 106 116 95 105 115 95 105 115 94 104 114 94 104 114 93 103 113 93 103 113 93 103 113 93 103 113 92 102 112 92 102 112 92 102 112 92 102 112 93 103 113 93 103 113 93 103 113 94 104 114 94 104 114 95 105 115 95 105 115 95 105 115 96 106 116 96 106 116 96 106 116 96 106 116 96 106 116 96 106 116 96 106 116 95 105 115 95 105 115 95 105 115 95 105 115 94 104 114 94 104 114 94 104 114 93 103 113 93 103 113 93 103 113 93 103 113 93 103 113 93 103 113 93 103 113 93 103 113 93 103 113 93 103 113 93 103 113 93 103 113 93 103 113 93 103 113 92 102 112 92 102 112 92 102 112 92 102 112 92 102 112 92 102 112 92 102 112 92 102 112 92 102 112 92 102 112 92 102 112 92 102 112 92 102 112 93 103 113 93 103 113 94 104 114 94 104 114 95 105 115 96 106 116 96 106 116 97 107 117 98 108 118 98 108 118 99 109 119 99 109 119 100 110 120 100 110 120 100 110 120 100 110 120 100 110 120 100 110 120 100 110 120 100 110 120 100 110 120 100 110 120 100 110 120 99 109 119 99 109 119 99 109 119 99 109 119 99 109 119 99 109 119 99 109 119 99 109 119 100 110 120 100 110 120 100 110 120 100 110 120 100 110 120 100 110 120 100 110 120 100 110 120 99 109 119 99 109 119 99 109 119 99 109 119 99 109 119 99 109 119 99 109 119 99 109 119 99 109 119 99 109 119 100 110 120 100 110 120 100 110 120 101 111 121 101 111 121 102 112 122 103 113 123 222 232 242 223 233 243 224 234 244 225 235 245 226 236 246 227 237 247 227 237 247 228 238 248 228 238 248 228 238 248 228 238 248 228 238 248 228 238 248 228 238 248 228 238 248 228 238 248 227 237 247 227 237 247 227 237 247 226 236 246 226 236 246 226 236 246 226 236 246 226 236 246 226 236 246 226 236 246 226 236 246 226 236 246 226 236 246 226 236 246 226 236 246 225 235 245 225 235 245 224 234 244 224 234 244 223 233 243 223 233 243 222 232 242 222 232 242 222 232 242 103 113 123 103 113 123 103 113 123 103 113 123 103 113 123 103 113 123 103 113 123 222 232 242 223 233 243 223 233 243 224 234 244 225 235 245 226 236 246 226 236 246 227 237 247 227 237 247 227 237 247 227 237 247 227 237 247 227 237 247 226 236 246 226 236 246 225 235 245 224 234 244 224 234 244 223 233 243 222 232 242 103 113 123 103 113 123 102 112 122 102 112 122 101 111 121 101 111 121 100 110 120 100 110 120 100 110 120 99 109 119 99 109 119 99 109 119 98 108 118 98 108 118 98 108 118 97 107 117 97 107 117 96 106 116 96 106 116 95 105 115 95 105 115 94 104 114 94 104 114 93 103 113 93 103 113 93 103 113 92 102 112 92 102 112 92 102 112 92 102 112 92 102 112 93 103 113 93 103 113 93 103 113 94 104 114 94 104 114 95 105 115 95 105 115 95 105 115 96 106 116 96 106 116 96 106 116 96 106 116 96 106 116 96 106 116 96 106 116 95 105 115 95 105 115 95 105 115 95 105 115 94 104 114 94 104 114 94 104 114 93 103 113 93 103 113 93 103 113 93 103 113 93 103 113 93 103 113 93 103 113 93 103 113 93 103 113 100 110 120 99 109 119 99 109 119 99 109 119 99 109 119 98 108 118 98 108 118 97 107 117 96 106 116 96 106 116 95 105 115 95 105 115 94 104 114 94 104 114 94 104 114 93 103 113 93 103 113 93 103 113 92 102 112 92 102 112 92 102 112 92 102 112 92 102 112 93 103 113 93 103 113 94 104 114 94 104 114 95 105 115 96 106 116 96 106 116 96 106 116 96 106 116 96 106 116 96 106 116 96 106 116 96 106 116 96 106 116 95 105 115 95 105 115 95 105 115 95 105 115 95 105 115 94 104 114 94 104 114 93 103 113 93 103 113 93 103 113 92 102 112 92 102 112 92 102 112 93 103 113 93 103 113 93 103 113 93 103 113 93 103 113 93 103 113 93 103 113 92 102 112 92 102 112 92 102 112 91 101 111 91 101 111 91 101 111 91 101 111 91 101 111 91 101 111 91 101 111 91 101 111 91 101 111 91 101 111 92 102 112 92 102 112 92 102 112 93 103 113 94 104 114 94 104 114 95 105 115 96 106 116 97 107 117 98 108 118 98 108 118 99 109 119 99 109 119 99 109 119 99 109 119 100 110 120 100 110 120 100 110 120 100 110 120 100 110 120 100 110 120 100 110 120 100 110 120 100 110 120 99 109 119 99 109 119 99 109 119 99 109 119 99 109 119 99 109 119 99 109 119 99 109 119 100 110 120 100 110 120 100 110 120 100 110 120 100 110 120 100 110 120 100 110 120 100 110 120 99 109 119 99 109 119 99 109 119 99 109 119 99 109 119 99 109 119 99 109 119 99 109 119 100 110 120 100 110 120 100 110 120 100 110 120 100 110 120 101 111 121 101 111 121 102 112 122 103 113 123 222 232 242 224 234 244 225 235 245 227 237 247 227 237 247 228 238 248 229 239 249 229 239 249 229 239 249 229 239 249 229 239 249 229 239 249 229 239 249 229 239 249 229 239 249 229 239 249 228 238 248 228 238 248 227 237 247 227 237 247 226 236 246 226 236 246 226 236 246 226 236 246 226 236 246 226 236 246 227 237 247 227 237 247 227 237 247 227 237 247 226 236 246 226 236 246 225 235 245 224 234 244 224 234 244 223 233 243 223 233 243 222 232 242 222 232 242 222 232 242 103 113 123 103 113 123 103 113 123 103 113 123 103 113 123 103 113 123 103 113 123 103 113 123 222 232 242 223 233 243 224 234 244 225 235 245 226 236 246 227 237 247 227 237 247 227 237 247 227 237 247 227 237 247 227 237 247 226 236 246 226 236 246 225 235 245 225 235 245 224 234 244 224 234 244 223 233 243 222 232 242 103 113 123 103 113 123 102 112 122 101 111 121 101 111 121 100 110 120 100 110 120 100 110 120 100 110 120 99 109 119 99 109 119 99 109 119 99 109 119 98 108 118 98 108 118 97 107 117 97 107 117 96 106 116 95 105 115 95 105 115 94 104 114 94 104 114 94 104 114 93 103 113 93 103 113 93 103 113 93 103 113 92 102 112 92 102 112 92 102 112 92 102 112 92 102 112 93 103 113 93 103 113 94 104 114 95 105 115 95 105 115 96 106 116 96 106 116 96 106 116 96 106 116 96 106 116 96 106 116 96 106 116 96 106 116 95 105 115 95 105 115 95 105 115 95 105 115 95 105 115 94 104 114 94 104 114 94 104 114 93 103 113 93 103 113 93 103 113 92 102 112 92 102 112 92 102 112 93 103 113 93 103 113 93 103 113 100 110 120 100 110 120 99 109 119 99 109 119 99 109 119 98 108 118 98 108 118 97 107 117 96 106 116 96 106 116 95 105 115 95 105 115 94 104 114 94 104 114 94 104 114 93 103 113 93 103 113 93 103 113 92 102 112 92 102 112 92 102 112 92 102 112 92 102 112 93 103 113 93 103 113 94 104 114 95 105 115 95 105 115 96 106 116 96 106 116 96 106 116 96 106 116 96 106 116 96 106 116 96 106 116 96 106 116 96 106 116 95 105 115 95 105 115 95 105 115 95 105 115 95 105 115 94 104 114 94 104 114 93 103 113 93 103 113 92 102 112 92 102 112 92 102 112 92 102 112 92 102 112 93 103 113 93 103 113 93 103 113 93 103 113 93 103 113 93 103 113 92 102 112 92 102 112 91 101 111 91 101 111 91 101 111 91 101 111 91 101 111 91 101 111 91 101 111 91 101 111 91 101 111 91 101 111 91 101 111 91 101 111 91 101 111 92 102 112 92 102 112 93 103 113 94 104 114 95 105 115 96 106 116 97 107 117 98 108 118 98 108 118 99 109 119 99 109 119 99 109 119 99 109 119 99 109 119 99 109 119 99 109 119 100 110 120 100 110 120 100 110 120 100 110 120 100 110 120 99 109 119 99 109 119 99 109 119 99 109 119 98 108 118 98 108 118 99 109 119 99 109 119 99 109 119 100 110 120 100 110 120 100 110 120 101 111 121 101 111 121 100 110 120 100 110 120 100 110 120 99 109 119 99 109 119 99 109 119 99 109 119 99 109 119 100 110 120 100 110 120 100 110 120 100 110 120 100 110 120 100 110 120 100 110 120 100 110 120 101 111 121 102 112 122 102 112 122 103 113 123 223 233 243 225 235 245 227 237 247 228 238 248 229 239 249 229 239 249 230 240 250 230 240 250 230 240 250 230 240 250 230 240 250 230 240 250 230 240 250 230 240 250 230 240 250 230 240 250 229 239 249 229 239 249 228 238 248 227 237 247 226 236 246 226 236 246 226 236 246 226 236 246 226 236 246 227 237 247 227 237 247 228 238 248 228 238 248 227 237 247 227 237 247 226 236 246 225 235 245 224 234 244 223 233 243 223 233 243 222 232 242 222 232 242 222 232 242 222 232 242 103 113 123 103 113 123 103 113 123 103 113 123 103 113 123 103 113 123 103 113 123 103 113 123 103 113 123 222 232 242 223 233 243 225 235 245 226 236 246 227 237 247 227 237 247 228 238 248 227 237 247 227 237 247 227 237 247 226 236 246 225 235 245 225 235 245 225 235 245 224 234 244 224 234 244 223 233 243 222 232 242 103 113 123 103 113 123 102 112 122 101 111 121 100 110 120 100 110 120 100 110 120 100 110 120 99 109 119 100 110 120 100 110 120 99 109 119 99 109 119 99 109 119 98 108 118 97 107 117 97 107 117 96 106 116 95 105 115 95 105 115 94 104 114 94 104 114 94 104 114 94 104 114 93 103 113 93 103 113 93 103 113 92 102 112 92 102 112 92 102 112 92 102 112 92 102 112 93 103 113 93 103 113 94 104 114 95 105 115 96 106 116 96 106 116 96 106 116 96 106 116 96 106 116 96 106 116 96 106 116 96 106 116 96 106 116 95 105 115 95 105 115 95 105 115 95 105 115 95 105 115 95 105 115 94 104 114 94 104 114 93 103 113 93 103 113 92 102 112 92 102 112 92 102 112 92 102 112 92 102 112 93 103 113 93 103 113 100 110 120 100 110 120 100 110 120 99 109 119 99 109 119 98 108 118 98 108 118 97 107 117 96 106 116 96 106 116 95 105 115 95 105 115 94 104 114 94 104 114 94 104 114 94 104 114 93 103 113 93 103 113 93 103 113 92 102 112 92 102 112 92 102 112 92 102 112 93 103 113 93 103 113 94 104 114 95 105 115 96 106 116 96 106 116 97 107 117 97 107 117 97 107 117 96 106 116 96 106 116 96 106 116 96 106 116 96 106 116 95 105 115 95 105 115 95 105 115 95 105 115 95 105 115 94 104 114 94 104 114 93 103 113 93 103 113 92 102 112 92 102 112 92 102 112 92 102 112 92 102 112 92 102 112 93 103 113 93 103 113 93 103 113 93 103 113 92 102 112 92 102 112 91 101 111 91 101 111 91 101 111 90 100 110 90 100 110 90 100 110 90 100 110 90 100 110 91 101 111 91 101 111 90 100 110 90 100 110 90 100 110 91 101 111 91 101 111 92 102 112 92 102 112 93 103 113 94 104 114 96 106 116 97 107 117 97 107 117 98 108 118 98 108 118 99 109 119 99 109 119 99 109 119 99 109 119 99 109 119 99 109 119 99 109 119 99 109 119 100 110 120 100 110 120 100 110 120 99 109 119 99 109 119 99 109 119 98 108 118 98 108 118 98 108 118 98 108 118 99 109 119 99 109 119 100 110 120 100 110 120 101 111 121 101 111 121 101 111 121 101 111 121 100 110 120 100 110 120 100 110 120 99 109 119 99 109 119 99 109 119 100 110 120 100 110 120 100 110 120 100 110 120 100 110 120 100 110 120 100 110 120 100 110 120 101 111 121 101 111 121 102 112 122 103 113 123 222 232 242 224 234 244 226 236 246 227 237 247 229 239 249 230 240 250 230 240 250 230 240 250 230 240 250 230 240 250 230 240 250 230 240 250 230 240 250 231 241 251 231 241 251 231 241 251 230 240 250 230 240 250 229 239 249 228 238 248 228 238 248 227 237 247 226 236 246 226 236 246 226 236 246 227 237 247 227 237 247 228 238 248 228 238 248 228 238 248 228 238 248 227 237 247 226 236 246 225 235 245 224 234 244 223 233 243 223 233 243 222 232 242 222 232 242 222 232 242 222 232 242 103 113 123 103 113 123 103 113 123 103 113 123 102 112 122 102 112 122 102 112 122 103 113 123 103 113 123 222 232 242 223 233 243 224 234 244 226 236 246 227 237 247 227 237 247 228 238 248 227 237 247 227 237 247 226 236 246 226 236 246 225 235 245 225 235 245 224 234 244 224 234 244 224 234 244 223 233 243 222 232 242 103 113 123 103 113 123 102 112 122 101 111 121 100 110 120 100 110 120 100 110 120 99 109 119 99 109 119 100 110 120 100 110 120 100 110 120 99 109 119 99 109 119 98 108 118 98 108 118 97 107 117 96 106 116 95 105 115 95 105 115 94 104 114 94 104 114 94 104 114 94 104 114 94 104 114 93 103 113 93 103 113 93 103 113 92 102 112 92 102 112 92 102 112 92 102 112 93 103 113 94 104 114 94 104 114 95 105 115 96 106 116 96 106 116 97 107 117 97 107 117 97 107 117 96 106 116 96 106 116 96 106 116 96 106 116 95 105 115 95 105 115 95 105 115 95 105 115 95 105 115 95 105 115 94 104 114 94 104 114 93 103 113 92 102 112 92 102 112 92 102 112 92 102 112 92 102 112 92 102 112 92 102 112 93 103 113 100 110 120 100 110 120 100 110 120 99 109 119 99 109 119 99 109 119 98 108 118 97 107 117 96 106 116 96 106 116 95 105 115 95 105 115 94 104 114 94 104 114 94 104 114 94 104 114 93 103 113 93 103 113 93 103 113 92 102 112 92 102 112 92 102 112 92 102 112 93 103 113 93 103 113 94 104 114 95 105 115 96 106 116 96 106 116 97 107 117 97 107 117 97 107 117 97 107 117 96 106 116 96 106 116 96 106 116 96 106 116 95 105 115 95 105 115 95 105 115 95 105 115 95 105 115 94 104 114 94 104 114 93 103 113 92 102 112 92 102 112 92 102 112 92 102 112 92 102 112 92 102 112 92 102 112 92 102 112 93 103 113 93 103 113 92 102 112 92 102 112 92 102 112 91 101 111 91 101 111 90 100 110 90 100 110 90 100 110 90 100 110 90 100 110 90 100 110 90 100 110 90 100 110 90 100 110 90 100 110 90 100 110 90 100 110 91 101 111 91 101 111 92 102 112 93 103 113 94 104 114 95 105 115 96 106 116 97 107 117 98 108 118 98 108 118 98 108 118 98 108 118 98 108 118 98 108 118 99 109 119 99 109 119 99 109 119 99 109 119 99 109 119 99 109 119 99 109 119 99 109 119 99 109 119 99 109 119 98 108 118 98 108 118 98 108 118 98 108 118 99 109 119 99 109 119 100 110 120 100 110 120 101 111 121 101 111 121 101 111 121 101 111 121 100 110 120 100 110 120 100 110 120 100 110 120 100 110 120 100 110 120 100 110 120 100 110 120 100 110 120 100 110 120 101 111 121 101 111 121 101 111 121 101 111 121 101 111 121 102 112 122 102 112 122 103 113 123 223 233 243 225 235 245 227 237 247 228 238 248 229 239 249 230 240 250 231 241 251 231 241 251 231 241 251 231 241 251 231 241 251 231 241 251 231 241 251 231 241 251 231 241 251 231 241 251 231 241 251 231 241 251 230 240 250 229 239 249 228 238 248 227 237 247 227 237 247 227 237 247 227 237 247 227 237 247 228 238 248 228 238 248 228 238 248 228 238 248 228 238 248 227 237 247 227 237 247 225 235 245 224 234 244 224 234 244 223 233 243 222 232 242 222 232 242 222 232 242 222 232 242 103 113 123 103 113 123 103 113 123 103 113 123 102 112 122 102 112 122 102 112 122 102 112 122 103 113 123 222 232 242 223 233 243 224 234 244 225 235 245 226 236 246 227 237 247 227 237 247 227 237 247 227 237 247 226 236 246 225 235 245 225 235 245 224 234 244 224 234 244 224 234 244 223 233 243 223 233 243 222 232 242 103 113 123 102 112 122 102 112 122 101 111 121 100 110 120 100 110 120 100 110 120 99 109 119 99 109 119 100 110 120 100 110 120 100 110 120 99 109 119 99 109 119 98 108 118 98 108 118 97 107 117 96 106 116 95 105 115 95 105 115 95 105 115 94 104 114 94 104 114 94 104 114 94 104 114 93 103 113 93 103 113 93 103 113 92 102 112 92 102 112 92 102 112 93 103 113 93 103 113 94 104 114 94 104 114 95 105 115 96 106 116 96 106 116 97 107 117 97 107 117 97 107 117 96 106 116 96 106 116 96 106 116 96 106 116 96 106 116 95 105 115 95 105 115 95 105 115 95 105 115 95 105 115 94 104 114 93 103 113 93 103 113 92 102 112 92 102 112 92 102 112 92 102 112 92 102 112 92 102 112 92 102 112 92 102 112 100 110 120 99 109 119 99 109 119 99 109 119 99 109 119 98 108 118 98 108 118 97 107 117 96 106 116 96 106 116 95 105 115 95 105 115 95 105 115 94 104 114 94 104 114 94 104 114 94 104 114 93 103 113 93 103 113 93 103 113 93 103 113 93 103 113 93 103 113 93 103 113 94 104 114 94 104 114 95 105 115 96 106 116 96 106 116 97 107 117 97 107 117 97 107 117 97 107 117 96 106 116 96 106 116 96 106 116 96 106 116 95 105 115 95 105 115 95 105 115 95 105 115 95 105 115 94 104 114 94 104 114 93 103 113 92 102 112 92 102 112 92 102 112 92 102 112 92 102 112 92 102 112 92 102 112 92 102 112 92 102 112 92 102 112 92 102 112 92 102 112 91 101 111 91 101 111 90 100 110 90 100 110 90 100 110 90 100 110 90 100 110 90 100 110 90 100 110 90 100 110 90 100 110 90 100 110 90 100 110 90 100 110 90 100 110 90 100 110 91 101 111 92 102 112 93 103 113 94 104 114 95 105 115 96 106 116 96 106 116 97 107 117 97 107 117 98 108 118 98 108 118 98 108 118 98 108 118 98 108 118 98 108 118 99 109 119 99 109 119 99 109 119 99 109 119 99 109 119 99 109 119 99 109 119 98 108 118 98 108 118 98 108 118 98 108 118 99 109 119 99 109 119 99 109 119 100 110 120 100 110 120 101 111 121 101 111 121 101 111 121 101 111 121 101 111 121 100 110 120 100 110 120 100 110 120 100 110 120 100 110 120 100 110 120 100 110 120 101 111 121 101 111 121 101 111 121 101 111 121 101 111 121 101 111 121 102 112 122 102 112 122 103 113 123 222 232 242 224 234 244 225 235 245 227 237 247 229 239 249 230 240 250 231 241 251 231 241 251 232 242 252 232 242 252 232 242 252 232 242 252 232 242 252 232 242 252 232 242 252 232 242 252 232 242 252 231 241 251 231 241 251 230 240 250 229 239 249 229 239 249 228 238 248 228 238 248 227 237 247 227 237 247 228 238 248 228 238 248 228 238 248 228 238 248 228 238 248 228 238 248 227 237 247 227 237 247 226 236 246 225 235 245 224 234 244 223 233 243 222 232 242 222 232 242 222 232 242 103 113 123 103 113 123 103 113 123 103 113 123 103 113 123 102 112 122 102 112 122 102 112 122 103 113 123 103 113 123 222 232 242 223 233 243 224 234 244 225 235 245 226 236 246 226 236 246 227 237 247 227 237 247 226 236 246 226 236 246 225 235 245 225 235 245 224 234 244 224 234 244 223 233 243 223 233 243 222 232 242 222 232 242 103 113 123 102 112 122 102 112 122 101 111 121 100 110 120 100 110 120 100 110 120 100 110 120 99 109 119 100 110 120 99 109 119 99 109 119 99 109 119 99 109 119 98 108 118 98 108 118 97 107 117 96 106 116 96 106 116 95 105 115 95 105 115 94 104 114 94 104 114 94 104 114 94 104 114 93 103 113 93 103 113 93 103 113 93 103 113 93 103 113 93 103 113 93 103 113 93 103 113 94 104 114 95 105 115 95 105 115 96 106 116 96 106 116 97 107 117 97 107 117 97 107 117 96 106 116 96 106 116 96 106 116 96 106 116 96 106 116 95 105 115 95 105 115 95 105 115 95 105 115 94 104 114 94 104 114 93 103 113 93 103 113 92 102 112 92 102 112 92 102 112 92 102 112 92 102 112 92 102 112 92 102 112 92 102 112 100 110 120 99 109 119 99 109 119 99 109 119 99 109 119 98 108 118 98 108 118 97 107 117 97 107 117 96 106 116 96 106 116 95 105 115 95 105 115 94 104 114 94 104 114 94 104 114 94 104 114 93 103 113 93 103 113 93 103 113 93 103 113 93 103 113 93 103 113 94 104 114 94 104 114 95 105 115 95 105 115 96 106 116 96 106 116 96 106 116 96 106 116 97 107 117 96 106 116 96 106 116 96 106 116 96 106 116 96 106 116 96 106 116 95 105 115 95 105 115 95 105 115 94 104 114 94 104 114 93 103 113 93 103 113 93 103 113 92 102 112 92 102 112 92 102 112 92 102 112 92 102 112 92 102 112 92 102 112 92 102 112 92 102 112 91 101 111 91 101 111 91 101 111 91 101 111 90 100 110 90 100 110 90 100 110 89 99 109 89 99 109 89 99 109 89 99 109 89 99 109 89 99 109 89 99 109 89 99 109 90 100 110 90 100 110 90 100 110 91 101 111 92 102 112 92 102 112 93 103 113 94 104 114 95 105 115 96 106 116 96 106 116 97 107 117 97 107 117 97 107 117 98 108 118 98 108 118 98 108 118 98 108 118 98 108 118 98 108 118 99 109 119 99 109 119 99 109 119 99 109 119 98 108 118 98 108 118 98 108 118 98 108 118 98 108 118 99 109 119 99 109 119 99 109 119 100 110 120 100 110 120 100 110 120 101 111 121 101 111 121 101 111 121 101 111 121 101 111 121 100 110 120 100 110 120 100 110 120 100 110 120 101 111 121 101 111 121 101 111 121 101 111 121 101 111 121 101 111 121 102 112 122 102 112 122 102 112 122 103 113 123 222 232 242 223 233 243 224 234 244 226 236 246 227 237 247 229 239 249 230 240 250 231 241 251 232 242 252 232 242 252 232 242 252 232 242 252 233 243 253 233 243 253 233 243 253 232 242 252 232 242 252 232 242 252 232 242 252 231 241 251 231 241 251 230 240 250 229 239 249 229 239 249 228 238 248 228 238 248 228 238 248 228 238 248 228 238 248 228 238 248 228 238 248 228 238 248 228 238 248 227 237 247 226 236 246 226 236 246 225 235 245 224 234 244 223 233 243 223 233 243 222 232 242 222 232 242 103 113 123 103 113 123 103 113 123 103 113 123 103 113 123 102 112 122 102 112 122 103 113 123 103 113 123 103 113 123 222 232 242 223 233 243 223 233 243 224 234 244 225 235 245 226 236 246 226 236 246 226 236 246 226 236 246 225 235 245 225 235 245 225 235 245 224 234 244 224 234 244 223 233 243 223 233 243 222 232 242 103 113 123 103 113 123 102 112 122 102 112 122 101 111 121 101 111 121 100 110 120 100 110 120 100 110 120 100 110 120 99 109 119 99 109 119 99 109 119 99 109 119 99 109 119 98 108 118 98 108 118 97 107 117 97 107 117 96 106 116 95 105 115 95 105 115 95 105 115 94 104 114 94 104 114 94 104 114 94 104 114 93 103 113 93 103 113 93 103 113 93 103 113 93 103 113 93 103 113 94 104 114 94 104 114 95 105 115 95 105 115 96 106 116 96 106 116 96 106 116 97 107 117 97 107 117 96 106 116 96 106 116 96 106 116 96 106 116 96 106 116 95 105 115 95 105 115 95 105 115 95 105 115 94 104 114 94 104 114 93 103 113 93 103 113 92 102 112 92 102 112 92 102 112 92 102 112 92 102 112 92 102 112 92 102 112 92 102 112 100 110 120 99 109 119 99 109 119 99 109 119 98 108 118 98 108 118 98 108 118 97 107 117 97 107 117 96 106 116 96 106 116 96 106 116 95 105 115 95 105 115 94 104 114 94 104 114 94 104 114 94 104 114 93 103 113 93 103 113 94 104 114 94 104 114 94 104 114 94 104 114 94 104 114 95 105 115 95 105 115 95 105 115 96 106 116 96 106 116 96 106 116 96 106 116 96 106 116 96 106 116 96 106 116 96 106 116 96 106 116 96 106 116 95 105 115 95 105 115 94 104 114 94 104 114 94 104 114 93 103 113 93 103 113 93 103 113 92 102 112 92 102 112 92 102 112 92 102 112 92 102 112 91 101 111 91 101 111 91 101 111 91 101 111 91 101 111 91 101 111 90 100 110 90 100 110 90 100 110 90 100 110 90 100 110 89 99 109 89 99 109 89 99 109 89 99 109 89 99 109 89 99 109 89 99 109 89 99 109 89 99 109 90 100 110 90 100 110 91 101 111 91 101 111 92 102 112 93 103 113 93 103 113 94 104 114 95 105 115 95 105 115 96 106 116 97 107 117 97 107 117 97 107 117 98 108 118 98 108 118 98 108 118 98 108 118 98 108 118 98 108 118 98 108 118 98 108 118 98 108 118 98 108 118 98 108 118 98 108 118 99 109 119 99 109 119 99 109 119 99 109 119 99 109 119 100 110 120 100 110 120 100 110 120 100 110 120 100 110 120 101 111 121 101 111 121 101 111 121 101 111 121 101 111 121 101 111 121 101 111 121 101 111 121 101 111 121 101 111 121 101 111 121 101 111 121 102 112 122 102 112 122 103 113 123 103 113 123 222 232 242 223 233 243 224 234 244 225 235 245 227 237 247 228 238 248 229 239 249 230 240 250 231 241 251 232 242 252 232 242 252 233 243 253 233 243 253 233 243 253 233 243 253 233 243 253 233 243 253 233 243 253 232 242 252 232 242 252 231 241 251 231 241 251 231 241 251 230 240 250 230 240 250 230 240 250 229 239 249 229 239 249 229 239 249 228 238 248 228 238 248 228 238 248 228 238 248 227 237 247 227 237 247 226 236 246 226 236 246 225 235 245 225 235 245 224 234 244 223 233 243 222 232 242 222 232 242 103 113 123 103 113 123 103 113 123 103 113 123 103 113 123 103 113 123 103 113 123 103 113 123 103 113 123 103 113 123 222 232 242 222 232 242 223 233 243 224 234 244 224 234 244 224 234 244 225 235 245 225 235 245 225 235 245 225 235 245 225 235 245 225 235 245 224 234 244 223 233 243 223 233 243 222 232 242 103 113 123 103 113 123 102 112 122 102 112 122 102 112 122 101 111 121 101 111 121 101 111 121 100 110 120 100 110 120 100 110 120 99 109 119 99 109 119 99 109 119 99 109 119 98 108 118 98 108 118 98 108 118 97 107 117 97 107 117 96 106 116 96 106 116 95 105 115 95 105 115 95 105 115 94 104 114 94 104 114 94 104 114 93 103 113 93 103 113 93 103 113 94 104 114 94 104 114 94 104 114 94 104 114 95 105 115 95 105 115 95 105 115 96 106 116 96 106 116 96 106 116 96 106 116 96 106 116 96 106 116 96 106 116 96 106 116 96 106 116 96 106 116 95 105 115 95 105 115 95 105 115 94 104 114 94 104 114 94 104 114 93 103 113 93 103 113 93 103 113 92 102 112 92 102 112 92 102 112 92 102 112 92 102 112 91 101 111 91 101 111 100 110 120 99 109 119 99 109 119 98 108 118 98 108 118 98 108 118 98 108 118 97 107 117 97 107 117 97 107 117 96 106 116 96 106 116 95 105 115 95 105 115 94 104 114 94 104 114 94 104 114 94 104 114 94 104 114 94 104 114 94 104 114 94 104 114 95 105 115 95 105 115 95 105 115 95 105 115 95 105 115 95 105 115 95 105 115 96 106 116 96 106 116 96 106 116 96 106 116 96 106 116 96 106 116 96 106 116 96 106 116 96 106 116 95 105 115 95 105 115 94 104 114 94 104 114 93 103 113 93 103 113 93 103 113 93 103 113 93 103 113 92 102 112 92 102 112 92 102 112 92 102 112 91 101 111 91 101 111 91 101 111 90 100 110 90 100 110 90 100 110 90 100 110 90 100 110 90 100 110 90 100 110 89 99 109 89 99 109 89 99 109 89 99 109 88 98 108 88 98 108 88 98 108 89 99 109 89 99 109 89 99 109 90 100 110 90 100 110 91 101 111 91 101 111 92 102 112 92 102 112 93 103 113 93 103 113 94 104 114 95 105 115 95 105 115 96 106 116 96 106 116 97 107 117 97 107 117 98 108 118 98 108 118 98 108 118 98 108 118 98 108 118 98 108 118 98 108 118 98 108 118 98 108 118 98 108 118 99 109 119 99 109 119 99 109 119 99 109 119 99 109 119 99 109 119 100 110 120 100 110 120 100 110 120 100 110 120 100 110 120 100 110 120 101 111 121 101 111 121 101 111 121 101 111 121 101 111 121 101 111 121 101 111 121 101 111 121 101 111 121 102 112 122 102 112 122 102 112 122 103 113 123 103 113 123 222 232 242 223 233 243 224 234 244 225 235 245 226 236 246 227 237 247 228 238 248 229 239 249 230 240 250 231 241 251 232 242 252 232 242 252 233 243 253 234 244 254 234 244 254 234 244 254 234 244 254 233 243 253 233 243 253 232 242 252 232 242 252 232 242 252 231 241 251 231 241 251 231 241 251 231 241 251 231 241 251 230 240 250 230 240 250 229 239 249 229 239 249 228 238 248 228 238 248 227 237 247 227 237 247 226 236 246 226 236 246 226 236 246 225 235 245 225 235 245 224 234 244 224 234 244 223 233 243 222 232 242 103 113 123 103 113 123 103 113 123 103 113 123 103 113 123 103 113 123 103 113 123 103 113 123 103 113 123 222 232 242 222 232 242 222 232 242 222 232 242 223 233 243 223 233 243 223 233 243 224 234 244 224 234 244 224 234 244 225 235 245 225 235 245 224 234 244 224 234 244 223 233 243 222 232 242 103 113 123 103 113 123 103 113 123 102 112 122 102 112 122 102 112 122 101 111 121 101 111 121 101 111 121 101 111 121 100 110 120 100 110 120 99 109 119 99 109 119 99 109 119 98 108 118 98 108 118 98 108 118 97 107 117 97 107 117 97 107 117 97 107 117 96 106 116 96 106 116 95 105 115 95 105 115 94 104 114 94 104 114 94 104 114 94 104 114 94 104 114 94 104 114 94 104 114 94 104 114 95 105 115 95 105 115 95 105 115 95 105 115 95 105 115 95 105 115 95 105 115 96 106 116 96 106 116 96 106 116 96 106 116 96 106 116 96 106 116 96 106 116 96 106 116 95 105 115 95 105 115 95 105 115 94 104 114 94 104 114 93 103 113 93 103 113 93 103 113 93 103 113 93 103 113 92 102 112 92 102 112 92 102 112 91 101 111 91 101 111 91 101 111 100 110 120 99 109 119 98 108 118 98 108 118 98 108 118 98 108 118 97 107 117 97 107 117 97 107 117 97 107 117 97 107 117 96 106 116 96 106 116 95 105 115 95 105 115 94 104 114 94 104 114 94 104 114 94 104 114 94 104 114 95 105 115 95 105 115 95 105 115 95 105 115 95 105 115 95 105 115 95 105 115 95 105 115 95 105 115 95 105 115 95 105 115 96 106 116 96 106 116 96 106 116 96 106 116 96 106 116 96 106 116 96 106 116 95 105 115 94 104 114 94 104 114 94 104 114 93 103 113 93 103 113 93 103 113 93 103 113 93 103 113 93 103 113 92 102 112 92 102 112 92 102 112 91 101 111 91 101 111 90 100 110 90 100 110 90 100 110 90 100 110 90 100 110 90 100 110 90 100 110 90 100 110 89 99 109 89 99 109 89 99 109 88 98 108 88 98 108 88 98 108 88 98 108 88 98 108 89 99 109 89 99 109 90 100 110 91 101 111 91 101 111 91 101 111 92 102 112 92 102 112 92 102 112 93 103 113 93 103 113 94 104 114 94 104 114 95 105 115 96 106 116 96 106 116 97 107 117 97 107 117 97 107 117 97 107 117 97 107 117 97 107 117 97 107 117 97 107 117 98 108 118 98 108 118 98 108 118 99 109 119 99 109 119 99 109 119 100 110 120 100 110 120 100 110 120 99 109 119 99 109 119 100 110 120 100 110 120 100 110 120 100 110 120 101 111 121 101 111 121 101 111 121 102 112 122 102 112 122 102 112 122 102 112 122 102 112 122 102 112 122 102 112 122 102 112 122 103 113 123 103 113 123 223 233 243 224 234 244 225 235 245 226 236 246 227 237 247 227 237 247 228 238 248 228 238 248 229 239 249 230 240 250 231 241 251 232 242 252 233 243 253 233 243 253 234 244 254 234 244 254 234 244 254 234 244 254 234 244 254 233 243 253 233 243 253 232 242 252 232 242 252 232 242 252 232 242 252 232 242 252 232 242 252 232 242 252 231 241 251 231 241 251 230 240 250 229 239 249 228 238 248 227 237 247 227 237 247 226 236 246 226 236 246 226 236 246 226 236 246 226 236 246 225 235 245 225 235 245 224 234 244 223 233 243 222 232 242 103 113 123 103 113 123 103 113 123 103 113 123 103 113 123 103 113 123 103 113 123 222 232 242 222 232 242 222 232 242 222 232 242 222 232 242 222 232 242 222 232 242 222 232 242 222 232 242 223 233 243 223 233 243 224 234 244 224 234 244 224 234 244 224 234 244 223 233 243 223 233 243 222 232 242 103 113 123 103 113 123 102 112 122 102 112 122 102 112 122 102 112 122 102 112 122 101 111 121 101 111 121 101 111 121 100 110 120 100 110 120 99 109 119 99 109 119 98 108 118 98 108 118 98 108 118 98 108 118 97 107 117 97 107 117 97 107 117 97 107 117 97 107 117 96 106 116 96 106 116 95 105 115 95 105 115 94 104 114 94 104 114 94 104 114 94 104 114 94 104 114 95 105 115 95 105 115 95 105 115 95 105 115 95 105 115 95 105 115 95 105 115 95 105 115 95 105 115 95 105 115 96 106 116 96 106 116 96 106 116 96 106 116 96 106 116 96 106 116 96 106 116 95 105 115 95 105 115 94 104 114 94 104 114 93 103 113 93 103 113 93 103 113 93 103 113 93 103 113 93 103 113 93 103 113 92 102 112 92 102 112 91 101 111 91 101 111 90 100 110 100 110 120 99 109 119 98 108 118 98 108 118 98 108 118 97 107 117 97 107 117 97 107 117 97 107 117 97 107 117 97 107 117 96 106 116 96 106 116 95 105 115 95 105 115 95 105 115 94 104 114 95 105 115 95 105 115 95 105 115 95 105 115 96 106 116 96 106 116 96 106 116 96 106 116 95 105 115 95 105 115 95 105 115 95 105 115 95 105 115 95 105 115 95 105 115 96 106 116 96 106 116 96 106 116 96 106 116 96 106 116 95 105 115 95 105 115 94 104 114 94 104 114 93 103 113 93 103 113 93 103 113 93 103 113 93 103 113 93 103 113 93 103 113 92 102 112 92 102 112 91 101 111 91 101 111 90 100 110 90 100 110 89 99 109 89 99 109 89 99 109 89 99 109 89 99 109 89 99 109 89 99 109 89 99 109 89 99 109 89 99 109 88 98 108 88 98 108 88 98 108 88 98 108 88 98 108 89 99 109 89 99 109 90 100 110 91 101 111 91 101 111 91 101 111 91 101 111 92 102 112 92 102 112 92 102 112 92 102 112 93 103 113 94 104 114 94 104 114 95 105 115 96 106 116 96 106 116 97 107 117 97 107 117 97 107 117 97 107 117 97 107 117 97 107 117 97 107 117 97 107 117 98 108 118 98 108 118 99 109 119 99 109 119 100 110 120 100 110 120 100 110 120 100 110 120 99 109 119 99 109 119 99 109 119 100 110 120 100 110 120 100 110 120 101 111 121 101 111 121 102 112 122 102 112 122 102 112 122 102 112 122 102 112 122 102 112 122 102 112 122 102 112 122 103 113 123 103 113 123 223 233 243 224 234 244 225 235 245 226 236 246 227 237 247 228 238 248 228 238 248 228 238 248 229 239 249 229 239 249 230 240 250 230 240 250 231 241 251 232 242 252 233 243 253 234 244 254 235 245 255 235 245 255 235 245 255 234 244 254 233 243 253 233 243 253 232 242 252 232 242 252 232 242 252 232 242 252 232 242 252 233 243 253 232 242 252 232 242 252 231 241 251 230 240 250 229 239 249 228 238 248 227 237 247 227 237 247 226 236 246 226 236 246 226 236 246 226 236 246 226 236 246 225 235 245 225 235 245 224 234 244 223 233 243 222 232 242 103 113 123 103 113 123 103 113 123 103 113 123 103 113 123 103 113 123 222 232 242 222 232 242 222 232 242 222 232 242 222 232 242 222 232 242 222 232 242 103 113 123 103 113 123 103 113 123 222 232 242 222 232 242 223 233 243 223 233 243 223 233 243 223 233 243 223 233 243 222 232 242 103 113 123 103 113 123 102 112 122 102 112 122 102 112 122 102 112 122 102 112 122 102 112 122 102 112 122 101 111 121 101 111 121 101 111 121 100 110 120 99 109 119 99 109 119 98 108 118 98 108 118 97 107 117 97 107 117 97 107 117 97 107 117 97 107 117 97 107 117 97 107 117 96 106 116 96 106 116 95 105 115 95 105 115 95 105 115 94 104 114 95 105 115 95 105 115 95 105 115 95 105 115 96 106 116 96 106 116 96 106 116 96 106 116 95 105 115 95 105 115 95 105 115 95 105 115 95 105 115 95 105 115 96 106 116 96 106 116 96 106 116 96 106 116 96 106 116 96 106 116 95 105 115 95 105 115 94 104 114 94 104 114 93 103 113 93 103 113 93 103 113 93 103 113 93 103 113 93 103 113 93 103 113 92 102 112 92 102 112 91 101 111 91 101 111 90 100 110 100 110 120 99 109 119 98 108 118 98 108 118 97 107 117 97 107 117 97 107 117 97 107 117 97 107 117 97 107 117 97 107 117 97 107 117 96 106 116 96 106 116 95 105 115 95 105 115 95 105 115 95 105 115 95 105 115 96 106 116 96 106 116 96 106 116 96 106 116 96 106 116 96 106 116 96 106 116 95 105 115 95 105 115 95 105 115 95 105 115 95 105 115 95 105 115 95 105 115 96 106 116 96 106 116 96 106 116 96 106 116 95 105 115 95 105 115 94 104 114 94 104 114 93 103 113 93 103 113 93 103 113 93 103 113 93 103 113 93 103 113 93 103 113 92 102 112 92 102 112 91 101 111 91 101 111 90 100 110 89 99 109 89 99 109 89 99 109 89 99 109 89 99 109 89 99 109 89 99 109 89 99 109 89 99 109 89 99 109 88 98 108 88 98 108 88 98 108 88 98 108 88 98 108 88 98 108 89 99 109 89 99 109 90 100 110 91 101 111 91 101 111 91 101 111 91 101 111 91 101 111 91 101 111 92 102 112 92 102 112 92 102 112 93 103 113 94 104 114 94 104 114 95 105 115 96 106 116 96 106 116 96 106 116 96 106 116 96 106 116 97 107 117 97 107 117 97 107 117 97 107 117 98 108 118 98 108 118 99 109 119 99 109 119 100 110 120 100 110 120 100 110 120 100 110 120 99 109 119 99 109 119 99 109 119 99 109 119 100 110 120 100 110 120 101 111 121 101 111 121 102 112 122 102 112 122 102 112 122 102 112 122 103 113 123 103 113 123 103 113 123 103 113 123 222 232 242 223 233 243 224 234 244 225 235 245 226 236 246 227 237 247 228 238 248 229 239 249 229 239 249 229 239 249 229 239 249 229 239 249 230 240 250 230 240 250 231 241 251 232 242 252 233 243 253 234 244 254 235 245 255 235 245 255 235 245 255 234 244 254 234 244 254 233 243 253 233 243 253 233 243 253 233 243 253 233 243 253 233 243 253 233 243 253 233 243 253 233 243 253 232 242 252 231 241 251 230 240 250 228 238 248 227 237 247 227 237 247 226 236 246 226 236 246 226 236 246 226 236 246 226 236 246 225 235 245 225 235 245 224 234 244 223 233 243 223 233 243 222 232 242 103 113 123 103 113 123 103 113 123 103 113 123 222 232 242 222 232 242 223 233 243 223 233 243 223 233 243 222 232 242 222 232 242 103 113 123 103 113 123 103 113 123 103 113 123 103 113 123 103 113 123 222 232 242 222 232 242 222 232 242 222 232 242 222 232 242 103 113 123 103 113 123 103 113 123 102 112 122 102 112 122 102 112 122 102 112 122 102 112 122 102 112 122 102 112 122 101 111 121 101 111 121 101 111 121 100 110 120 99 109 119 99 109 119 98 108 118 98 108 118 97 107 117 97 107 117 97 107 117 97 107 117 97 107 117 97 107 117 97 107 117 97 107 117 96 106 116 96 106 116 95 105 115 95 105 115 95 105 115 95 105 115 95 105 115 96 106 116 96 106 116 96 106 116 96 106 116 96 106 116 96 106 116 95 105 115 95 105 115 95 105 115 95 105 115 95 105 115 95 105 115 95 105 115 96 106 116 96 106 116 96 106 116 96 106 116 95 105 115 95 105 115 95 105 115 94 104 114 94 104 114 93 103 113 93 103 113 93 103 113 93 103 113 93 103 113 93 103 113 93 103 113 92 102 112 92 102 112 91 101 111 90 100 110 90 100 110 100 110 120 99 109 119 98 108 118 98 108 118 97 107 117 97 107 117 97 107 117 97 107 117 97 107 117 97 107 117 97 107 117 97 107 117 96 106 116 96 106 116 96 106 116 96 106 116 96 106 116 96 106 116 96 106 116 96 106 116 96 106 116 96 106 116 96 106 116 96 106 116 96 106 116 96 106 116 95 105 115 95 105 115 95 105 115 95 105 115 95 105 115 95 105 115 95 105 115 95 105 115 95 105 115 95 105 115 95 105 115 95 105 115 95 105 115 94 104 114 94 104 114 94 104 114 93 103 113 93 103 113 93 103 113 93 103 113 93 103 113 93 103 113 92 102 112 92 102 112 91 101 111 90 100 110 90 100 110 89 99 109 89 99 109 89 99 109 88 98 108 88 98 108 89 99 109 89 99 109 89 99 109 89 99 109 88 98 108 88 98 108 88 98 108 88 98 108 88 98 108 88 98 108 89 99 109 89 99 109 90 100 110 90 100 110 90 100 110 91 101 111 91 101 111 91 101 111 91 101 111 91 101 111 91 101 111 91 101 111 92 102 112 92 102 112 93 103 113 94 104 114 94 104 114 95 105 115 95 105 115 96 106 116 96 106 116 96 106 116 96 106 116 97 107 117 97 107 117 97 107 117 98 108 118 98 108 118 99 109 119 99 109 119 100 110 120 100 110 120 100 110 120 100 110 120 99 109 119 99 109 119 99 109 119 100 110 120 100 110 120 100 110 120 101 111 121 101 111 121 102 112 122 102 112 122 103 113 123 103 113 123 103 113 123 103 113 123 103 113 123 222 232 242 223 233 243 224 234 244 225 235 245 226 236 246 227 237 247 228 238 248 229 239 249 229 239 249 229 239 249 230 240 250 230 240 250 230 240 250 230 240 250 231 241 251 231 241 251 232 242 252 233 243 253 234 244 254 234 244 254 235 245 255 235 245 255 234 244 254 234 244 254 234 244 254 234 244 254 234 244 254 234 244 254 234 244 254 234 244 254 234 244 254 233 243 253 233 243 253 232 242 252 231 241 251 230 240 250 229 239 249 228 238 248 227 237 247 226 236 246 226 236 246 226 236 246 225 235 245 225 235 245 225 235 245 225 235 245 224 234 244 224 234 244 223 233 243 222 232 242 222 232 242 222 232 242 222 232 242 222 232 242 222 232 242 223 233 243 223 233 243 223 233 243 223 233 243 222 232 242 222 232 242 103 113 123 103 113 123 103 113 123 103 113 123 103 113 123 103 113 123 103 113 123 103 113 123 103 113 123 103 113 123 103 113 123 103 113 123 103 113 123 102 112 122 102 112 122 102 112 122 102 112 122 102 112 122 102 112 122 102 112 122 102 112 122 101 111 121 101 111 121 101 111 121 100 110 120 99 109 119 99 109 119 98 108 118 98 108 118 97 107 117 97 107 117 97 107 117 97 107 117 97 107 117 97 107 117 97 107 117 97 107 117 96 106 116 96 106 116 96 106 116 96 106 116 96 106 116 96 106 116 96 106 116 96 106 116 96 106 116 96 106 116 96 106 116 96 106 116 96 106 116 96 106 116 95 105 115 95 105 115 95 105 115 95 105 115 95 105 115 95 105 115 95 105 115 95 105 115 95 105 115 95 105 115 95 105 115 95 105 115 94 104 114 94 104 114 94 104 114 94 104 114 93 103 113 93 103 113 93 103 113 93 103 113 93 103 113 93 103 113 92 102 112 92 102 112 91 101 111 90 100 110 90 100 110 100 110 120 99 109 119 98 108 118 98 108 118 98 108 118 97 107 117 97 107 117 97 107 117 97 107 117 97 107 117 97 107 117 97 107 117 97 107 117 97 107 117 96 106 116 96 106 116 96 106 116 96 106 116 97 107 117 97 107 117 97 107 117 97 107 117 97 107 117 96 106 116 96 106 116 96 106 116 96 106 116 95 105 115 95 105 115 95 105 115 95 105 115 95 105 115 95 105 115 95 105 115 95 105 115 95 105 115 95 105 115 95 105 115 94 104 114 94 104 114 94 104 114 94 104 114 94 104 114 93 103 113 93 103 113 93 103 113 93 103 113 93 103 113 92 102 112 92 102 112 91 101 111 90 100 110 90 100 110 89 99 109 89 99 109 88 98 108 88 98 108 88 98 108 88 98 108 88 98 108 88 98 108 88 98 108 88 98 108 88 98 108 88 98 108 88 98 108 88 98 108 89 99 109 89 99 109 89 99 109 90 100 110 90 100 110 90 100 110 90 100 110 90 100 110 91 101 111 91 101 111 91 101 111 91 101 111 91 101 111 91 101 111 92 102 112 92 102 112 93 103 113 93 103 113 94 104 114 94 104 114 95 105 115 95 105 115 96 106 116 96 106 116 96 106 116 97 107 117 97 107 117 98 108 118 98 108 118 99 109 119 99 109 119 99 109 119 99 109 119 100 110 120 100 110 120 99 109 119 99 109 119 100 110 120 100 110 120 100 110 120 100 110 120 101 111 121 101 111 121 102 112 122 102 112 122 103 113 123 103 113 123 103 113 123 222 232 242 223 233 243 224 234 244 225 235 245 226 236 246 227 237 247 228 238 248 228 238 248 229 239 249 230 240 250 230 240 250 230 240 250 230 240 250 230 240 250 230 240 250 231 241 251 231 241 251 232 242 252 232 242 252 233 243 253 233 243 253 234 244 254 234 244 254 234 244 254 234 244 254 234 244 254 234 244 254 234 244 254 234 244 254 234 244 254 234 244 254 234 244 254 234 244 254 234 244 254 233 243 253 232 242 252 231 241 251 230 240 250 229 239 249 228 238 248 227 237 247 226 236 246 226 236 246 225 235 245 225 235 245 225 235 245 225 235 245 224 234 244 224 234 244 224 234 244 223 233 243 223 233 243 223 233 243 223 233 243 223 233 243 223 233 243 223 233 243 223 233 243 223 233 243 223 233 243 222 232 242 222 232 242 103 113 123 103 113 123 103 113 123 102 112 122 102 112 122 102 112 122 102 112 122 102 112 122 102 112 122 103 113 123 103 113 123 103 113 123 102 112 122 102 112 122 102 112 122 102 112 122 102 112 122 102 112 122 102 112 122 102 112 122 102 112 122 102 112 122 101 111 121 101 111 121 100 110 120 100 110 120 99 109 119 99 109 119 98 108 118 98 108 118 97 107 117 97 107 117 97 107 117 97 107 117 97 107 117 97 107 117 97 107 117 97 107 117 97 107 117 97 107 117 96 106 116 96 106 116 96 106 116 96 106 116 97 107 117 97 107 117 97 107 117 97 107 117 97 107 117 96 106 116 96 106 116 96 106 116 95 105 115 95 105 115 95 105 115 95 105 115 95 105 115 95 105 115 95 105 115 95 105 115 95 105 115 95 105 115 95 105 115 94 104 114 94 104 114 94 104 114 94 104 114 94 104 114 94 104 114 93 103 113 93 103 113 93 103 113 93 103 113 92 102 112 92 102 112 91 101 111 91 101 111 90 100 110 90 100 110 100 110 120 99 109 119 99 109 119 98 108 118 98 108 118 98 108 118 97 107 117 97 107 117 97 107 117 97 107 117 97 107 117 97 107 117 97 107 117 97 107 117 97 107 117 97 107 117 97 107 117 97 107 117 97 107 117 97 107 117 97 107 117 97 107 117 97 107 117 97 107 117 96 106 116 96 106 116 96 106 116 95 105 115 95 105 115 95 105 115 95 105 115 94 104 114 94 104 114 94 104 114 94 104 114 94 104 114 94 104 114 94 104 114 94 104 114 94 104 114 94 104 114 94 104 114 94 104 114 94 104 114 93 103 113 93 103 113 93 103 113 92 102 112 92 102 112 91 101 111 91 101 111 90 100 110 90 100 110 89 99 109 89 99 109 88 98 108 88 98 108 88 98 108 88 98 108 88 98 108 88 98 108 88 98 108 88 98 108 88 98 108 88 98 108 88 98 108 89 99 109 89 99 109 89 99 109 89 99 109 90 100 110 90 100 110 90 100 110 90 100 110 90 100 110 90 100 110 90 100 110 90 100 110 90 100 110 91 101 111 91 101 111 91 101 111 92 102 112 92 102 112 92 102 112 93 103 113 94 104 114 94 104 114 95 105 115 95 105 115 96 106 116 96 106 116 97 107 117 97 107 117 98 108 118 98 108 118 99 109 119 99 109 119 99 109 119 99 109 119 99 109 119 99 109 119 100 110 120 100 110 120 100 110 120 100 110 120 100 110 120 101 111 121 101 111 121 101 111 121 102 112 122 102 112 122 103 113 123 103 113 123 222 232 242 223 233 243 224 234 244 225 235 245 226 236 246 227 237 247 228 238 248 229 239 249 229 239 249 230 240 250 230 240 250 230 240 250 231 241 251 231 241 251 231 241 251 231 241 251 231 241 251 231 241 251 232 242 252 232 242 252 232 242 252 233 243 253 233 243 253 234 244 254 234 244 254 234 244 254 235 245 255 235 245 255 235 245 255 235 245 255 235 245 255 235 245 255 235 245 255 234 244 254 234 244 254 233 243 253 232 242 252 231 241 251 230 240 250 229 239 249 229 239 249 228 238 248 227 237 247 226 236 246 226 236 246 225 235 245 225 235 245 224 234 244 224 234 244 224 234 244 224 234 244 224 234 244 224 234 244 224 234 244 224 234 244 224 234 244 224 234 244 223 233 243 223 233 243 223 233 243 222 232 242 222 232 242 222 232 242 103 113 123 103 113 123 103 113 123 102 112 122 102 112 122 102 112 122 102 112 122 102 112 122 102 112 122 102 112 122 102 112 122 102 112 122 102 112 122 102 112 122 102 112 122 102 112 122 102 112 122 102 112 122 102 112 122 102 112 122 102 112 122 101 111 121 101 111 121 101 111 121 100 110 120 100 110 120 99 109 119 99 109 119 98 108 118 98 108 118 98 108 118 97 107 117 97 107 117 97 107 117 97 107 117 97 107 117 97 107 117 97 107 117 97 107 117 97 107 117 97 107 117 97 107 117 97 107 117 97 107 117 97 107 117 97 107 117 97 107 117 97 107 117 97 107 117 97 107 117 96 106 116 96 106 116 96 106 116 95 105 115 95 105 115 95 105 115 95 105 115 94 104 114 94 104 114 94 104 114 94 104 114 94 104 114 94 104 114 94 104 114 94 104 114 94 104 114 94 104 114 94 104 114 94 104 114 94 104 114 93 103 113 93 103 113 93 103 113 92 102 112 92 102 112 91 101 111 91 101 111 90 100 110 90 100 110 100 110 120 99 109 119 99 109 119 98 108 118 98 108 118 98 108 118 97 107 117 97 107 117 97 107 117 97 107 117 97 107 117 97 107 117 97 107 117 97 107 117 98 108 118 98 108 118 98 108 118 98 108 118 98 108 118 98 108 118 97 107 117 97 107 117 97 107 117 97 107 117 96 106 116 96 106 116 96 106 116 96 106 116 95 105 115 95 105 115 95 105 115 94 104 114 94 104 114 94 104 114 94 104 114 94 104 114 94 104 114 94 104 114 94 104 114 94 104 114 94 104 114 94 104 114 94 104 114 94 104 114 93 103 113 93 103 113 92 102 112 92 102 112 92 102 112 91 101 111 91 101 111 90 100 110 90 100 110 89 99 109 89 99 109 88 98 108 88 98 108 88 98 108 87 97 107 87 97 107 87 97 107 87 97 107 88 98 108 88 98 108 88 98 108 89 99 109 89 99 109 89 99 109 89 99 109 89 99 109 90 100 110 90 100 110 90 100 110 90 100 110 90 100 110 90 100 110 90 100 110 90 100 110 90 100 110 90 100 110 91 101 111 91 101 111 91 101 111 91 101 111 92 102 112 92 102 112 93 103 113 93 103 113 94 104 114 95 105 115 96 106 116 96 106 116 97 107 117 97 107 117 98 108 118 98 108 118 98 108 118 99 109 119 99 109 119 99 109 119 99 109 119 99 109 119 100 110 120 100 110 120 100 110 120 100 110 120 100 110 120 101 111 121 101 111 121 101 111 121 102 112 122 102 112 122 103 113 123 222 232 242 223 233 243 224 234 244 226 236 246 227 237 247 228 238 248 229 239 249 229 239 249 230 240 250 230 240 250 230 240 250 231 241 251 231 241 251 231 241 251 231 241 251 232 242 252 232 242 252 232 242 252 232 242 252 232 242 252 232 242 252 232 242 252 232 242 252 233 243 253 233 243 253 234 244 254 234 244 254 235 245 255 235 245 255 236 246 256 236 246 256 236 246 256 235 245 255 235 245 255 234 244 254 234 244 254 233 243 253 232 242 252 231 241 251 231 241 251 230 240 250 229 239 249 228 238 248 227 237 247 227 237 247 226 236 246 225 235 245 224 234 244 224 234 244 224 234 244 224 234 244 224 234 244 224 234 244 225 235 245 225 235 245 225 235 245 225 235 245 224 234 244 224 234 244 223 233 243 223 233 243 222 232 242 222 232 242 103 113 123 103 113 123 103 113 123 103 113 123 102 112 122 102 112 122 102 112 122 101 111 121 101 111 121 101 111 121 101 111 121 101 111 121 101 111 121 101 111 121 102 112 122 102 112 122 102 112 122 102 112 122 102 112 122 102 112 122 102 112 122 102 112 122 101 111 121 101 111 121 100 110 120 100 110 120 100 110 120 99 109 119 99 109 119 99 109 119 98 108 118 98 108 118 98 108 118 97 107 117 97 107 117 97 107 117 97 107 117 97 107 117 97 107 117 97 107 117 98 108 118 98 108 118 98 108 118 98 108 118 98 108 118 98 108 118 98 108 118 97 107 117 97 107 117 97 107 117 97 107 117 96 106 116 96 106 116 96 106 116 96 106 116 95 105 115 95 105 115 95 105 115 94 104 114 94 104 114 94 104 114 94 104 114 94 104 114 94 104 114 94 104 114 94 104 114 94 104 114 94 104 114 94 104 114 94 104 114 94 104 114 93 103 113 93 103 113 92 102 112 92 102 112 91 101 111 91 101 111 90 100 110 90 100 110 90 100 110 100 110 120 99 109 119 99 109 119 99 109 119 98 108 118 98 108 118 98 108 118 97 107 117 97 107 117 97 107 117 97 107 117 97 107 117 97 107 117 98 108 118 98 108 118 99 109 119 99 109 119 99 109 119 98 108 118 98 108 118 98 108 118 97 107 117 97 107 117 97 107 117 96 106 116 96 106 116 96 106 116 96 106 116 95 105 115 95 105 115 95 105 115 94 104 114 94 104 114 93 103 113 93 103 113 93 103 113 93 103 113 93 103 113 94 104 114 94 104 114 94 104 114 94 104 114 94 104 114 94 104 114 93 103 113 93 103 113 92 102 112 92 102 112 91 101 111 91 101 111 90 100 110 90 100 110 90 100 110 89 99 109 89 99 109 88 98 108 88 98 108 88 98 108 87 97 107 87 97 107 87 97 107 87 97 107 87 97 107 88 98 108 88 98 108 89 99 109 89 99 109 89 99 109 90 100 110 90 100 110 90 100 110 89 99 109 89 99 109 89 99 109 89 99 109 89 99 109 90 100 110 90 100 110 90 100 110 90 100 110 90 100 110 90 100 110 90 100 110 91 101 111 91 101 111 91 101 111 92 102 112 93 103 113 93 103 113 94 104 114 95 105 115 96 106 116 97 107 117 97 107 117 98 108 118 98 108 118 98 108 118 98 108 118 98 108 118 99 109 119 99 109 119 99 109 119 100 110 120 100 110 120 100 110 120 101 111 121 101 111 121 101 111 121 101 111 121 101 111 121 102 112 122 102 112 122 103 113 123 222 232 242 224 234 244 226 236 246 227 237 247 228 238 248 229 239 249 230 240 250 230 240 250 230 240 250 231 241 251 231 241 251 231 241 251 231 241 251 232 242 252 232 242 252 232 242 252 232 242 252 232 242 252 232 242 252 232 242 252 232 242 252 232 242 252 232 242 252 232 242 252 233 243 253 233 243 253 234 244 254 235 245 255 236 246 256 236 246 256 236 246 256 236 246 256 236 246 256 235 245 255 234 244 254 234 244 254 233 243 253 232 242 252 231 241 251 231 241 251 230 240 250 230 240 250 229 239 249 228 238 248 227 237 247 226 236 246 225 235 245 224 234 244 224 234 244 224 234 244 224 234 244 224 234 244 225 235 245 225 235 245 226 236 246 226 236 246 225 235 245 225 235 245 224 234 244 223 233 243 223 233 243 222 232 242 103 113 123 103 113 123 103 113 123 103 113 123 102 112 122 102 112 122 102 112 122 101 111 121 101 111 121 101 111 121 100 110 120 100 110 120 100 110 120 101 111 121 101 111 121 101 111 121 102 112 122 102 112 122 102 112 122 102 112 122 102 112 122 102 112 122 101 111 121 101 111 121 101 111 121 100 110 120 100 110 120 100 110 120 99 109 119 99 109 119 99 109 119 99 109 119 98 108 118 98 108 118 97 107 117 97 107 117 97 107 117 97 107 117 97 107 117 97 107 117 98 108 118 98 108 118 98 108 118 99 109 119 99 109 119 99 109 119 98 108 118 98 108 118 98 108 118 97 107 117 97 107 117 97 107 117 96 106 116 96 106 116 96 106 116 96 106 116 95 105 115 95 105 115 95 105 115 94 104 114 94 104 114 93 103 113 93 103 113 93 103 113 93 103 113 94 104 114 94 104 114 94 104 114 94 104 114 94 104 114 94 104 114 94 104 114 93 103 113 93 103 113 92 102 112 92 102 112 91 101 111 91 101 111 90 100 110 90 100 110 90 100 110 100 110 120 99 109 119 99 109 119 99 109 119 99 109 119 98 108 118 98 108 118 97 107 117 97 107 117 97 107 117 97 107 117 97 107 117 98 108 118 98 108 118 99 109 119 99 109 119 99 109 119 99 109 119 99 109 119 99 109 119 98 108 118 98 108 118 97 107 117 97 107 117 97 107 117 96 106 116 96 106 116 96 106 116 96 106 116 95 105 115 95 105 115 94 104 114 94 104 114 93 103 113 93 103 113 93 103 113 93 103 113 93 103 113 93 103 113 94 104 114 94 104 114 94 104 114 94 104 114 94 104 114 93 103 113 93 103 113 92 102 112 91 101 111 91 101 111 91 101 111 90 100 110 90 100 110 90 100 110 89 99 109 89 99 109 88 98 108 88 98 108 87 97 107 87 97 107 87 97 107 87 97 107 87 97 107 87 97 107 88 98 108 88 98 108 89 99 109 89 99 109 90 100 110 90 100 110 90 100 110 89 99 109 89 99 109 89 99 109 89 99 109 89 99 109 89 99 109 89 99 109 90 100 110 90 100 110 90 100 110 90 100 110 90 100 110 90 100 110 90 100 110 90 100 110 91 101 111 91 101 111 92 102 112 93 103 113 94 104 114 95 105 115 96 106 116 97 107 117 97 107 117 98 108 118 98 108 118 98 108 118 98 108 118 98 108 118 99 109 119 99 109 119 99 109 119 100 110 120 100 110 120 101 111 121 101 111 121 101 111 121 101 111 121 101 111 121 102 112 122 102 112 122 103 113 123 103 113 123 223 233 243 225 235 245 227 237 247 228 238 248 229 239 249 230 240 250 231 241 251 231 241 251 231 241 251 231 241 251 231 241 251 231 241 251 232 242 252 232 242 252 232 242 252 233 243 253 233 243 253 233 243 253 233 243 253 232 242 252 232 242 252 232 242 252 232 242 252 232 242 252 232 242 252 233 243 253 234 244 254 235 245 255 236 246 256 237 247 257 237 247 257 237 247 257 236 246 256 235 245 255 234 244 254 233 243 253 233 243 253 232 242 252 232 242 252 231 241 251 231 241 251 230 240 250 229 239 249 228 238 248 227 237 247 226 236 246 225 235 245 224 234 244 224 234 244 224 234 244 224 234 244 225 235 245 225 235 245 226 236 246 226 236 246 226 236 246 226 236 246 225 235 245 225 235 245 224 234 244 223 233 243 222 232 242 103 113 123 103 113 123 103 113 123 103 113 123 102 112 122 102 112 122 102 112 122 101 111 121 101 111 121 100 110 120 100 110 120 100 110 120 100 110 120 100 110 120 100 110 120 101 111 121 101 111 121 102 112 122 102 112 122 102 112 122 102 112 122 102 112 122 101 111 121 101 111 121 100 110 120 100 110 120 100 110 120 100 110 120 99 109 119 99 109 119 99 109 119 99 109 119 98 108 118 98 108 118 98 108 118 97 107 117 97 107 117 97 107 117 97 107 117 97 107 117 98 108 118 98 108 118 99 109 119 99 109 119 99 109 119 99 109 119 99 109 119 98 108 118 98 108 118 97 107 117 97 107 117 97 107 117 97 107 117 96 106 116 96 106 116 96 106 116 95 105 115 95 105 115 95 105 115 94 104 114 93 103 113 93 103 113 93 103 113 93 103 113 93 103 113 93 103 113 94 104 114 94 104 114 94 104 114 94 104 114 94 104 114 94 104 114 93 103 113 92 102 112 92 102 112 91 101 111 91 101 111 90 100 110 90 100 110 90 100 110 90 100 110 100 110 120 99 109 119 99 109 119 99 109 119 99 109 119 98 108 118 98 108 118 98 108 118 97 107 117 97 107 117 97 107 117 98 108 118 98 108 118 99 109 119 99 109 119 100 110 120 100 110 120 100 110 120 99 109 119 99 109 119 98 108 118 98 108 118 97 107 117 97 107 117 97 107 117 97 107 117 96 106 116 96 106 116 96 106 116 95 105 115 95 105 115 94 104 114 93 103 113 93 103 113 93 103 113 93 103 113 93 103 113 93 103 113 93 103 113 94 104 114 94 104 114 94 104 114 94 104 114 93 103 113 93 103 113 92 102 112 92 102 112 91 101 111 91 101 111 90 100 110 90 100 110 90 100 110 90 100 110 89 99 109 89 99 109 88 98 108 88 98 108 87 97 107 87 97 107 87 97 107 87 97 107 87 97 107 87 97 107 88 98 108 89 99 109 89 99 109 89 99 109 90 100 110 90 100 110 90 100 110 89 99 109 89 99 109 89 99 109 89 99 109 89 99 109 89 99 109 89 99 109 89 99 109 89 99 109 90 100 110 90 100 110 90 100 110 89 99 109 89 99 109 90 100 110 90 100 110 91 101 111 91 101 111 92 102 112 94 104 114 95 105 115 96 106 116 96 106 116 97 107 117 97 107 117 97 107 117 98 108 118 98 108 118 98 108 118 98 108 118 99 109 119 99 109 119 100 110 120 100 110 120 101 111 121 101 111 121 101 111 121 101 111 121 102 112 122 102 112 122 102 112 122 103 113 123 222 232 242 224 234 244 226 236 246 227 237 247 229 239 249 230 240 250 231 241 251 232 242 252 232 242 252 232 242 252 232 242 252 232 242 252 232 242 252 232 242 252 233 243 253 233 243 253 233 243 253 233 243 253 233 243 253 233 243 253 233 243 253 232 242 252 232 242 252 232 242 252 232 242 252 232 242 252 233 243 253 234 244 254 235 245 255 236 246 256 237 247 257 237 247 257 237 247 257 236 246 256 235 245 255 234 244 254 234 244 254 233 243 253 232 242 252 232 242 252 231 241 251 231 241 251 230 240 250 230 240 250 229 239 249 228 238 248 227 237 247 226 236 246 225 235 245 224 234 244 224 234 244 225 235 245 225 235 245 226 236 246 226 236 246 227 237 247 227 237 247 226 236 246 226 236 246 225 235 245 224 234 244 223 233 243 222 232 242 103 113 123 103 113 123 103 113 123 102 112 122 102 112 122 102 112 122 101 111 121 101 111 121 100 110 120 100 110 120 100 110 120 99 109 119 99 109 119 100 110 120 100 110 120 100 110 120 101 111 121 101 111 121 102 112 122 102 112 122 102 112 122 101 111 121 101 111 121 101 111 121 100 110 120 100 110 120 100 110 120 100 110 120 99 109 119 99 109 119 99 109 119 99 109 119 99 109 119 98 108 118 98 108 118 97 107 117 97 107 117 97 107 117 97 107 117 98 108 118 98 108 118 99 109 119 99 109 119 100 110 120 100 110 120 100 110 120 99 109 119 99 109 119 98 108 118 98 108 118 97 107 117 97 107 117 97 107 117 96 106 116 96 106 116 96 106 116 96 106 116 95 105 115 94 104 114 94 104 114 93 103 113 93 103 113 93 103 113 93 103 113 93 103 113 93 103 113 93 103 113 94 104 114 94 104 114 94 104 114 94 104 114 93 103 113 93 103 113 92 102 112 92 102 112 91 101 111 91 101 111 90 100 110 90 100 110 90 100 110 90 100 110 100 110 120 99 109 119 99 109 119 99 109 119 99 109 119 99 109 119 98 108 118 98 108 118 98 108 118 98 108 118 98 108 118 98 108 118 99 109 119 99 109 119 99 109 119 100 110 120 100 110 120 100 110 120 100 110 120 99 109 119 99 109 119 98 108 118 98 108 118 97 107 117 97 107 117 97 107 117 96 106 116 96 106 116 96 106 116 95 105 115 95 105 115 94 104 114 93 103 113 93 103 113 93 103 113 92 102 112 92 102 112 93 103 113 93 103 113 93 103 113 93 103 113 94 104 114 93 103 113 93 103 113 93 103 113 92 102 112 92 102 112 91 101 111 91 101 111 90 100 110 90 100 110 90 100 110 90 100 110 89 99 109 89 99 109 88 98 108 88 98 108 88 98 108 87 97 107 87 97 107 87 97 107 87 97 107 87 97 107 88 98 108 89 99 109 89 99 109 89 99 109 90 100 110 90 100 110 90 100 110 89 99 109 89 99 109 89 99 109 89 99 109 89 99 109 89 99 109 89 99 109 89 99 109 89 99 109 89 99 109 89 99 109 89 99 109 89 99 109 89 99 109 89 99 109 90 100 110 90 100 110 91 101 111 92 102 112 93 103 113 94 104 114 95 105 115 96 106 116 96 106 116 97 107 117 97 107 117 97 107 117 98 108 118 98 108 118 98 108 118 99 109 119 99 109 119 100 110 120 100 110 120 101 111 121 101 111 121 101 111 121 102 112 122 102 112 122 102 112 122 103 113 123 103 113 123 223 233 243 225 235 245 226 236 246 228 238 248 230 240 250 231 241 251 232 242 252 232 242 252 233 243 253 233 243 253 233 243 253 233 243 253 233 243 253 233 243 253 233 243 253 233 243 253 233 243 253 234 244 254 233 243 253 233 243 253 233 243 253 232 242 252 232 242 252 232 242 252 232 242 252 232 242 252 233 243 253 234 244 254 235 245 255 236 246 256 236 246 256 236 246 256 236 246 256 236 246 256 235 245 255 234 244 254 234 244 254 233 243 253 232 242 252 232 242 252 231 241 251 231 241 251 230 240 250 230 240 250 229 239 249 228 238 248 227 237 247 226 236 246 225 235 245 225 235 245 225 235 245 225 235 245 226 236 246 226 236 246 227 237 247 227 237 247 227 237 247 226 236 246 226 236 246 225 235 245 224 234 244 223 233 243 222 232 242 103 113 123 103 113 123 103 113 123 102 112 122 102 112 122 102 112 122 101 111 121 101 111 121 100 110 120 100 110 120 99 109 119 99 109 119 99 109 119 99 109 119 100 110 120 100 110 120 101 111 121 101 111 121 101 111 121 101 111 121 101 111 121 101 111 121 101 111 121 100 110 120 100 110 120 100 110 120 100 110 120 100 110 120 99 109 119 99 109 119 99 109 119 99 109 119 99 109 119 98 108 118 98 108 118 98 108 118 98 108 118 98 108 118 98 108 118 98 108 118 99 109 119 99 109 119 100 110 120 100 110 120 100 110 120 100 110 120 99 109 119 99 109 119 99 109 119 98 108 118 98 108 118 97 107 117 97 107 117 97 107 117 96 106 116 96 106 116 95 105 115 95 105 115 94 104 114 94 104 114 93 103 113 93 103 113 93 103 113 92 102 112 93 103 113 93 103 113 93 103 113 93 103 113 94 104 114 94 104 114 93 103 113 93 103 113 93 103 113 92 102 112 91 101 111 91 101 111 91 101 111 90 100 110 90 100 110 90 100 110 89 99 109 100 110 120 99 109 119 99 109 119 99 109 119 99 109 119 99 109 119 98 108 118 98 108 118 98 108 118 98 108 118 98 108 118 99 109 119 99 109 119 99 109 119 100 110 120 100 110 120 100 110 120 100 110 120 100 110 120 99 109 119 99 109 119 99 109 119 98 108 118 98 108 118 97 107 117 97 107 117 96 106 116 96 106 116 96 106 116 95 105 115 94 104 114 94 104 114 93 103 113 93 103 113 93 103 113 93 103 113 92 102 112 93 103 113 93 103 113 93 103 113 93 103 113 93 103 113 93 103 113 93 103 113 92 102 112 92 102 112 91 101 111 91 101 111 91 101 111 90 100 110 90 100 110 90 100 110 89 99 109 89 99 109 89 99 109 88 98 108 88 98 108 88 98 108 87 97 107 87 97 107 87 97 107 87 97 107 88 98 108 88 98 108 88 98 108 89 99 109 89 99 109 89 99 109 89 99 109 89 99 109 89 99 109 89 99 109 89 99 109 89 99 109 89 99 109 89 99 109 89 99 109 89 99 109 89 99 109 89 99 109 89 99 109 89 99 109 89 99 109 89 99 109 89 99 109 90 100 110 90 100 110 91 101 111 92 102 112 93 103 113 94 104 114 94 104 114 95 105 115 96 106 116 96 106 116 97 107 117 97 107 117 97 107 117 98 108 118 98 108 118 99 109 119 99 109 119 100 110 120 100 110 120 101 111 121 101 111 121 102 112 122 102 112 122 102 112 122 103 113 123 103 113 123 222 232 242 224 234 244 225 235 245 227 237 247 229 239 249 230 240 250 231 241 251 232 242 252 233 243 253 233 243 253 233 243 253 233 243 253 233 243 253 233 243 253 234 244 254 234 244 254 234 244 254 234 244 254 234 244 254 233 243 253 233 243 253 233 243 253 232 242 252 232 242 252 232 242 252 232 242 252 233 243 253 233 243 253 234 244 254 235 245 255 235 245 255 236 246 256 236 246 256 236 246 256 236 246 256 235 245 255 234 244 254 234 244 254 233 243 253 233 243 253 232 242 252 232 242 252 231 241 251 231 241 251 230 240 250 229 239 249 228 238 248 228 238 248 227 237 247 226 236 246 226 236 246 226 236 246 226 236 246 226 236 246 226 236 246 227 237 247 227 237 247 227 237 247 226 236 246 226 236 246 225 235 245 224 234 244 223 233 243 222 232 242 103 113 123 103 113 123 102 112 122 102 112 122 102 112 122 101 111 121 101 111 121 100 110 120 100 110 120 99 109 119 99 109 119 99 109 119 99 109 119 99 109 119 99 109 119 100 110 120 100 110 120 100 110 120 101 111 121 101 111 121 101 111 121 101 111 121 100 110 120 100 110 120 100 110 120 100 110 120 100 110 120 100 110 120 99 109 119 99 109 119 99 109 119 99 109 119 99 109 119 99 109 119 98 108 118 98 108 118 98 108 118 98 108 118 98 108 118 99 109 119 99 109 119 99 109 119 100 110 120 100 110 120 100 110 120 100 110 120 100 110 120 99 109 119 99 109 119 98 108 118 98 108 118 97 107 117 97 107 117 97 107 117 96 106 116 96 106 116 95 105 115 95 105 115 94 104 114 94 104 114 93 103 113 93 103 113 93 103 113 92 102 112 93 103 113 93 103 113 93 103 113 93 103 113 93 103 113 93 103 113 93 103 113 93 103 113 92 102 112 92 102 112 91 101 111 91 101 111 90 100 110 90 100 110 90 100 110 90 100 110 89 99 109 100 110 120 99 109 119 99 109 119 99 109 119 99 109 119 99 109 119 99 109 119 99 109 119 99 109 119 99 109 119 99 109 119 99 109 119 99 109 119 100 110 120 100 110 120 100 110 120 100 110 120 100 110 120 100 110 120 100 110 120 99 109 119 99 109 119 98 108 118 98 108 118 97 107 117 97 107 117 96 106 116 96 106 116 95 105 115 95 105 115 94 104 114 94 104 114 93 103 113 93 103 113 93 103 113 93 103 113 93 103 113 93 103 113 93 103 113 93 103 113 93 103 113 92 102 112 92 102 112 92 102 112 92 102 112 92 102 112 91 101 111 91 101 111 91 101 111 90 100 110 90 100 110 90 100 110 89 99 109 89 99 109 89 99 109 88 98 108 88 98 108 88 98 108 88 98 108 88 98 108 88 98 108 88 98 108 88 98 108 88 98 108 88 98 108 89 99 109 89 99 109 89 99 109 89 99 109 89 99 109 89 99 109 89 99 109 89 99 109 89 99 109 89 99 109 88 98 108 88 98 108 88 98 108 88 98 108 88 98 108 88 98 108 88 98 108 88 98 108 89 99 109 89 99 109 89 99 109 90 100 110 91 101 111 91 101 111 92 102 112 93 103 113 94 104 114 94 104 114 95 105 115 96 106 116 96 106 116 97 107 117 97 107 117 98 108 118 98 108 118 99 109 119 99 109 119 100 110 120 100 110 120 101 111 121 101 111 121 102 112 122 102 112 122 103 113 123 103 113 123 223 233 243 224 234 244 225 235 245 226 236 246 228 238 248 229 239 249 230 240 250 231 241 251 232 242 252 233 243 253 234 244 254 234 244 254 234 244 254 234 244 254 234 244 254 234 244 254 234 244 254 234 244 254 234 244 254 234 244 254 233 243 253 233 243 253 233 243 253 233 243 253 233 243 253 233 243 253 233 243 253 233 243 253 234 244 254 234 244 254 234 244 254 235 245 255 235 245 255 235 245 255 235 245 255 235 245 255 235 245 255 234 244 254 234 244 254 233 243 253 233 243 253 232 242 252 232 242 252 231 241 251 231 241 251 230 240 250 229 239 249 229 239 249 228 238 248 228 238 248 227 237 247 227 237 247 227 237 247 227 237 247 227 237 247 227 237 247 227 237 247 227 237 247 226 236 246 226 236 246 225 235 245 225 235 245 224 234 244 223 233 243 222 232 242 103 113 123 103 113 123 102 112 122 102 112 122 101 111 121 101 111 121 100 110 120 100 110 120 100 110 120 99 109 119 99 109 119 99 109 119 99 109 119 99 109 119 99 109 119 99 109 119 100 110 120 100 110 120 100 110 120 100 110 120 100 110 120 100 110 120 100 110 120 100 110 120 100 110 120 100 110 120 100 110 120 100 110 120 99 109 119 99 109 119 99 109 119 99 109 119 99 109 119 99 109 119 99 109 119 99 109 119 99 109 119 99 109 119 99 109 119 99 109 119 100 110 120 100 110 120 100 110 120 100 110 120 100 110 120 100 110 120 100 110 120 99 109 119 99 109 119 99 109 119 98 108 118 98 108 118 97 107 117 97 107 117 96 106 116 96 106 116 95 105 115 95 105 115 94 104 114 94 104 114 93 103 113 93 103 113 93 103 113 93 103 113 93 103 113 93 103 113 93 103 113 93 103 113 93 103 113 92 102 112 92 102 112 92 102 112 92 102 112 92 102 112 91 101 111 91 101 111 90 100 110 90 100 110 90 100 110 89 99 109 89 99 109 100 110 120 99 109 119 99 109 119 99 109 119 99 109 119 99 109 119 99 109 119 99 109 119 99 109 119 100 110 120 100 110 120 100 110 120 100 110 120 100 110 120 100 110 120 100 110 120 100 110 120 100 110 120 100 110 120 100 110 120 99 109 119 99 109 119 99 109 119 98 108 118 98 108 118 97 107 117 96 106 116 96 106 116 95 105 115 95 105 115 94 104 114 94 104 114 94 104 114 93 103 113 93 103 113 93 103 113 93 103 113 92 102 112 92 102 112 92 102 112 92 102 112 92 102 112 92 102 112 92 102 112 91 101 111 91 101 111 91 101 111 91 101 111 91 101 111 90 100 110 90 100 110 89 99 109 89 99 109 89 99 109 88 98 108 88 98 108 88 98 108 88 98 108 88 98 108 88 98 108 88 98 108 88 98 108 88 98 108 88 98 108 88 98 108 88 98 108 89 99 109 89 99 109 89 99 109 89 99 109 89 99 109 89 99 109 89 99 109 89 99 109 89 99 109 88 98 108 88 98 108 88 98 108 88 98 108 88 98 108 88 98 108 88 98 108 88 98 108 89 99 109 89 99 109 89 99 109 90 100 110 91 101 111 91 101 111 92 102 112 92 102 112 93 103 113 94 104 114 94 104 114 95 105 115 96 106 116 97 107 117 97 107 117 98 108 118 98 108 118 99 109 119 99 109 119 100 110 120 100 110 120 101 111 121 101 111 121 102 112 122 103 113 123 103 113 123 223 233 243 224 234 244 225 235 245 226 236 246 227 237 247 229 239 249 230 240 250 231 241 251 231 241 251 232 242 252 233 243 253 234 244 254 234 244 254 235 245 255 235 245 255 235 245 255 235 245 255 235 245 255 234 244 254 234 244 254 234 244 254 233 243 253 233 243 253 233 243 253 233 243 253 233 243 253 233 243 253 234 244 254 234 244 254 234 244 254 234 244 254 234 244 254 234 244 254 234 244 254 234 244 254 234 244 254 234 244 254 234 244 254 234 244 254 234 244 254 234 244 254 233 243 253 233 243 253 232 242 252 231 241 251 230 240 250 230 240 250 229 239 249 229 239 249 229 239 249 228 238 248 228 238 248 228 238 248 228 238 248 228 238 248 227 237 247 227 237 247 227 237 247 226 236 246 226 236 246 226 236 246 225 235 245 225 235 245 224 234 244 223 233 243 223 233 243 222 232 242 103 113 123 102 112 122 102 112 122 101 111 121 101 111 121 100 110 120 100 110 120 100 110 120 99 109 119 99 109 119 99 109 119 99 109 119 99 109 119 99 109 119 99 109 119 99 109 119 99 109 119 99 109 119 99 109 119 100 110 120 100 110 120 100 110 120 100 110 120 100 110 120 100 110 120 100 110 120 100 110 120 99 109 119 99 109 119 99 109 119 99 109 119 99 109 119 99 109 119 99 109 119 99 109 119 100 110 120 100 110 120 100 110 120 100 110 120 100 110 120 100 110 120 100 110 120 100 110 120 100 110 120 100 110 120 100 110 120 100 110 120 99 109 119 99 109 119 99 109 119 98 108 118 97 107 117 97 107 117 96 106 116 96 106 116 95 105 115 95 105 115 94 104 114 94 104 114 94 104 114 93 103 113 93 103 113 93 103 113 93 103 113 92 102 112 92 102 112 92 102 112 92 102 112 92 102 112 92 102 112 92 102 112 91 101 111 91 101 111 91 101 111 91 101 111 90 100 110 90 100 110 90 100 110 89 99 109 89 99 109 100 110 120 99 109 119 99 109 119 99 109 119 99 109 119 99 109 119 100 110 120 100 110 120 100 110 120 100 110 120 100 110 120 100 110 120 100 110 120 100 110 120 100 110 120 100 110 120 100 110 120 100 110 120 100 110 120 100 110 120 100 110 120 99 109 119 99 109 119 98 108 118 98 108 118 97 107 117 96 106 116 96 106 116 95 105 115 95 105 115 94 104 114 94 104 114 94 104 114 94 104 114 93 103 113 93 103 113 93 103 113 92 102 112 92 102 112 92 102 112 91 101 111 91 101 111 91 101 111 91 101 111 91 101 111 91 101 111 91 101 111 91 101 111 91 101 111 90 100 110 90 100 110 89 99 109 89 99 109 89 99 109 88 98 108 88 98 108 88 98 108 88 98 108 89 99 109 89 99 109 89 99 109 89 99 109 89 99 109 88 98 108 88 98 108 88 98 108 88 98 108 88 98 108 88 98 108 88 98 108 89 99 109 89 99 109 89 99 109 89 99 109 88 98 108 88 98 108 88 98 108 88 98 108 87 97 107 87 97 107 87 97 107 88 98 108 88 98 108 89 99 109 89 99 109 90 100 110 90 100 110 90 100 110 91 101 111 91 101 111 92 102 112 92 102 112 93 103 113 94 104 114 95 105 115 95 105 115 96 106 116 97 107 117 98 108 118 98 108 118 99 109 119 99 109 119 100 110 120 100 110 120 101 111 121 101 111 121 102 112 122 103 113 123 222 232 242 224 234 244 225 235 245 226 236 246 227 237 247 228 238 248 229 239 249 230 240 250 231 241 251 231 241 251 232 242 252 233 243 253 234 244 254 235 245 255 235 245 255 236 246 256 236 246 256 235 245 255 235 245 255 235 245 255 234 244 254 234 244 254 233 243 253 233 243 253 233 243 253 234 244 254 234 244 254 234 244 254 234 244 254 234 244 254 234 244 254 234 244 254 234 244 254 233 243 253 233 243 253 233 243 253 234 244 254 234 244 254 234 244 254 234 244 254 234 244 254 234 244 254 233 243 253 233 243 253 232 242 252 231 241 251 231 241 251 230 240 250 230 240 250 229 239 249 229 239 249 229 239 249 229 239 249 229 239 249 229 239 249 228 238 248 228 238 248 227 237 247 227 237 247 226 236 246 225 235 245 225 235 245 225 235 245 224 234 244 224 234 244 223 233 243 223 233 243 222 232 242 103 113 123 102 112 122 102 112 122 101 111 121 100 110 120 100 110 120 100 110 120 99 109 119 99 109 119 99 109 119 99 109 119 99 109 119 99 109 119 99 109 119 99 109 119 99 109 119 99 109 119 99 109 119 99 109 119 99 109 119 99 109 119 99 109 119 100 110 120 100 110 120 100 110 120 100 110 120 100 110 120 99 109 119 99 109 119 99 109 119 99 109 119 99 109 119 99 109 119 100 110 120 100 110 120 100 110 120 100 110 120 100 110 120 100 110 120 100 110 120 100 110 120 100 110 120 100 110 120 100 110 120 100 110 120 100 110 120 100 110 120 99 109 119 99 109 119 99 109 119 98 108 118 98 108 118 97 107 117 96 106 116 96 106 116 95 105 115 95 105 115 94 104 114 94 104 114 94 104 114 94 104 114 93 103 113 93 103 113 93 103 113 92 102 112 92 102 112 92 102 112 91 101 111 91 101 111 91 101 111 91 101 111 91 101 111 91 101 111 91 101 111 91 101 111 90 100 110 90 100 110 90 100 110 89 99 109 89 99 109 100 110 120 99 109 119 99 109 119 99 109 119 99 109 119 100 110 120 100 110 120 100 110 120 101 111 121 101 111 121 101 111 121 101 111 121 101 111 121 100 110 120 100 110 120 100 110 120 100 110 120 100 110 120 100 110 120 100 110 120 100 110 120 99 109 119 99 109 119 99 109 119 98 108 118 97 107 117 97 107 117 96 106 116 95 105 115 95 105 115 94 104 114 94 104 114 94 104 114 94 104 114 94 104 114 93 103 113 93 103 113 92 102 112 92 102 112 91 101 111 91 101 111 91 101 111 90 100 110 90 100 110 91 101 111 91 101 111 91 101 111 91 101 111 90 100 110 90 100 110 90 100 110 89 99 109 89 99 109 89 99 109 88 98 108 88 98 108 88 98 108 89 99 109 89 99 109 89 99 109 89 99 109 89 99 109 89 99 109 89 99 109 88 98 108 88 98 108 88 98 108 88 98 108 88 98 108 88 98 108 88 98 108 89 99 109 89 99 109 89 99 109 88 98 108 88 98 108 88 98 108 87 97 107 87 97 107 87 97 107 87 97 107 88 98 108 88 98 108 89 99 109 89 99 109 90 100 110 90 100 110 90 100 110 91 101 111 91 101 111 91 101 111 92 102 112 92 102 112 93 103 113 94 104 114 95 105 115 96 106 116 97 107 117 98 108 118 98 108 118 99 109 119 99 109 119 100 110 120 100 110 120 101 111 121 102 112 122 102 112 122 103 113 123 223 233 243 225 235 245 226 236 246 228 238 248 229 239 249 229 239 249 230 240 250 230 240 250 231 241 251 231 241 251 232 242 252 233 243 253 234 244 254 235 245 255 236 246 256 236 246 256 236 246 256 236 246 256 235 245 255 235 245 255 234 244 254 234 244 254 234 244 254 234 244 254 234 244 254 234 244 254 234 244 254 235 245 255 235 245 255 235 245 255 234 244 254 234 244 254 233 243 253 233 243 253 233 243 253 233 243 253 233 243 253 233 243 253 234 244 254 234 244 254 234 244 254 234 244 254 233 243 253 233 243 253 232 242 252 231 241 251 231 241 251 230 240 250 230 240 250 230 240 250 230 240 250 230 240 250 230 240 250 230 240 250 230 240 250 229 239 249 228 238 248 228 238 248 227 237 247 226 236 246 225 235 245 225 235 245 224 234 244 224 234 244 224 234 244 223 233 243 223 233 243 222 232 242 103 113 123 102 112 122 101 111 121 101 111 121 100 110 120 100 110 120 99 109 119 99 109 119 99 109 119 99 109 119 99 109 119 99 109 119 99 109 119 99 109 119 98 108 118 98 108 118 98 108 118 98 108 118 98 108 118 98 108 118 99 109 119 99 109 119 99 109 119 100 110 120 100 110 120 100 110 120 100 110 120 99 109 119 99 109 119 99 109 119 99 109 119 99 109 119 100 110 120 100 110 120 101 111 121 101 111 121 101 111 121 101 111 121 101 111 121 101 111 121 100 110 120 100 110 120 100 110 120 100 110 120 100 110 120 100 110 120 100 110 120 100 110 120 99 109 119 99 109 119 98 108 118 98 108 118 97 107 117 96 106 116 96 106 116 95 105 115 95 105 115 94 104 114 94 104 114 94 104 114 94 104 114 94 104 114 93 103 113 93 103 113 92 102 112 92 102 112 91 101 111 91 101 111 91 101 111 90 100 110 90 100 110 91 101 111 91 101 111 91 101 111 91 101 111 90 100 110 90 100 110 90 100 110 89 99 109 89 99 109 100 110 120 99 109 119 99 109 119 99 109 119 100 110 120 100 110 120 100 110 120 101 111 121 101 111 121 101 111 121 101 111 121 101 111 121 101 111 121 101 111 121 100 110 120 100 110 120 100 110 120 100 110 120 100 110 120 100 110 120 100 110 120 99 109 119 99 109 119 99 109 119 98 108 118 97 107 117 97 107 117 96 106 116 95 105 115 95 105 115 94 104 114 94 104 114 94 104 114 94 104 114 94 104 114 93 103 113 93 103 113 92 102 112 92 102 112 91 101 111 91 101 111 90 100 110 90 100 110 90 100 110 90 100 110 90 100 110 90 100 110 90 100 110 90 100 110 90 100 110 90 100 110 89 99 109 89 99 109 89 99 109 89 99 109 89 99 109 89 99 109 89 99 109 89 99 109 89 99 109 89 99 109 89 99 109 89 99 109 89 99 109 88 98 108 88 98 108 88 98 108 88 98 108 88 98 108 88 98 108 88 98 108 88 98 108 88 98 108 88 98 108 88 98 108 88 98 108 88 98 108 87 97 107 87 97 107 87 97 107 87 97 107 88 98 108 88 98 108 89 99 109 89 99 109 90 100 110 90 100 110 90 100 110 90 100 110 91 101 111 91 101 111 91 101 111 92 102 112 92 102 112 93 103 113 94 104 114 95 105 115 97 107 117 97 107 117 98 108 118 99 109 119 99 109 119 100 110 120 100 110 120 101 111 121 102 112 122 103 113 123 222 232 242 224 234 244 226 236 246 227 237 247 228 238 248 229 239 249 230 240 250 230 240 250 231 241 251 231 241 251 231 241 251 232 242 252 233 243 253 234 244 254 235 245 255 236 246 256 236 246 256 236 246 256 236 246 256 236 246 256 235 245 255 235 245 255 234 244 254 234 244 254 234 244 254 234 244 254 235 245 255 235 245 255 235 245 255 235 245 255 235 245 255 234 244 254 234 244 254 233 243 253 233 243 253 232 242 252 232 242 252 232 242 252 233 243 253 233 243 253 233 243 253 234 244 254 234 244 254 233 243 253 233 243 253 232 242 252 232 242 252 231 241 251 231 241 251 230 240 250 231 241 251 231 241 251 231 241 251 231 241 251 231 241 251 231 241 251 230 240 250 229 239 249 228 238 248 227 237 247 226 236 246 225 235 245 224 234 244 224 234 244 224 234 244 224 234 244 223 233 243 223 233 243 222 232 242 103 113 123 102 112 122 101 111 121 101 111 121 100 110 120 100 110 120 100 110 120 99 109 119 99 109 119 99 109 119 99 109 119 99 109 119 99 109 119 99 109 119 98 108 118 98 108 118 98 108 118 97 107 117 98 108 118 98 108 118 98 108 118 99 109 119 99 109 119 99 109 119 100 110 120 100 110 120 100 110 120 99 109 119 99 109 119 99 109 119 99 109 119 100 110 120 100 110 120 101 111 121 101 111 121 101 111 121 101 111 121 101 111 121 101 111 121 101 111 121 101 111 121 100 110 120 100 110 120 100 110 120 100 110 120 100 110 120 100 110 120 100 110 120 99 109 119 99 109 119 99 109 119 98 108 118 97 107 117 96 106 116 96 106 116 95 105 115 95 105 115 94 104 114 94 104 114 94 104 114 94 104 114 94 104 114 93 103 113 93 103 113 92 102 112 92 102 112 91 101 111 90 100 110 90 100 110 90 100 110 90 100 110 90 100 110 90 100 110 90 100 110 90 100 110 90 100 110 90 100 110 90 100 110 89 99 109 89 99 109 100 110 120 100 110 120 100 110 120 100 110 120 100 110 120 100 110 120 101 111 121 101 111 121 102 112 122 102 112 122 102 112 122 102 112 122 101 111 121 101 111 121 100 110 120 100 110 120 100 110 120 100 110 120 100 110 120 99 109 119 99 109 119 99 109 119 99 109 119 99 109 119 98 108 118 97 107 117 97 107 117 96 106 116 95 105 115 95 105 115 95 105 115 94 104 114 94 104 114 94 104 114 94 104 114 93 103 113 93 103 113 92 102 112 92 102 112 91 101 111 90 100 110 90 100 110 90 100 110 90 100 110 90 100 110 90 100 110 90 100 110 90 100 110 90 100 110 90 100 110 90 100 110 89 99 109 89 99 109 89 99 109 89 99 109 89 99 109 89 99 109 89 99 109 90 100 110 90 100 110 90 100 110 90 100 110 89 99 109 89 99 109 88 98 108 88 98 108 88 98 108 87 97 107 87 97 107 88 98 108 88 98 108 88 98 108 88 98 108 88 98 108 88 98 108 88 98 108 87 97 107 87 97 107 87 97 107 87 97 107 87 97 107 88 98 108 88 98 108 89 99 109 89 99 109 89 99 109 90 100 110 90 100 110 90 100 110 90 100 110 90 100 110 91 101 111 91 101 111 92 102 112 93 103 113 94 104 114 95 105 115 96 106 116 97 107 117 98 108 118 99 109 119 99 109 119 100 110 120 101 111 121 101 111 121 102 112 122 103 113 123 223 233 243 225 235 245 226 236 246 228 238 248 229 239 249 230 240 250 230 240 250 231 241 251 231 241 251 231 241 251 232 242 252 232 242 252 233 243 253 234 244 254 235 245 255 236 246 256 236 246 256 236 246 256 236 246 256 236 246 256 235 245 255 235 245 255 235 245 255 235 245 255 235 245 255 235 245 255 235 245 255 235 245 255 236 246 256 235 245 255 235 245 255 234 244 254 234 244 254 233 243 253 232 242 252 232 242 252 232 242 252 232 242 252 232 242 252 232 242 252 233 243 253 233 243 253 233 243 253 233 243 253 233 243 253 232 242 252 232 242 252 231 241 251 231 241 251 231 241 251 231 241 251 232 242 252 232 242 252 232 242 252 232 242 252 231 241 251 230 240 250 229 239 249 228 238 248 227 237 247 226 236 246 225 235 245 224 234 244 224 234 244 223 233 243 223 233 243 223 233 243 222 232 242 103 113 123 103 113 123 102 112 122 101 111 121 101 111 121 100 110 120 100 110 120 100 110 120 100 110 120 99 109 119 99 109 119 99 109 119 99 109 119 99 109 119 98 108 118 98 108 118 98 108 118 97 107 117 97 107 117 97 107 117 97 107 117 98 108 118 98 108 118 99 109 119 99 109 119 99 109 119 99 109 119 99 109 119 100 110 120 100 110 120 100 110 120 100 110 120 100 110 120 101 111 121 101 111 121 101 111 121 102 112 122 102 112 122 102 112 122 102 112 122 101 111 121 101 111 121 100 110 120 100 110 120 100 110 120 100 110 120 100 110 120 99 109 119 99 109 119 99 109 119 99 109 119 98 108 118 98 108 118 97 107 117 96 106 116 96 106 116 95 105 115 95 105 115 95 105 115 94 104 114 94 104 114 94 104 114 94 104 114 93 103 113 93 103 113 92 102 112 91 101 111 91 101 111 90 100 110 90 100 110 90 100 110 90 100 110 90 100 110 90 100 110 90 100 110 90 100 110 90 100 110 90 100 110 89 99 109 89 99 109 89 99 109 100 110 120 100 110 120 100 110 120 100 110 120 101 111 121 101 111 121 101 111 121 102 112 122 102 112 122 102 112 122 102 112 122 102 112 122 102 112 122 101 111 121 101 111 121 100 110 120 100 110 120 100 110 120 100 110 120 99 109 119 99 109 119 99 109 119 99 109 119 98 108 118 98 108 118 97 107 117 97 107 117 96 106 116 96 106 116 95 105 115 95 105 115 95 105 115 94 104 114 94 104 114 94 104 114 93 103 113 93 103 113 92 102 112 91 101 111 91 101 111 90 100 110 90 100 110 89 99 109 89 99 109 89 99 109 89 99 109 89 99 109 90 100 110 90 100 110 89 99 109 89 99 109 89 99 109 89 99 109 89 99 109 89 99 109 89 99 109 89 99 109 90 100 110 90 100 110 90 100 110 90 100 110 90 100 110 89 99 109 89 99 109 88 98 108 88 98 108 88 98 108 87 97 107 87 97 107 87 97 107 87 97 107 88 98 108 88 98 108 88 98 108 88 98 108 87 97 107 87 97 107 87 97 107 87 97 107 87 97 107 87 97 107 88 98 108 88 98 108 89 99 109 89 99 109 89 99 109 89 99 109 90 100 110 90 100 110 90 100 110 90 100 110 91 101 111 91 101 111 92 102 112 93 103 113 94 104 114 95 105 115 96 106 116 97 107 117 98 108 118 98 108 118 99 109 119 100 110 120 101 111 121 102 112 122 103 113 123 222 232 242 224 234 244 225 235 245 227 237 247 228 238 248 230 240 250 230 240 250 231 241 251 231 241 251 232 242 252 232 242 252 232 242 252 233 243 253 233 243 253 234 244 254 235 245 255 235 245 255 236 246 256 236 246 256 236 246 256 236 246 256 236 246 256 235 245 255 235 245 255 235 245 255 235 245 255 235 245 255 236 246 256 236 246 256 236 246 256 235 245 255 235 245 255 234 244 254 234 244 254 233 243 253 232 242 252 232 242 252 231 241 251 231 241 251 232 242 252 232 242 252 232 242 252 232 242 252 233 243 253 233 243 253 233 243 253 232 242 252 232 242 252 232 242 252 232 242 252 232 242 252 232 242 252 232 242 252 232 242 252 232 242 252 232 242 252 231 241 251 231 241 251 229 239 249 228 238 248 227 237 247 226 236 246 225 235 245 224 234 244 224 234 244 223 233 243 223 233 243 222 232 242 222 232 242 103 113 123 103 113 123 102 112 122 101 111 121 101 111 121 100 110 120 100 110 120 100 110 120 100 110 120 100 110 120 99 109 119 99 109 119 99 109 119 99 109 119 98 108 118 98 108 118 97 107 117 97 107 117 97 107 117 97 107 117 97 107 117 97 107 117 98 108 118 98 108 118 99 109 119 99 109 119 99 109 119 99 109 119 100 110 120 100 110 120 100 110 120 100 110 120 101 111 121 101 111 121 101 111 121 102 112 122 102 112 122 102 112 122 102 112 122 102 112 122 101 111 121 101 111 121 101 111 121 100 110 120 100 110 120 100 110 120 99 109 119 99 109 119 99 109 119 99 109 119 99 109 119 98 108 118 98 108 118 97 107 117 97 107 117 96 106 116 96 106 116 95 105 115 95 105 115 95 105 115 94 104 114 94 104 114 94 104 114 93 103 113 93 103 113 92 102 112 91 101 111 91 101 111 90 100 110 90 100 110 89 99 109 89 99 109 89 99 109 89 99 109 89 99 109 90 100 110 90 100 110 89 99 109 89 99 109 89 99 109 89 99 109 100 110 120 100 110 120 100 110 120 101 111 121 101 111 121 101 111 121 102 112 122 102 112 122 102 112 122 102 112 122 102 112 122 102 112 122 102 112 122 101 111 121 101 111 121 101 111 121 100 110 120 100 110 120 100 110 120 99 109 119 99 109 119 99 109 119 99 109 119 98 108 118 98 108 118 97 107 117 97 107 117 97 107 117 96 106 116 96 106 116 95 105 115 95 105 115 95 105 115 94 104 114 94 104 114 93 103 113 93 103 113 92 102 112 91 101 111 91 101 111 90 100 110 90 100 110 89 99 109 89 99 109 89 99 109 89 99 109 89 99 109 89 99 109 89 99 109 89 99 109 89 99 109 89 99 109 89 99 109 89 99 109 90 100 110 90 100 110 90 100 110 90 100 110 90 100 110 90 100 110 90 100 110 90 100 110 89 99 109 89 99 109 89 99 109 88 98 108 88 98 108 88 98 108 87 97 107 87 97 107 87 97 107 87 97 107 87 97 107 87 97 107 87 97 107 87 97 107 87 97 107 87 97 107 87 97 107 88 98 108 88 98 108 88 98 108 88 98 108 88 98 108 89 99 109 89 99 109 89 99 109 89 99 109 90 100 110 90 100 110 90 100 110 90 100 110 91 101 111 92 102 112 92 102 112 93 103 113 94 104 114 95 105 115 96 106 116 97 107 117 98 108 118 99 109 119 100 110 120 101 111 121 102 112 122 103 113 123 223 233 243 224 234 244 226 236 246 227 237 247 229 239 249 230 240 250 231 241 251 231 241 251 232 242 252 232 242 252 232 242 252 233 243 253 233 243 253 233 243 253 234 244 254 234 244 254 235 245 255 235 245 255 236 246 256 236 246 256 236 246 256 236 246 256 236 246 256 236 246 256 236 246 256 236 246 256 236 246 256 236 246 256 236 246 256 236 246 256 235 245 255 235 245 255 234 244 254 233 243 253 233 243 253 232 242 252 232 242 252 231 241 251 231 241 251 231 241 251 231 241 251 232 242 252 232 242 252 232 242 252 232 242 252 232 242 252 232 242 252 233 243 253 233 243 253 233 243 253 233 243 253 233 243 253 233 243 253 233 243 253 233 243 253 232 242 252 231 241 251 231 241 251 230 240 250 229 239 249 227 237 247 226 236 246 225 235 245 224 234 244 224 234 244 223 233 243 222 232 242 103 113 123 103 113 123 103 113 123 102 112 122 102 112 122 101 111 121 101 111 121 101 111 121 100 110 120 100 110 120 100 110 120 100 110 120 99 109 119 99 109 119 99 109 119 98 108 118 98 108 118 98 108 118 97 107 117 97 107 117 97 107 117 97 107 117 97 107 117 97 107 117 97 107 117 98 108 118 98 108 118 98 108 118 99 109 119 99 109 119 100 110 120 100 110 120 100 110 120 101 111 121 101 111 121 101 111 121 102 112 122 102 112 122 102 112 122 102 112 122 102 112 122 102 112 122 102 112 122 101 111 121 101 111 121 100 110 120 100 110 120 100 110 120 99 109 119 99 109 119 99 109 119 99 109 119 98 108 118 98 108 118 98 108 118 97 107 117 97 107 117 96 106 116 96 106 116 96 106 116 95 105 115 95 105 115 94 104 114 94 104 114 94 104 114 93 103 113 92 102 112 92 102 112 91 101 111 90 100 110 90 100 110 90 100 110 89 99 109 89 99 109 89 99 109 89 99 109 89 99 109 89 99 109 89 99 109 89 99 109 89 99 109 89 99 109 89 99 109 100 110 120 100 110 120 101 111 121 101 111 121 102 112 122 102 112 122 102 112 122 102 112 122 102 112 122 102 112 122 102 112 122 102 112 122 102 112 122 101 111 121 101 111 121 101 111 121 100 110 120 100 110 120 100 110 120 99 109 119 99 109 119 98 108 118 98 108 118 98 108 118 98 108 118 97 107 117 97 107 117 97 107 117 97 107 117 96 106 116 96 106 116 95 105 115 95 105 115 94 104 114 94 104 114 93 103 113 92 102 112 92 102 112 91 101 111 91 101 111 90 100 110 90 100 110 89 99 109 89 99 109 89 99 109 89 99 109 89 99 109 89 99 109 89 99 109 89 99 109 89 99 109 89 99 109 90 100 110 90 100 110 90 100 110 90 100 110 90 100 110 90 100 110 90 100 110 90 100 110 90 100 110 89 99 109 89 99 109 89 99 109 89 99 109 88 98 108 88 98 108 88 98 108 87 97 107 87 97 107 87 97 107 87 97 107 87 97 107 87 97 107 87 97 107 87 97 107 87 97 107 87 97 107 88 98 108 88 98 108 88 98 108 88 98 108 88 98 108 88 98 108 89 99 109 89 99 109 89 99 109 89 99 109 89 99 109 90 100 110 90 100 110 90 100 110 91 101 111 92 102 112 92 102 112 93 103 113 94 104 114 95 105 115 96 106 116 97 107 117 98 108 118 99 109 119 100 110 120 101 111 121 103 113 123 222 232 242 224 234 244 225 235 245 227 237 247 228 238 248 229 239 249 230 240 250 231 241 251 231 241 251 232 242 252 232 242 252 233 243 253 233 243 253 233 243 253 234 244 254 234 244 254 234 244 254 234 244 254 235 245 255 235 245 255 235 245 255 236 246 256 236 246 256 237 247 257 237 247 257 237 247 257 237 247 257 237 247 257 236 246 256 236 246 256 236 246 256 235 245 255 234 244 254 234 244 254 233 243 253 233 243 253 232 242 252 232 242 252 232 242 252 231 241 251 231 241 251 231 241 251 231 241 251 231 241 251 231 241 251 232 242 252 232 242 252 232 242 252 233 243 253 233 243 253 234 244 254 234 244 254 234 244 254 234 244 254 233 243 253 233 243 253 232 242 252 231 241 251 231 241 251 230 240 250 229 239 249 228 238 248 227 237 247 226 236 246 225 235 245 224 234 244 223 233 243 222 232 242 103 113 123 103 113 123 102 112 122 102 112 122 102 112 122 102 112 122 101 111 121 101 111 121 101 111 121 100 110 120 100 110 120 100 110 120 99 109 119 99 109 119 98 108 118 98 108 118 98 108 118 97 107 117 97 107 117 97 107 117 97 107 117 97 107 117 97 107 117 97 107 117 97 107 117 97 107 117 98 108 118 98 108 118 99 109 119 99 109 119 100 110 120 100 110 120 101 111 121 101 111 121 102 112 122 102 112 122 102 112 122 102 112 122 102 112 122 102 112 122 102 112 122 102 112 122 102 112 122 101 111 121 101 111 121 101 111 121 100 110 120 100 110 120 99 109 119 99 109 119 99 109 119 98 108 118 98 108 118 98 108 118 98 108 118 97 107 117 97 107 117 97 107 117 96 106 116 96 106 116 96 106 116 95 105 115 95 105 115 94 104 114 93 103 113 93 103 113 92 102 112 92 102 112 91 101 111 90 100 110 90 100 110 90 100 110 89 99 109 89 99 109 89 99 109 89 99 109 89 99 109 89 99 109 89 99 109 89 99 109 89 99 109 89 99 109 90 100 110 100 110 120 100 110 120 101 111 121 101 111 121 102 112 122 102 112 122 102 112 122 102 112 122 102 112 122 102 112 122 102 112 122 102 112 122 102 112 122 102 112 122 101 111 121 101 111 121 101 111 121 100 110 120 100 110 120 99 109 119 99 109 119 98 108 118 98 108 118 98 108 118 97 107 117 97 107 117 97 107 117 97 107 117 97 107 117 97 107 117 96 106 116 95 105 115 95 105 115 94 104 114 93 103 113 93 103 113 92 102 112 92 102 112 91 101 111 91 101 111 90 100 110 90 100 110 89 99 109 89 99 109 89 99 109 88 98 108 88 98 108 88 98 108 88 98 108 89 99 109 89 99 109 89 99 109 90 100 110 90 100 110 90 100 110 90 100 110 90 100 110 90 100 110 90 100 110 90 100 110 90 100 110 89 99 109 89 99 109 89 99 109 89 99 109 88 98 108 88 98 108 88 98 108 87 97 107 87 97 107 87 97 107 86 96 106 86 96 106 86 96 106 86 96 106 87 97 107 87 97 107 87 97 107 88 98 108 88 98 108 88 98 108 88 98 108 88 98 108 88 98 108 88 98 108 88 98 108 89 99 109 89 99 109 89 99 109 90 100 110 90 100 110 90 100 110 91 101 111 91 101 111 92 102 112 93 103 113 93 103 113 94 104 114 95 105 115 96 106 116 98 108 118 99 109 119 100 110 120 102 112 122 103 113 123 223 233 243 224 234 244 226 236 246 227 237 247 228 238 248 229 239 249 230 240 250 231 241 251 231 241 251 232 242 252 233 243 253 233 243 253 234 244 254 234 244 254 234 244 254 234 244 254 234 244 254 234 244 254 234 244 254 235 245 255 235 245 255 236 246 256 236 246 256 237 247 257 237 247 257 238 248 258 237 247 257 237 247 257 237 247 257 236 246 256 235 245 255 235 245 255 234 244 254 234 244 254 233 243 253 233 243 253 233 243 253 232 242 252 232 242 252 231 241 251 231 241 251 230 240 250 230 240 250 230 240 250 231 241 251 231 241 251 232 242 252 233 243 253 233 243 253 234 244 254 234 244 254 234 244 254 234 244 254 234 244 254 233 243 253 233 243 253 232 242 252 231 241 251 230 240 250 230 240 250 229 239 249 228 238 248 227 237 247 226 236 246 225 235 245 224 234 244 222 232 242 103 113 123 103 113 123 102 112 122 102 112 122 102 112 122 102 112 122 102 112 122 101 111 121 101 111 121 101 111 121 101 111 121 100 110 120 100 110 120 99 109 119 99 109 119 98 108 118 98 108 118 98 108 118 97 107 117 97 107 117 97 107 117 97 107 117 97 107 117 97 107 117 97 107 117 97 107 117 97 107 117 97 107 117 98 108 118 98 108 118 99 109 119 100 110 120 100 110 120 101 111 121 102 112 122 102 112 122 102 112 122 102 112 122 102 112 122 102 112 122 102 112 122 102 112 122 102 112 122 102 112 122 102 112 122 101 111 121 101 111 121 101 111 121 100 110 120 100 110 120 99 109 119 98 108 118 98 108 118 98 108 118 98 108 118 97 107 117 97 107 117 97 107 117 97 107 117 97 107 117 96 106 116 96 106 116 95 105 115 95 105 115 94 104 114 93 103 113 93 103 113 92 102 112 91 101 111 91 101 111 91 101 111 90 100 110 90 100 110 89 99 109 89 99 109 88 98 108 88 98 108 88 98 108 88 98 108 88 98 108 89 99 109 89 99 109 89 99 109 90 100 110 100 110 120 100 110 120 101 111 121 102 112 122 102 112 122 102 112 122 103 113 123 102 112 122 102 112 122 102 112 122 102 112 122 102 112 122 102 112 122 102 112 122 102 112 122 101 111 121 101 111 121 100 110 120 100 110 120 99 109 119 98 108 118 98 108 118 98 108 118 97 107 117 97 107 117 97 107 117 97 107 117 97 107 117 97 107 117 97 107 117 96 106 116 96 106 116 95 105 115 94 104 114 93 103 113 93 103 113 92 102 112 91 101 111 91 101 111 91 101 111 90 100 110 90 100 110 89 99 109 89 99 109 88 98 108 88 98 108 88 98 108 88 98 108 88 98 108 88 98 108 89 99 109 89 99 109 90 100 110 90 100 110 91 101 111 91 101 111 91 101 111 90 100 110 90 100 110 90 100 110 90 100 110 89 99 109 89 99 109 89 99 109 89 99 109 89 99 109 88 98 108 88 98 108 88 98 108 87 97 107 87 97 107 86 96 106 86 96 106 86 96 106 86 96 106 87 97 107 87 97 107 88 98 108 88 98 108 88 98 108 88 98 108 89 99 109 88 98 108 88 98 108 88 98 108 88 98 108 88 98 108 89 99 109 89 99 109 90 100 110 90 100 110 91 101 111 91 101 111 91 101 111 92 102 112 92 102 112 93 103 113 94 104 114 95 105 115 96 106 116 97 107 117 99 109 119 101 111 121 102 112 122 103 113 123 223 233 243 225 235 245 226 236 246 227 237 247 228 238 248 229 239 249 230 240 250 230 240 250 231 241 251 232 242 252 233 243 253 234 244 254 234 244 254 234 244 254 234 244 254 234 244 254 234 244 254 234 244 254 234 244 254 234 244 254 235 245 255 236 246 256 237 247 257 237 247 257 238 248 258 238 248 258 238 248 258 238 248 258 237 247 257 236 246 256 235 245 255 234 244 254 234 244 254 233 243 253 233 243 253 233 243 253 233 243 253 232 242 252 232 242 252 231 241 251 231 241 251 230 240 250 230 240 250 230 240 250 230 240 250 231 241 251 232 242 252 233 243 253 234 244 254 234 244 254 235 245 255 235 245 255 235 245 255 234 244 254 234 244 254 233 243 253 232 242 252 231 241 251 230 240 250 230 240 250 229 239 249 228 238 248 227 237 247 226 236 246 225 235 245 224 234 244 222 232 242 103 113 123 103 113 123 102 112 122 102 112 122 102 112 122 102 112 122 102 112 122 102 112 122 102 112 122 101 111 121 101 111 121 100 110 120 100 110 120 99 109 119 98 108 118 98 108 118 98 108 118 97 107 117 97 107 117 97 107 117 97 107 117 97 107 117 97 107 117 97 107 117 97 107 117 96 106 116 97 107 117 97 107 117 97 107 117 98 108 118 99 109 119 100 110 120 101 111 121 101 111 121 102 112 122 102 112 122 102 112 122 102 112 122 102 112 122 102 112 122 102 112 122 102 112 122 102 112 122 102 112 122 102 112 122 101 111 121 101 111 121 101 111 121 100 110 120 100 110 120 99 109 119 98 108 118 98 108 118 98 108 118 97 107 117 97 107 117 97 107 117 97 107 117 97 107 117 97 107 117 97 107 117 96 106 116 95 105 115 95 105 115 94 104 114 93 103 113 92 102 112 92 102 112 91 101 111 91 101 111 91 101 111 90 100 110 90 100 110 89 99 109 89 99 109 88 98 108 88 98 108 88 98 108 88 98 108 88 98 108 88 98 108 89 99 109 90 100 110 90 100 110 100 110 120 100 110 120 101 111 121 102 112 122 102 112 122 103 113 123 103 113 123 102 112 122 102 112 122 102 112 122 102 112 122 102 112 122 102 112 122 102 112 122 102 112 122 101 111 121 101 111 121 100 110 120 100 110 120 99 109 119 98 108 118 98 108 118 97 107 117 97 107 117 97 107 117 97 107 117 97 107 117 97 107 117 97 107 117 97 107 117 96 106 116 96 106 116 95 105 115 94 104 114 93 103 113 92 102 112 92 102 112 91 101 111 91 101 111 91 101 111 90 100 110 90 100 110 89 99 109 89 99 109 88 98 108 88 98 108 88 98 108 88 98 108 88 98 108 88 98 108 89 99 109 89 99 109 90 100 110 90 100 110 91 101 111 91 101 111 91 101 111 91 101 111 90 100 110 90 100 110 89 99 109 89 99 109 89 99 109 89 99 109 89 99 109 89 99 109 88 98 108 88 98 108 88 98 108 87 97 107 87 97 107 86 96 106 86 96 106 86 96 106 86 96 106 87 97 107 87 97 107 88 98 108 88 98 108 88 98 108 89 99 109 89 99 109 89 99 109 88 98 108 88 98 108 88 98 108 88 98 108 89 99 109 89 99 109 89 99 109 90 100 110 91 101 111 91 101 111 91 101 111 92 102 112 92 102 112 93 103 113 94 104 114 95 105 115 96 106 116 97 107 117 99 109 119 101 111 121 102 112 122 103 113 123 223 233 243 225 235 245 226 236 246 227 237 247 228 238 248 229 239 249 230 240 250 230 240 250 231 241 251 232 242 252 233 243 253 234 244 254 234 244 254 234 244 254 234 244 254 234 244 254 234 244 254 234 244 254 234 244 254 234 244 254 235 245 255 236 246 256 237 247 257 237 247 257 238 248 258 238 248 258 238 248 258 238 248 258 237 247 257 236 246 256 235 245 255 234 244 254 234 244 254 233 243 253 233 243 253 233 243 253 233 243 253 232 242 252 232 242 252 231 241 251 231 241 251 230 240 250 230 240 250 230 240 250 230 240 250 231 241 251 231 241 251 233 243 253 234 244 254 235 245 255 235 245 255 235 245 255 235 245 255 234 244 254 234 244 254 233 243 253 232 242 252 231 241 251 230 240 250 230 240 250 229 239 249 228 238 248 228 238 248 226 236 246 225 235 245 224 234 244 222 232 242 103 113 123 102 112 122 102 112 122 102 112 122 102 112 122 102 112 122 102 112 122 102 112 122 102 112 122 101 111 121 101 111 121 100 110 120 100 110 120 99 109 119 98 108 118 98 108 118 98 108 118 97 107 117 97 107 117 97 107 117 97 107 117 97 107 117 97 107 117 97 107 117 96 106 116 96 106 116 96 106 116 97 107 117 97 107 117 98 108 118 99 109 119 100 110 120 101 111 121 102 112 122 102 112 122 102 112 122 103 113 123 103 113 123 102 112 122 102 112 122 102 112 122 102 112 122 102 112 122 102 112 122 102 112 122 102 112 122 101 111 121 101 111 121 100 110 120 100 110 120 99 109 119 98 108 118 98 108 118 97 107 117 97 107 117 97 107 117 97 107 117 97 107 117 97 107 117 97 107 117 97 107 117 96 106 116 95 105 115 95 105 115 94 104 114 93 103 113 92 102 112 92 102 112 91 101 111 91 101 111 91 101 111 90 100 110 90 100 110 89 99 109 89 99 109 88 98 108 88 98 108 88 98 108 88 98 108 88 98 108 88 98 108 89 99 109 90 100 110 90 100 110 100 110 120 100 110 120 101 111 121 102 112 122 102 112 122 103 113 123 103 113 123 102 112 122 102 112 122 102 112 122 102 112 122 102 112 122 102 112 122 102 112 122 102 112 122 101 111 121 101 111 121 100 110 120 100 110 120 99 109 119 98 108 118 98 108 118 98 108 118 97 107 117 97 107 117 97 107 117 97 107 117 97 107 117 97 107 117 97 107 117 96 106 116 96 106 116 95 105 115 94 104 114 93 103 113 92 102 112 92 102 112 91 101 111 91 101 111 91 101 111 90 100 110 90 100 110 89 99 109 89 99 109 88 98 108 88 98 108 88 98 108 88 98 108 88 98 108 88 98 108 89 99 109 89 99 109 90 100 110 90 100 110 91 101 111 91 101 111 91 101 111 91 101 111 90 100 110 90 100 110 89 99 109 89 99 109 89 99 109 89 99 109 89 99 109 89 99 109 88 98 108 88 98 108 88 98 108 87 97 107 87 97 107 86 96 106 86 96 106 86 96 106 86 96 106 87 97 107 87 97 107 88 98 108 88 98 108 88 98 108 89 99 109 89 99 109 89 99 109 88 98 108 88 98 108 88 98 108 88 98 108 89 99 109 89 99 109 89 99 109 90 100 110 91 101 111 91 101 111 91 101 111 92 102 112 92 102 112 93 103 113 94 104 114 95 105 115 96 106 116 97 107 117 99 109 119 101 111 121 102 112 122 103 113 123 223 233 243 225 235 245 226 236 246 227 237 247 228 238 248 229 239 249 230 240 250 230 240 250 231 241 251 232 242 252 233 243 253 234 244 254 234 244 254 234 244 254 234 244 254 234 244 254 234 244 254 234 244 254 234 244 254 234 244 254 235 245 255 236 246 256 237 247 257 237 247 257 238 248 258 238 248 258 238 248 258 238 248 258 237 247 257 236 246 256 235 245 255 234 244 254 234 244 254 233 243 253 233 243 253 233 243 253 233 243 253 232 242 252 232 242 252 231 241 251 231 241 251 230 240 250 230 240 250 230 240 250 230 240 250 231 241 251 231 241 251 233 243 253 234 244 254 234 244 254 235 245 255 235 245 255 235 245 255 234 244 254 234 244 254 233 243 253 232 242 252 231 241 251 230 240 250 230 240 250 229 239 249 228 238 248 228 238 248 226 236 246 225 235 245 224 234 244 222 232 242 103 113 123 102 112 122 102 112 122 102 112 122 102 112 122 102 112 122 102 112 122 102 112 122 102 112 122 101 111 121 101 111 121 100 110 120 100 110 120 99 109 119 98 108 118 98 108 118 98 108 118 97 107 117 97 107 117 97 107 117 97 107 117 97 107 117 97 107 117 97 107 117 96 106 116 96 106 116 96 106 116 97 107 117 97 107 117 98 108 118 99 109 119 100 110 120 101 111 121 101 111 121 102 112 122 102 112 122 103 113 123 103 113 123 102 112 122 102 112 122 102 112 122 102 112 122 102 112 122 102 112 122 102 112 122 102 112 122 101 111 121 101 111 121 100 110 120 100 110 120 99 109 119 98 108 118 98 108 118 97 107 117 97 107 117 97 107 117 97 107 117 97 107 117 97 107 117 97 107 117 97 107 117 96 106 116 95 105 115 95 105 115 94 104 114 93 103 113 92 102 112 92 102 112 91 101 111 91 101 111 91 101 111 90 100 110 90 100 110 89 99 109 89 99 109 88 98 108 88 98 108 88 98 108 88 98 108 88 98 108 88 98 108 89 99 109 90 100 110 90 100 110 100 110 120 100 110 120 101 111 121 102 112 122 102 112 122 102 112 122 102 112 122 102 112 122 102 112 122 102 112 122 102 112 122 102 112 122 102 112 122 102 112 122 101 111 121 101 111 121 101 111 121 100 110 120 100 110 120 99 109 119 99 109 119 98 108 118 98 108 118 97 107 117 97 107 117 97 107 117 97 107 117 97 107 117 97 107 117 97 107 117 96 106 116 96 106 116 95 105 115 94 104 114 93 103 113 93 103 113 92 102 112 91 101 111 91 101 111 91 101 111 90 100 110 90 100 110 89 99 109 89 99 109 88 98 108 88 98 108 88 98 108 88 98 108 88 98 108 88 98 108 89 99 109 89 99 109 90 100 110 90 100 110 91 101 111 91 101 111 91 101 111 90 100 110 90 100 110 90 100 110 90 100 110 89 99 109 89 99 109 89 99 109 89 99 109 89 99 109 88 98 108 88 98 108 88 98 108 87 97 107 87 97 107 86 96 106 86 96 106 86 96 106 86 96 106 87 97 107 87 97 107 88 98 108 88 98 108 88 98 108 88 98 108 88 98 108 88 98 108 88 98 108 88 98 108 88 98 108 88 98 108 89 99 109 89 99 109 90 100 110 90 100 110 91 101 111 91 101 111 91 101 111 92 102 112 93 103 113 93 103 113 94 104 114 95 105 115 96 106 116 98 108 118 99 109 119 100 110 120 102 112 122 103 113 123 223 233 243 225 235 245 226 236 246 227 237 247 228 238 248 229 239 249 230 240 250 230 240 250 231 241 251 232 242 252 233 243 253 234 244 254 234 244 254 234 244 254 234 244 254 234 244 254 234 244 254 234 244 254 234 244 254 234 244 254 235 245 255 236 246 256 237 247 257 237 247 257 238 248 258 238 248 258 238 248 258 237 247 257 237 247 257 236 246 256 235 245 255 235 245 255 234 244 254 234 244 254 233 243 253 233 243 253 233 243 253 232 242 252 232 242 252 231 241 251 231 241 251 230 240 250 230 240 250 230 240 250 230 240 250 231 241 251 232 242 252 233 243 253 233 243 253 234 244 254 235 245 255 235 245 255 235 245 255 234 244 254 234 244 254 233 243 253 232 242 252 231 241 251 230 240 250 230 240 250 229 239 249 228 238 248 227 237 247 226 236 246 225 235 245 224 234 244 222 232 242 103 113 123 103 113 123 102 112 122 102 112 122 102 112 122 102 112 122 102 112 122 102 112 122 101 111 121 101 111 121 101 111 121 100 110 120 100 110 120 99 109 119 99 109 119 98 108 118 98 108 118 97 107 117 97 107 117 97 107 117 97 107 117 97 107 117 97 107 117 97 107 117 97 107 117 97 107 117 97 107 117 97 107 117 97 107 117 98 108 118 99 109 119 100 110 120 101 111 121 101 111 121 102 112 122 102 112 122 102 112 122 102 112 122 102 112 122 102 112 122 102 112 122 102 112 122 102 112 122 102 112 122 102 112 122 101 111 121 101 111 121 101 111 121 100 110 120 100 110 120 99 109 119 98 108 118 98 108 118 98 108 118 97 107 117 97 107 117 97 107 117 97 107 117 97 107 117 97 107 117 97 107 117 96 106 116 95 105 115 95 105 115 94 104 114 93 103 113 92 102 112 92 102 112 91 101 111 91 101 111 91 101 111 90 100 110 90 100 110 89 99 109 89 99 109 88 98 108 88 98 108 88 98 108 88 98 108 88 98 108 89 99 109 89 99 109 90 100 110 90 100 110 100 110 120 100 110 120 101 111 121 101 111 121 102 112 122 102 112 122 102 112 122 102 112 122 102 112 122 102 112 122 102 112 122 102 112 122 102 112 122 102 112 122 101 111 121 101 111 121 101 111 121 100 110 120 100 110 120 99 109 119 99 109 119 98 108 118 98 108 118 98 108 118 98 108 118 97 107 117 97 107 117 97 107 117 97 107 117 96 106 116 96 106 116 95 105 115 95 105 115 94 104 114 93 103 113 93 103 113 92 102 112 92 102 112 91 101 111 91 101 111 90 100 110 90 100 110 89 99 109 89 99 109 89 99 109 88 98 108 88 98 108 88 98 108 88 98 108 89 99 109 89 99 109 89 99 109 90 100 110 90 100 110 90 100 110 90 100 110 90 100 110 90 100 110 90 100 110 90 100 110 90 100 110 89 99 109 89 99 109 89 99 109 89 99 109 88 98 108 88 98 108 88 98 108 87 97 107 87 97 107 87 97 107 87 97 107 86 96 106 86 96 106 87 97 107 87 97 107 87 97 107 87 97 107 88 98 108 88 98 108 88 98 108 88 98 108 88 98 108 88 98 108 88 98 108 89 99 109 89 99 109 89 99 109 89 99 109 90 100 110 90 100 110 90 100 110 91 101 111 91 101 111 92 102 112 93 103 113 93 103 113 94 104 114 95 105 115 96 106 116 98 108 118 99 109 119 100 110 120 102 112 122 103 113 123 222 232 242 224 234 244 226 236 246 227 237 247 228 238 248 229 239 249 230 240 250 231 241 251 231 241 251 232 242 252 233 243 253 233 243 253 234 244 254 234 244 254 234 244 254 234 244 254 234 244 254 234 244 254 234 244 254 235 245 255 235 245 255 236 246 256 236 246 256 237 247 257 237 247 257 237 247 257 237 247 257 237 247 257 237 247 257 236 246 256 235 245 255 235 245 255 234 244 254 234 244 254 233 243 253 233 243 253 232 242 252 232 242 252 232 242 252 231 241 251 231 241 251 231 241 251 230 240 250 230 240 250 231 241 251 231 241 251 232 242 252 233 243 253 233 243 253 234 244 254 234 244 254 234 244 254 234 244 254 234 244 254 233 243 253 233 243 253 232 242 252 231 241 251 231 241 251 230 240 250 229 239 249 228 238 248 227 237 247 226 236 246 225 235 245 224 234 244 222 232 242 103 113 123 103 113 123 102 112 122 102 112 122 102 112 122 102 112 122 102 112 122 101 111 121 101 111 121 101 111 121 101 111 121 100 110 120 100 110 120 99 109 119 99 109 119 98 108 118 98 108 118 98 108 118 97 107 117 97 107 117 97 107 117 97 107 117 97 107 117 97 107 117 97 107 117 97 107 117 97 107 117 97 107 117 98 108 118 98 108 118 99 109 119 100 110 120 100 110 120 101 111 121 102 112 122 102 112 122 102 112 122 102 112 122 102 112 122 102 112 122 102 112 122 102 112 122 102 112 122 102 112 122 102 112 122 101 111 121 101 111 121 100 110 120 100 110 120 100 110 120 99 109 119 99 109 119 98 108 118 98 108 118 98 108 118 97 107 117 97 107 117 97 107 117 97 107 117 97 107 117 96 106 116 96 106 116 95 105 115 95 105 115 94 104 114 93 103 113 93 103 113 92 102 112 91 101 111 91 101 111 91 101 111 90 100 110 90 100 110 89 99 109 89 99 109 89 99 109 88 98 108 88 98 108 88 98 108 88 98 108 89 99 109 89 99 109 89 99 109 90 100 110 100 110 120 100 110 120 101 111 121 101 111 121 101 111 121 102 112 122 102 112 122 102 112 122 102 112 122 102 112 122 102 112 122 102 112 122 102 112 122 101 111 121 101 111 121 101 111 121 100 110 120 100 110 120 100 110 120 99 109 119 99 109 119 99 109 119 98 108 118 98 108 118 98 108 118 97 107 117 97 107 117 97 107 117 96 106 116 96 106 116 96 106 116 95 105 115 95 105 115 94 104 114 94 104 114 93 103 113 92 102 112 92 102 112 91 101 111 91 101 111 90 100 110 90 100 110 89 99 109 89 99 109 89 99 109 89 99 109 89 99 109 89 99 109 89 99 109 89 99 109 89 99 109 89 99 109 90 100 110 90 100 110 90 100 110 90 100 110 90 100 110 90 100 110 90 100 110 90 100 110 90 100 110 90 100 110 89 99 109 89 99 109 89 99 109 88 98 108 88 98 108 88 98 108 87 97 107 87 97 107 87 97 107 87 97 107 87 97 107 87 97 107 87 97 107 87 97 107 87 97 107 87 97 107 88 98 108 88 98 108 88 98 108 88 98 108 88 98 108 88 98 108 89 99 109 89 99 109 89 99 109 89 99 109 89 99 109 90 100 110 90 100 110 90 100 110 91 101 111 92 102 112 92 102 112 93 103 113 94 104 114 95 105 115 96 106 116 97 107 117 98 108 118 99 109 119 100 110 120 101 111 121 103 113 123 222 232 242 223 233 243 225 235 245 226 236 246 228 238 248 229 239 249 230 240 250 231 241 251 231 241 251 232 242 252 232 242 252 233 243 253 233 243 253 233 243 253 234 244 254 234 244 254 234 244 254 235 245 255 235 245 255 235 245 255 236 246 256 236 246 256 236 246 256 236 246 256 237 247 257 237 247 257 237 247 257 236 246 256 236 246 256 236 246 256 236 246 256 235 245 255 235 245 255 234 244 254 233 243 253 233 243 253 232 242 252 232 242 252 231 241 251 231 241 251 231 241 251 231 241 251 231 241 251 231 241 251 231 241 251 232 242 252 232 242 252 232 242 252 233 243 253 233 243 253 233 243 253 233 243 253 233 243 253 233 243 253 233 243 253 233 243 253 232 242 252 231 241 251 231 241 251 230 240 250 229 239 249 228 238 248 227 237 247 226 236 246 225 235 245 224 234 244 223 233 243 222 232 242 103 113 123 103 113 123 102 112 122 102 112 122 102 112 122 102 112 122 101 111 121 101 111 121 101 111 121 100 110 120 100 110 120 100 110 120 99 109 119 99 109 119 99 109 119 98 108 118 98 108 118 97 107 117 97 107 117 97 107 117 97 107 117 97 107 117 97 107 117 97 107 117 97 107 117 97 107 117 98 108 118 98 108 118 99 109 119 99 109 119 100 110 120 100 110 120 101 111 121 101 111 121 101 111 121 102 112 122 102 112 122 102 112 122 102 112 122 102 112 122 102 112 122 102 112 122 102 112 122 101 111 121 101 111 121 101 111 121 100 110 120 100 110 120 99 109 119 99 109 119 99 109 119 98 108 118 98 108 118 98 108 118 98 108 118 97 107 117 97 107 117 97 107 117 96 106 116 96 106 116 96 106 116 95 105 115 95 105 115 94 104 114 93 103 113 93 103 113 92 102 112 92 102 112 91 101 111 90 100 110 90 100 110 90 100 110 89 99 109 89 99 109 89 99 109 89 99 109 89 99 109 89 99 109 89 99 109 89 99 109 89 99 109 89 99 109 90 100 110 100 110 120 100 110 120 100 110 120 100 110 120 101 111 121 101 111 121 102 112 122 102 112 122 102 112 122 102 112 122 102 112 122 102 112 122 102 112 122 101 111 121 101 111 121 100 110 120 100 110 120 100 110 120 100 110 120 99 109 119 99 109 119 99 109 119 99 109 119 98 108 118 98 108 118 97 107 117 97 107 117 96 106 116 96 106 116 96 106 116 95 105 115 95 105 115 95 105 115 94 104 114 94 104 114 93 103 113 93 103 113 92 102 112 91 101 111 91 101 111 90 100 110 90 100 110 89 99 109 89 99 109 89 99 109 89 99 109 89 99 109 89 99 109 89 99 109 89 99 109 89 99 109 89 99 109 89 99 109 89 99 109 89 99 109 90 100 110 90 100 110 90 100 110 90 100 110 90 100 110 90 100 110 90 100 110 89 99 109 89 99 109 88 98 108 88 98 108 88 98 108 88 98 108 87 97 107 87 97 107 87 97 107 87 97 107 87 97 107 87 97 107 87 97 107 87 97 107 87 97 107 87 97 107 87 97 107 87 97 107 88 98 108 88 98 108 88 98 108 88 98 108 89 99 109 89 99 109 89 99 109 89 99 109 90 100 110 90 100 110 90 100 110 90 100 110 91 101 111 92 102 112 92 102 112 93 103 113 94 104 114 95 105 115 96 106 116 97 107 117 98 108 118 99 109 119 100 110 120 101 111 121 102 112 122 103 113 123 222 232 242 224 234 244 226 236 246 227 237 247 229 239 249 230 240 250 231 241 251 231 241 251 232 242 252 232 242 252 232 242 252 232 242 252 233 243 253 233 243 253 234 244 254 234 244 254 235 245 255 235 245 255 236 246 256 236 246 256 236 246 256 236 246 256 236 246 256 236 246 256 236 246 256 236 246 256 236 246 256 236 246 256 236 246 256 236 246 256 235 245 255 235 245 255 234 244 254 234 244 254 233 243 253 232 242 252 232 242 252 231 241 251 231 241 251 231 241 251 231 241 251 232 242 252 232 242 252 232 242 252 232 242 252 232 242 252 232 242 252 232 242 252 232 242 252 233 243 253 233 243 253 233 243 253 233 243 253 233 243 253 232 242 252 232 242 252 231 241 251 231 241 251 230 240 250 228 238 248 227 237 247 226 236 246 225 235 245 224 234 244 224 234 244 223 233 243 222 232 242 222 232 242 103 113 123 103 113 123 102 112 122 102 112 122 101 111 121 101 111 121 101 111 121 100 110 120 100 110 120 100 110 120 100 110 120 99 109 119 99 109 119 99 109 119 98 108 118 98 108 118 98 108 118 97 107 117 97 107 117 97 107 117 97 107 117 97 107 117 97 107 117 98 108 118 98 108 118 98 108 118 99 109 119 99 109 119 99 109 119 100 110 120 100 110 120 100 110 120 101 111 121 101 111 121 101 111 121 102 112 122 102 112 122 102 112 122 102 112 122 102 112 122 102 112 122 102 112 122 101 111 121 101 111 121 100 110 120 100 110 120 100 110 120 99 109 119 99 109 119 99 109 119 99 109 119 99 109 119 98 108 118 98 108 118 97 107 117 97 107 117 96 106 116 96 106 116 96 106 116 95 105 115 95 105 115 94 104 114 94 104 114 94 104 114 93 103 113 92 102 112 92 102 112 91 101 111 91 101 111 90 100 110 90 100 110 89 99 109 89 99 109 89 99 109 89 99 109 89 99 109 89 99 109 89 99 109 89 99 109 89 99 109 89 99 109 89 99 109 100 110 120 100 110 120 100 110 120 100 110 120 100 110 120 101 111 121 101 111 121 102 112 122 102 112 122 102 112 122 102 112 122 102 112 122 101 111 121 101 111 121 101 111 121 100 110 120 100 110 120 100 110 120 100 110 120 99 109 119 99 109 119 99 109 119 99 109 119 99 109 119 98 108 118 97 107 117 97 107 117 96 106 116 96 106 116 95 105 115 95 105 115 95 105 115 94 104 114 94 104 114 94 104 114 93 103 113 93 103 113 92 102 112 91 101 111 91 101 111 90 100 110 90 100 110 90 100 110 89 99 109 89 99 109 90 100 110 90 100 110 90 100 110 90 100 110 90 100 110 89 99 109 89 99 109 89 99 109 89 99 109 89 99 109 89 99 109 89 99 109 90 100 110 90 100 110 90 100 110 90 100 110 90 100 110 89 99 109 89 99 109 88 98 108 88 98 108 88 98 108 87 97 107 87 97 107 87 97 107 88 98 108 88 98 108 88 98 108 88 98 108 88 98 108 88 98 108 87 97 107 87 97 107 87 97 107 87 97 107 87 97 107 88 98 108 88 98 108 89 99 109 89 99 109 89 99 109 90 100 110 90 100 110 90 100 110 90 100 110 90 100 110 91 101 111 91 101 111 92 102 112 93 103 113 94 104 114 95 105 115 96 106 116 97 107 117 98 108 118 98 108 118 99 109 119 100 110 120 101 111 121 102 112 122 103 113 123 222 232 242 223 233 243 225 235 245 227 237 247 228 238 248 229 239 249 230 240 250 231 241 251 231 241 251 231 241 251 232 242 252 232 242 252 233 243 253 233 243 253 234 244 254 235 245 255 235 245 255 236 246 256 236 246 256 236 246 256 236 246 256 236 246 256 235 245 255 235 245 255 235 245 255 235 245 255 235 245 255 235 245 255 236 246 256 236 246 256 235 245 255 235 245 255 234 244 254 234 244 254 233 243 253 232 242 252 232 242 252 231 241 251 231 241 251 232 242 252 232 242 252 232 242 252 233 243 253 233 243 253 233 243 253 233 243 253 232 242 252 232 242 252 232 242 252 232 242 252 232 242 252 232 242 252 232 242 252 232 242 252 232 242 252 232 242 252 231 241 251 230 240 250 229 239 249 228 238 248 227 237 247 226 236 246 225 235 245 224 234 244 224 234 244 223 233 243 223 233 243 222 232 242 222 232 242 103 113 123 103 113 123 102 112 122 101 111 121 101 111 121 100 110 120 100 110 120 100 110 120 100 110 120 100 110 120 99 109 119 99 109 119 99 109 119 99 109 119 98 108 118 98 108 118 97 107 117 97 107 117 97 107 117 97 107 117 97 107 117 98 108 118 98 108 118 98 108 118 99 109 119 99 109 119 99 109 119 99 109 119 100 110 120 100 110 120 100 110 120 100 110 120 100 110 120 101 111 121 101 111 121 102 112 122 102 112 122 102 112 122 102 112 122 102 112 122 101 111 121 101 111 121 100 110 120 100 110 120 100 110 120 100 110 120 99 109 119 99 109 119 99 109 119 99 109 119 99 109 119 98 108 118 98 108 118 97 107 117 97 107 117 96 106 116 96 106 116 95 105 115 95 105 115 95 105 115 94 104 114 94 104 114 94 104 114 93 103 113 93 103 113 92 102 112 91 101 111 91 101 111 90 100 110 90 100 110 89 99 109 89 99 109 89 99 109 90 100 110 90 100 110 90 100 110 90 100 110 90 100 110 89 99 109 89 99 109 89 99 109 100 110 120 99 109 119 100 110 120 100 110 120 100 110 120 100 110 120 101 111 121 101 111 121 102 112 122 102 112 122 102 112 122 102 112 122 101 111 121 101 111 121 100 110 120 100 110 120 100 110 120 100 110 120 100 110 120 100 110 120 99 109 119 99 109 119 99 109 119 99 109 119 98 108 118 97 107 117 97 107 117 96 106 116 95 105 115 95 105 115 95 105 115 94 104 114 94 104 114 94 104 114 94 104 114 93 103 113 93 103 113 92 102 112 92 102 112 91 101 111 90 100 110 90 100 110 90 100 110 90 100 110 90 100 110 90 100 110 90 100 110 90 100 110 90 100 110 90 100 110 90 100 110 89 99 109 89 99 109 89 99 109 89 99 109 89 99 109 89 99 109 89 99 109 89 99 109 90 100 110 90 100 110 90 100 110 89 99 109 89 99 109 88 98 108 88 98 108 88 98 108 88 98 108 88 98 108 88 98 108 88 98 108 88 98 108 88 98 108 88 98 108 88 98 108 88 98 108 87 97 107 87 97 107 87 97 107 87 97 107 87 97 107 88 98 108 88 98 108 89 99 109 89 99 109 89 99 109 90 100 110 90 100 110 90 100 110 90 100 110 91 101 111 91 101 111 91 101 111 92 102 112 93 103 113 94 104 114 95 105 115 96 106 116 97 107 117 98 108 118 99 109 119 99 109 119 100 110 120 101 111 121 101 111 121 102 112 122 103 113 123 223 233 243 225 235 245 226 236 246 228 238 248 229 239 249 230 240 250 230 240 250 231 241 251 231 241 251 231 241 251 232 242 252 232 242 252 233 243 253 234 244 254 235 245 255 236 246 256 236 246 256 236 246 256 236 246 256 236 246 256 235 245 255 235 245 255 235 245 255 234 244 254 234 244 254 235 245 255 235 245 255 235 245 255 235 245 255 235 245 255 235 245 255 234 244 254 234 244 254 233 243 253 232 242 252 232 242 252 232 242 252 232 242 252 232 242 252 233 243 253 233 243 253 233 243 253 233 243 253 233 243 253 233 243 253 232 242 252 232 242 252 231 241 251 231 241 251 231 241 251 231 241 251 231 241 251 232 242 252 232 242 252 231 241 251 231 241 251 230 240 250 229 239 249 228 238 248 227 237 247 226 236 246 225 235 245 224 234 244 224 234 244 224 234 244 223 233 243 223 233 243 222 232 242 103 113 123 103 113 123 102 112 122 101 111 121 101 111 121 100 110 120 100 110 120 100 110 120 99 109 119 99 109 119 99 109 119 99 109 119 99 109 119 99 109 119 98 108 118 98 108 118 98 108 118 97 107 117 97 107 117 97 107 117 98 108 118 98 108 118 98 108 118 99 109 119 99 109 119 99 109 119 100 110 120 100 110 120 99 109 119 99 109 119 100 110 120 100 110 120 100 110 120 100 110 120 101 111 121 101 111 121 102 112 122 102 112 122 102 112 122 101 111 121 101 111 121 101 111 121 100 110 120 100 110 120 100 110 120 100 110 120 100 110 120 100 110 120 99 109 119 99 109 119 99 109 119 98 108 118 98 108 118 97 107 117 96 106 116 96 106 116 95 105 115 95 105 115 95 105 115 94 104 114 94 104 114 94 104 114 94 104 114 93 103 113 93 103 113 92 102 112 91 101 111 91 101 111 90 100 110 90 100 110 90 100 110 90 100 110 90 100 110 90 100 110 90 100 110 90 100 110 90 100 110 90 100 110 89 99 109 89 99 109 89 99 109 100 110 120 99 109 119 99 109 119 99 109 119 100 110 120 100 110 120 100 110 120 101 111 121 101 111 121 101 111 121 101 111 121 101 111 121 101 111 121 101 111 121 100 110 120 100 110 120 100 110 120 100 110 120 100 110 120 100 110 120 100 110 120 99 109 119 99 109 119 99 109 119 98 108 118 97 107 117 97 107 117 96 106 116 95 105 115 95 105 115 94 104 114 94 104 114 94 104 114 94 104 114 94 104 114 93 103 113 93 103 113 92 102 112 92 102 112 91 101 111 91 101 111 90 100 110 90 100 110 90 100 110 90 100 110 90 100 110 90 100 110 90 100 110 90 100 110 90 100 110 90 100 110 89 99 109 89 99 109 89 99 109 88 98 108 89 99 109 89 99 109 89 99 109 89 99 109 89 99 109 89 99 109 89 99 109 89 99 109 89 99 109 88 98 108 88 98 108 88 98 108 88 98 108 88 98 108 88 98 108 88 98 108 88 98 108 88 98 108 88 98 108 88 98 108 88 98 108 88 98 108 87 97 107 87 97 107 87 97 107 87 97 107 88 98 108 88 98 108 89 99 109 89 99 109 90 100 110 90 100 110 90 100 110 90 100 110 91 101 111 91 101 111 91 101 111 92 102 112 93 103 113 94 104 114 95 105 115 96 106 116 97 107 117 97 107 117 98 108 118 99 109 119 99 109 119 100 110 120 100 110 120 101 111 121 102 112 122 103 113 123 222 232 242 224 234 244 225 235 245 227 237 247 228 238 248 229 239 249 230 240 250 230 240 250 231 241 251 231 241 251 231 241 251 232 242 252 233 243 253 234 244 254 235 245 255 236 246 256 236 246 256 236 246 256 236 246 256 236 246 256 235 245 255 235 245 255 234 244 254 234 244 254 234 244 254 234 244 254 234 244 254 235 245 255 235 245 255 235 245 255 235 245 255 234 244 254 234 244 254 233 243 253 233 243 253 232 242 252 232 242 252 232 242 252 233 243 253 233 243 253 234 244 254 234 244 254 234 244 254 233 243 253 233 243 253 232 242 252 231 241 251 231 241 251 230 240 250 230 240 250 230 240 250 231 241 251 231 241 251 231 241 251 231 241 251 230 240 250 230 240 250 229 239 249 228 238 248 227 237 247 226 236 246 225 235 245 224 234 244 224 234 244 224 234 244 224 234 244 223 233 243 223 233 243 222 232 242 103 113 123 102 112 122 101 111 121 101 111 121 100 110 120 100 110 120 99 109 119 99 109 119 99 109 119 99 109 119 99 109 119 99 109 119 99 109 119 99 109 119 98 108 118 98 108 118 98 108 118 98 108 118 98 108 118 98 108 118 98 108 118 99 109 119 99 109 119 100 110 120 100 110 120 100 110 120 100 110 120 99 109 119 99 109 119 99 109 119 99 109 119 100 110 120 100 110 120 100 110 120 101 111 121 101 111 121 101 111 121 101 111 121 101 111 121 101 111 121 100 110 120 100 110 120 100 110 120 100 110 120 100 110 120 100 110 120 100 110 120 100 110 120 99 109 119 99 109 119 99 109 119 98 108 118 97 107 117 96 106 116 96 106 116 95 105 115 95 105 115 94 104 114 94 104 114 94 104 114 94 104 114 94 104 114 93 103 113 93 103 113 92 102 112 92 102 112 91 101 111 91 101 111 90 100 110 90 100 110 90 100 110 90 100 110 90 100 110 90 100 110 90 100 110 90 100 110 90 100 110 90 100 110 89 99 109 89 99 109 100 110 120 99 109 119 99 109 119 99 109 119 99 109 119 100 110 120 100 110 120 100 110 120 101 111 121 101 111 121 101 111 121 101 111 121 101 111 121 100 110 120 100 110 120 100 110 120 100 110 120 100 110 120 100 110 120 100 110 120 100 110 120 99 109 119 99 109 119 99 109 119 98 108 118 97 107 117 96 106 116 96 106 116 95 105 115 95 105 115 94 104 114 94 104 114 94 104 114 94 104 114 94 104 114 93 103 113 93 103 113 92 102 112 92 102 112 91 101 111 91 101 111 91 101 111 91 101 111 91 101 111 91 101 111 91 101 111 91 101 111 91 101 111 91 101 111 90 100 110 90 100 110 89 99 109 89 99 109 89 99 109 88 98 108 88 98 108 88 98 108 89 99 109 89 99 109 89 99 109 89 99 109 89 99 109 89 99 109 89 99 109 88 98 108 88 98 108 88 98 108 88 98 108 88 98 108 88 98 108 88 98 108 89 99 109 89 99 109 89 99 109 88 98 108 88 98 108 88 98 108 87 97 107 87 97 107 87 97 107 87 97 107 88 98 108 88 98 108 89 99 109 89 99 109 90 100 110 90 100 110 90 100 110 91 101 111 91 101 111 91 101 111 92 102 112 92 102 112 93 103 113 94 104 114 95 105 115 96 106 116 97 107 117 98 108 118 98 108 118 99 109 119 99 109 119 100 110 120 100 110 120 101 111 121 102 112 122 102 112 122 103 113 123 223 233 243 224 234 244 226 236 246 227 237 247 228 238 248 229 239 249 230 240 250 230 240 250 231 241 251 231 241 251 232 242 252 233 243 253 234 244 254 235 245 255 235 245 255 236 246 256 236 246 256 236 246 256 235 245 255 235 245 255 234 244 254 234 244 254 234 244 254 234 244 254 234 244 254 234 244 254 234 244 254 235 245 255 235 245 255 235 245 255 234 244 254 234 244 254 233 243 253 233 243 253 233 243 253 233 243 253 233 243 253 233 243 253 234 244 254 234 244 254 234 244 254 234 244 254 233 243 253 233 243 253 232 242 252 231 241 251 231 241 251 230 240 250 230 240 250 230 240 250 230 240 250 230 240 250 230 240 250 230 240 250 230 240 250 229 239 249 228 238 248 227 237 247 227 237 247 226 236 246 225 235 245 225 235 245 224 234 244 224 234 244 224 234 244 223 233 243 223 233 243 222 232 242 103 113 123 102 112 122 101 111 121 101 111 121 100 110 120 100 110 120 100 110 120 99 109 119 99 109 119 99 109 119 99 109 119 99 109 119 99 109 119 99 109 119 99 109 119 98 108 118 98 108 118 98 108 118 98 108 118 99 109 119 99 109 119 99 109 119 100 110 120 100 110 120 100 110 120 100 110 120 100 110 120 99 109 119 99 109 119 99 109 119 99 109 119 99 109 119 100 110 120 100 110 120 100 110 120 101 111 121 101 111 121 101 111 121 101 111 121 101 111 121 100 110 120 100 110 120 100 110 120 100 110 120 100 110 120 100 110 120 100 110 120 100 110 120 99 109 119 99 109 119 98 108 118 98 108 118 97 107 117 96 106 116 96 106 116 95 105 115 95 105 115 94 104 114 94 104 114 94 104 114 94 104 114 93 103 113 93 103 113 93 103 113 92 102 112 92 102 112 91 101 111 91 101 111 91 101 111 91 101 111 91 101 111 91 101 111 91 101 111 91 101 111 91 101 111 90 100 110 90 100 110 90 100 110 89 99 109 89 99 109 100 110 120 99 109 119 99 109 119 99 109 119 99 109 119 99 109 119 99 109 119 100 110 120 100 110 120 100 110 120 100 110 120 100 110 120 100 110 120 100 110 120 100 110 120 100 110 120 100 110 120 100 110 120 100 110 120 100 110 120 100 110 120 99 109 119 99 109 119 98 108 118 98 108 118 97 107 117 96 106 116 96 106 116 95 105 115 95 105 115 94 104 114 94 104 114 94 104 114 94 104 114 93 103 113 93 103 113 93 103 113 92 102 112 92 102 112 92 102 112 92 102 112 91 101 111 91 101 111 91 101 111 91 101 111 91 101 111 91 101 111 91 101 111 91 101 111 90 100 110 90 100 110 89 99 109 89 99 109 89 99 109 88 98 108 88 98 108 88 98 108 88 98 108 88 98 108 88 98 108 89 99 109 89 99 109 89 99 109 88 98 108 88 98 108 88 98 108 88 98 108 88 98 108 88 98 108 89 99 109 89 99 109 89 99 109 89 99 109 89 99 109 88 98 108 88 98 108 88 98 108 88 98 108 88 98 108 87 97 107 88 98 108 88 98 108 88 98 108 89 99 109 89 99 109 90 100 110 90 100 110 90 100 110 91 101 111 91 101 111 92 102 112 92 102 112 93 103 113 94 104 114 95 105 115 96 106 116 96 106 116 97 107 117 98 108 118 98 108 118 99 109 119 99 109 119 100 110 120 100 110 120 101 111 121 101 111 121 102 112 122 103 113 123 222 232 242 223 233 243 225 235 245 226 236 246 227 237 247 228 238 248 229 239 249 230 240 250 231 241 251 231 241 251 232 242 252 233 243 253 234 244 254 235 245 255 235 245 255 235 245 255 235 245 255 235 245 255 235 245 255 235 245 255 234 244 254 234 244 254 233 243 253 233 243 253 233 243 253 234 244 254 234 244 254 234 244 254 234 244 254 234 244 254 234 244 254 234 244 254 234 244 254 234 244 254 234 244 254 234 244 254 234 244 254 234 244 254 234 244 254 234 244 254 234 244 254 234 244 254 233 243 253 233 243 253 232 242 252 231 241 251 231 241 251 230 240 250 230 240 250 229 239 249 229 239 249 229 239 249 229 239 249 229 239 249 229 239 249 228 238 248 228 238 248 227 237 247 227 237 247 226 236 246 226 236 246 225 235 245 225 235 245 225 235 245 224 234 244 223 233 243 223 233 243 222 232 242 103 113 123 102 112 122 102 112 122 101 111 121 100 110 120 100 110 120 100 110 120 99 109 119 99 109 119 99 109 119 99 109 119 99 109 119 99 109 119 99 109 119 99 109 119 99 109 119 99 109 119 99 109 119 99 109 119 99 109 119 99 109 119 100 110 120 100 110 120 100 110 120 100 110 120 100 110 120 100 110 120 99 109 119 99 109 119 99 109 119 99 109 119 99 109 119 99 109 119 100 110 120 100 110 120 100 110 120 100 110 120 100 110 120 100 110 120 100 110 120 100 110 120 100 110 120 100 110 120 100 110 120 100 110 120 100 110 120 100 110 120 99 109 119 99 109 119 99 109 119 98 108 118 98 108 118 97 107 117 96 106 116 96 106 116 95 105 115 95 105 115 94 104 114 94 104 114 94 104 114 93 103 113 93 103 113 93 103 113 93 103 113 92 102 112 92 102 112 92 102 112 92 102 112 91 101 111 91 101 111 91 101 111 91 101 111 91 101 111 91 101 111 91 101 111 90 100 110 90 100 110 90 100 110 89 99 109 89 99 109 100 110 120 99 109 119 99 109 119 99 109 119 99 109 119 99 109 119 99 109 119 99 109 119 99 109 119 99 109 119 100 110 120 100 110 120 100 110 120 100 110 120 100 110 120 100 110 120 100 110 120 100 110 120 100 110 120 100 110 120 99 109 119 99 109 119 99 109 119 98 108 118 98 108 118 97 107 117 96 106 116 96 106 116 95 105 115 95 105 115 94 104 114 94 104 114 94 104 114 93 103 113 93 103 113 93 103 113 93 103 113 93 103 113 92 102 112 92 102 112 92 102 112 92 102 112 92 102 112 92 102 112 92 102 112 91 101 111 91 101 111 91 101 111 91 101 111 90 100 110 90 100 110 89 99 109 89 99 109 89 99 109 88 98 108 88 98 108 88 98 108 88 98 108 88 98 108 88 98 108 88 98 108 88 98 108 88 98 108 88 98 108 88 98 108 89 99 109 89 99 109 89 99 109 89 99 109 89 99 109 89 99 109 89 99 109 89 99 109 89 99 109 89 99 109 88 98 108 88 98 108 88 98 108 88 98 108 88 98 108 88 98 108 88 98 108 88 98 108 89 99 109 89 99 109 89 99 109 90 100 110 91 101 111 91 101 111 92 102 112 92 102 112 93 103 113 94 104 114 95 105 115 95 105 115 96 106 116 97 107 117 97 107 117 98 108 118 98 108 118 99 109 119 99 109 119 100 110 120 100 110 120 101 111 121 101 111 121 102 112 122 103 113 123 103 113 123 222 232 242 223 233 243 225 235 245 226 236 246 227 237 247 228 238 248 229 239 249 230 240 250 231 241 251 232 242 252 233 243 253 234 244 254 234 244 254 235 245 255 235 245 255 235 245 255 235 245 255 235 245 255 234 244 254 234 244 254 234 244 254 233 243 253 233 243 253 233 243 253 233 243 253 233 243 253 233 243 253 233 243 253 234 244 254 234 244 254 234 244 254 234 244 254 234 244 254 234 244 254 235 245 255 235 245 255 235 245 255 235 245 255 234 244 254 234 244 254 234 244 254 233 243 253 232 242 252 232 242 252 231 241 251 230 240 250 230 240 250 229 239 249 229 239 249 229 239 249 228 238 248 228 238 248 228 238 248 228 238 248 227 237 247 227 237 247 227 237 247 227 237 247 226 236 246 226 236 246 226 236 246 225 235 245 225 235 245 224 234 244 223 233 243 223 233 243 222 232 242 103 113 123 102 112 122 102 112 122 101 111 121 101 111 121 100 110 120 100 110 120 100 110 120 99 109 119 99 109 119 99 109 119 99 109 119 99 109 119 99 109 119 99 109 119 99 109 119 99 109 119 100 110 120 100 110 120 100 110 120 100 110 120 100 110 120 100 110 120 100 110 120 100 110 120 100 110 120 100 110 120 99 109 119 99 109 119 99 109 119 99 109 119 99 109 119 99 109 119 99 109 119 99 109 119 99 109 119 99 109 119 100 110 120 100 110 120 100 110 120 100 110 120 100 110 120 100 110 120 100 110 120 100 110 120 100 110 120 100 110 120 99 109 119 99 109 119 98 108 118 98 108 118 97 107 117 97 107 117 96 106 116 96 106 116 95 105 115 95 105 115 94 104 114 94 104 114 93 103 113 93 103 113 93 103 113 93 103 113 93 103 113 92 102 112 92 102 112 92 102 112 92 102 112 92 102 112 92 102 112 92 102 112 92 102 112 91 101 111 91 101 111 91 101 111 90 100 110 90 100 110 90 100 110 89 99 109 89 99 109 100 110 120 99 109 119 99 109 119 99 109 119 99 109 119 99 109 119 99 109 119 99 109 119 99 109 119 99 109 119 99 109 119 99 109 119 99 109 119 100 110 120 100 110 120 100 110 120 100 110 120 100 110 120 100 110 120 100 110 120 99 109 119 99 109 119 98 108 118 98 108 118 97 107 117 97 107 117 96 106 116 96 106 116 95 105 115 95 105 115 94 104 114 94 104 114 93 103 113 93 103 113 93 103 113 93 103 113 93 103 113 93 103 113 93 103 113 93 103 113 93 103 113 93 103 113 93 103 113 92 102 112 92 102 112 92 102 112 91 101 111 91 101 111 91 101 111 90 100 110 90 100 110 90 100 110 89 99 109 89 99 109 89 99 109 88 98 108 88 98 108 88 98 108 88 98 108 88 98 108 88 98 108 88 98 108 88 98 108 88 98 108 88 98 108 89 99 109 89 99 109 89 99 109 89 99 109 89 99 109 89 99 109 89 99 109 89 99 109 89 99 109 89 99 109 88 98 108 88 98 108 88 98 108 88 98 108 88 98 108 88 98 108 88 98 108 89 99 109 89 99 109 89 99 109 89 99 109 90 100 110 91 101 111 91 101 111 92 102 112 93 103 113 94 104 114 95 105 115 95 105 115 96 106 116 96 106 116 97 107 117 97 107 117 98 108 118 98 108 118 99 109 119 99 109 119 100 110 120 100 110 120 101 111 121 101 111 121 102 112 122 102 112 122 103 113 123 103 113 123 222 232 242 223 233 243 225 235 245 226 236 246 228 238 248 229 239 249 230 240 250 231 241 251 232 242 252 233 243 253 233 243 253 234 244 254 234 244 254 234 244 254 234 244 254 234 244 254 234 244 254 234 244 254 234 244 254 234 244 254 233 243 253 233 243 253 233 243 253 233 243 253 233 243 253 233 243 253 233 243 253 233 243 253 233 243 253 234 244 254 234 244 254 235 245 255 235 245 255 235 245 255 235 245 255 235 245 255 235 245 255 234 244 254 234 244 254 233 243 253 233 243 253 232 242 252 232 242 252 231 241 251 231 241 251 230 240 250 229 239 249 229 239 249 228 238 248 227 237 247 227 237 247 227 237 247 226 236 246 226 236 246 227 237 247 227 237 247 227 237 247 227 237 247 226 236 246 226 236 246 226 236 246 225 235 245 224 234 244 223 233 243 222 232 242 103 113 123 103 113 123 102 112 122 102 112 122 101 111 121 101 111 121 101 111 121 100 110 120 100 110 120 99 109 119 99 109 119 99 109 119 99 109 119 99 109 119 99 109 119 100 110 120 100 110 120 100 110 120 100 110 120 100 110 120 100 110 120 100 110 120 100 110 120 100 110 120 100 110 120 100 110 120 100 110 120 100 110 120 99 109 119 99 109 119 99 109 119 99 109 119 99 109 119 99 109 119 99 109 119 99 109 119 99 109 119 99 109 119 99 109 119 99 109 119 99 109 119 100 110 120 100 110 120 100 110 120 100 110 120 100 110 120 100 110 120 99 109 119 99 109 119 99 109 119 98 108 118 98 108 118 97 107 117 97 107 117 96 106 116 96 106 116 95 105 115 95 105 115 94 104 114 94 104 114 93 103 113 93 103 113 93 103 113 93 103 113 93 103 113 93 103 113 93 103 113 93 103 113 93 103 113 93 103 113 92 102 112 92 102 112 92 102 112 92 102 112 91 101 111 91 101 111 90 100 110 90 100 110 90 100 110 89 99 109 89 99 109 100 110 120 99 109 119 99 109 119 99 109 119 99 109 119 99 109 119 98 108 118 98 108 118 98 108 118 98 108 118 98 108 118 98 108 118 99 109 119 99 109 119 100 110 120 100 110 120 100 110 120 100 110 120 100 110 120 99 109 119 99 109 119 98 108 118 98 108 118 97 107 117 97 107 117 97 107 117 96 106 116 96 106 116 96 106 116 95 105 115 94 104 114 94 104 114 93 103 113 93 103 113 93 103 113 92 102 112 92 102 112 93 103 113 93 103 113 93 103 113 93 103 113 93 103 113 93 103 113 93 103 113 92 102 112 92 102 112 91 101 111 91 101 111 91 101 111 90 100 110 90 100 110 90 100 110 89 99 109 89 99 109 89 99 109 88 98 108 88 98 108 88 98 108 87 97 107 87 97 107 87 97 107 87 97 107 88 98 108 88 98 108 89 99 109 89 99 109 89 99 109 89 99 109 89 99 109 89 99 109 89 99 109 89 99 109 89 99 109 89 99 109 89 99 109 89 99 109 89 99 109 89 99 109 89 99 109 89 99 109 89 99 109 89 99 109 89 99 109 89 99 109 89 99 109 90 100 110 90 100 110 91 101 111 92 102 112 93 103 113 94 104 114 95 105 115 95 105 115 96 106 116 96 106 116 97 107 117 97 107 117 98 108 118 98 108 118 98 108 118 99 109 119 99 109 119 100 110 120 100 110 120 101 111 121 101 111 121 102 112 122 102 112 122 102 112 122 103 113 123 103 113 123 222 232 242 224 234 244 225 235 245 227 237 247 229 239 249 230 240 250 231 241 251 232 242 252 233 243 253 233 243 253 233 243 253 233 243 253 233 243 253 233 243 253 233 243 253 233 243 253 234 244 254 234 244 254 234 244 254 233 243 253 233 243 253 233 243 253 232 242 252 232 242 252 232 242 252 232 242 252 233 243 253 233 243 253 234 244 254 235 245 255 235 245 255 236 246 256 236 246 256 236 246 256 236 246 256 235 245 255 234 244 254 234 244 254 233 243 253 232 242 252 232 242 252 232 242 252 231 241 251 231 241 251 230 240 250 229 239 249 228 238 248 227 237 247 227 237 247 226 236 246 226 236 246 225 235 245 226 236 246 226 236 246 226 236 246 227 237 247 227 237 247 227 237 247 226 236 246 226 236 246 225 235 245 224 234 244 223 233 243 222 232 242 103 113 123 103 113 123 102 112 122 102 112 122 102 112 122 101 111 121 101 111 121 100 110 120 100 110 120 100 110 120 99 109 119 99 109 119 99 109 119 99 109 119 99 109 119 100 110 120 100 110 120 101 111 121 101 111 121 101 111 121 101 111 121 101 111 121 101 111 121 100 110 120 100 110 120 100 110 120 100 110 120 100 110 120 99 109 119 99 109 119 99 109 119 99 109 119 99 109 119 99 109 119 98 108 118 98 108 118 98 108 118 98 108 118 98 108 118 99 109 119 99 109 119 99 109 119 100 110 120 100 110 120 100 110 120 100 110 120 100 110 120 99 109 119 99 109 119 98 108 118 98 108 118 97 107 117 97 107 117 97 107 117 96 106 116 96 106 116 95 105 115 95 105 115 94 104 114 94 104 114 93 103 113 93 103 113 93 103 113 92 102 112 93 103 113 93 103 113 93 103 113 93 103 113 93 103 113 93 103 113 93 103 113 93 103 113 92 102 112 92 102 112 91 101 111 91 101 111 90 100 110 90 100 110 90 100 110 90 100 110 89 99 109 100 110 120 99 109 119 99 109 119 99 109 119 99 109 119 98 108 118 98 108 118 98 108 118 98 108 118 98 108 118 98 108 118 98 108 118 98 108 118 99 109 119 99 109 119 100 110 120 100 110 120 100 110 120 100 110 120 99 109 119 99 109 119 98 108 118 98 108 118 97 107 117 97 107 117 97 107 117 96 106 116 96 106 116 96 106 116 95 105 115 95 105 115 94 104 114 93 103 113 93 103 113 93 103 113 92 102 112 93 103 113 93 103 113 93 103 113 93 103 113 94 104 114 94 104 114 94 104 114 93 103 113 93 103 113 92 102 112 92 102 112 91 101 111 91 101 111 90 100 110 90 100 110 90 100 110 90 100 110 89 99 109 89 99 109 88 98 108 88 98 108 88 98 108 87 97 107 87 97 107 87 97 107 87 97 107 87 97 107 88 98 108 89 99 109 89 99 109 89 99 109 90 100 110 90 100 110 90 100 110 89 99 109 89 99 109 89 99 109 89 99 109 89 99 109 89 99 109 89 99 109 89 99 109 89 99 109 89 99 109 89 99 109 89 99 109 89 99 109 89 99 109 89 99 109 90 100 110 90 100 110 91 101 111 92 102 112 93 103 113 94 104 114 95 105 115 96 106 116 97 107 117 97 107 117 97 107 117 97 107 117 98 108 118 98 108 118 98 108 118 99 109 119 99 109 119 100 110 120 100 110 120 101 111 121 101 111 121 101 111 121 102 112 122 102 112 122 102 112 122 103 113 123 103 113 123 223 233 243 224 234 244 226 236 246 228 238 248 230 240 250 231 241 251 232 242 252 232 242 252 233 243 253 233 243 253 232 242 252 232 242 252 232 242 252 233 243 253 233 243 253 233 243 253 233 243 253 233 243 253 233 243 253 233 243 253 233 243 253 232 242 252 232 242 252 232 242 252 232 242 252 232 242 252 233 243 253 234 244 254 235 245 255 236 246 256 236 246 256 237 247 257 236 246 256 236 246 256 235 245 255 234 244 254 234 244 254 233 243 253 232 242 252 232 242 252 231 241 251 231 241 251 230 240 250 230 240 250 229 239 249 228 238 248 227 237 247 226 236 246 225 235 245 225 235 245 225 235 245 225 235 245 225 235 245 226 236 246 226 236 246 227 237 247 227 237 247 226 236 246 226 236 246 225 235 245 224 234 244 223 233 243 222 232 242 103 113 123 103 113 123 103 113 123 102 112 122 102 112 122 102 112 122 101 111 121 101 111 121 100 110 120 100 110 120 99 109 119 99 109 119 99 109 119 99 109 119 100 110 120 100 110 120 101 111 121 101 111 121 101 111 121 101 111 121 101 111 121 101 111 121 101 111 121 100 110 120 100 110 120 100 110 120 100 110 120 100 110 120 99 109 119 99 109 119 99 109 119 99 109 119 99 109 119 98 108 118 98 108 118 98 108 118 98 108 118 98 108 118 98 108 118 98 108 118 99 109 119 99 109 119 100 110 120 100 110 120 100 110 120 100 110 120 99 109 119 99 109 119 98 108 118 98 108 118 97 107 117 97 107 117 97 107 117 97 107 117 96 106 116 96 106 116 95 105 115 95 105 115 94 104 114 94 104 114 93 103 113 93 103 113 93 103 113 92 102 112 93 103 113 93 103 113 93 103 113 93 103 113 94 104 114 94 104 114 93 103 113 93 103 113 93 103 113 92 102 112 91 101 111 91 101 111 91 101 111 90 100 110 90 100 110 90 100 110 89 99 109 100 110 120 99 109 119 99 109 119 99 109 119 99 109 119 98 108 118 98 108 118 97 107 117 97 107 117 97 107 117 97 107 117 98 108 118 98 108 118 99 109 119 99 109 119 99 109 119 100 110 120 100 110 120 99 109 119 99 109 119 98 108 118 98 108 118 97 107 117 97 107 117 97 107 117 96 106 116 96 106 116 96 106 116 96 106 116 95 105 115 95 105 115 94 104 114 93 103 113 93 103 113 93 103 113 93 103 113 93 103 113 93 103 113 93 103 113 94 104 114 94 104 114 94 104 114 94 104 114 94 104 114 93 103 113 92 102 112 92 102 112 91 101 111 91 101 111 90 100 110 90 100 110 90 100 110 90 100 110 89 99 109 89 99 109 88 98 108 88 98 108 87 97 107 87 97 107 87 97 107 87 97 107 87 97 107 87 97 107 88 98 108 88 98 108 89 99 109 89 99 109 90 100 110 90 100 110 90 100 110 89 99 109 89 99 109 89 99 109 89 99 109 89 99 109 89 99 109 89 99 109 89 99 109 90 100 110 90 100 110 90 100 110 90 100 110 90 100 110 90 100 110 90 100 110 90 100 110 91 101 111 92 102 112 93 103 113 94 104 114 95 105 115 96 106 116 96 106 116 97 107 117 97 107 117 98 108 118 98 108 118 98 108 118 98 108 118 98 108 118 99 109 119 99 109 119 100 110 120 100 110 120 101 111 121 101 111 121 101 111 121 101 111 121 101 111 121 102 112 122 102 112 122 103 113 123 222 232 242 223 233 243 225 235 245 227 237 247 229 239 249 230 240 250 231 241 251 232 242 252 232 242 252 232 242 252 232 242 252 232 242 252 232 242 252 232 242 252 232 242 252 233 243 253 233 243 253 233 243 253 233 243 253 233 243 253 232 242 252 232 242 252 232 242 252 232 242 252 232 242 252 232 242 252 233 243 253 234 244 254 235 245 255 236 246 256 237 247 257 237 247 257 237 247 257 236 246 256 235 245 255 234 244 254 233 243 253 233 243 253 232 242 252 232 242 252 231 241 251 231 241 251 230 240 250 230 240 250 229 239 249 228 238 248 226 236 246 225 235 245 225 235 245 224 234 244 224 234 244 224 234 244 225 235 245 226 236 246 226 236 246 227 237 247 227 237 247 226 236 246 226 236 246 225 235 245 224 234 244 223 233 243 222 232 242 103 113 123 103 113 123 103 113 123 102 112 122 102 112 122 102 112 122 102 112 122 101 111 121 101 111 121 100 110 120 100 110 120 99 109 119 99 109 119 100 110 120 100 110 120 101 111 121 101 111 121 102 112 122 102 112 122 102 112 122 102 112 122 101 111 121 101 111 121 101 111 121 100 110 120 100 110 120 100 110 120 100 110 120 99 109 119 99 109 119 99 109 119 99 109 119 99 109 119 98 108 118 98 108 118 97 107 117 97 107 117 97 107 117 97 107 117 98 108 118 98 108 118 99 109 119 99 109 119 99 109 119 100 110 120 99 109 119 99 109 119 99 109 119 98 108 118 98 108 118 97 107 117 97 107 117 97 107 117 96 106 116 96 106 116 96 106 116 96 106 116 95 105 115 94 104 114 94 104 114 93 103 113 93 103 113 93 103 113 93 103 113 93 103 113 93 103 113 93 103 113 94 104 114 94 104 114 94 104 114 94 104 114 93 103 113 93 103 113 92 102 112 92 102 112 91 101 111 91 101 111 90 100 110 90 100 110 90 100 110 90 100 110 100 110 120 99 109 119 99 109 119 99 109 119 99 109 119 98 108 118 98 108 118 97 107 117 97 107 117 97 107 117 97 107 117 97 107 117 98 108 118 98 108 118 99 109 119 99 109 119 99 109 119 99 109 119 99 109 119 98 108 118 98 108 118 98 108 118 97 107 117 97 107 117 97 107 117 96 106 116 96 106 116 96 106 116 96 106 116 95 105 115 95 105 115 94 104 114 94 104 114 93 103 113 93 103 113 93 103 113 93 103 113 93 103 113 94 104 114 94 104 114 94 104 114 94 104 114 94 104 114 94 104 114 93 103 113 93 103 113 92 102 112 91 101 111 91 101 111 91 101 111 90 100 110 90 100 110 90 100 110 89 99 109 89 99 109 88 98 108 88 98 108 87 97 107 87 97 107 87 97 107 87 97 107 87 97 107 87 97 107 88 98 108 88 98 108 89 99 109 89 99 109 90 100 110 90 100 110 90 100 110 89 99 109 89 99 109 89 99 109 89 99 109 89 99 109 89 99 109 89 99 109 90 100 110 90 100 110 90 100 110 90 100 110 90 100 110 90 100 110 90 100 110 90 100 110 91 101 111 91 101 111 92 102 112 93 103 113 94 104 114 95 105 115 96 106 116 97 107 117 97 107 117 98 108 118 98 108 118 98 108 118 98 108 118 98 108 118 99 109 119 99 109 119 99 109 119 100 110 120 100 110 120 101 111 121 101 111 121 101 111 121 101 111 121 101 111 121 101 111 121 102 112 122 103 113 123 103 113 123 223 233 243 224 234 244 226 236 246 228 238 248 229 239 249 230 240 250 231 241 251 231 241 251 231 241 251 231 241 251 231 241 251 231 241 251 232 242 252 232 242 252 232 242 252 233 243 253 233 243 253 233 243 253 233 243 253 232 242 252 232 242 252 232 242 252 232 242 252 232 242 252 232 242 252 233 243 253 234 244 254 235 245 255 236 246 256 236 246 256 237 247 257 237 247 257 236 246 256 235 245 255 234 244 254 234 244 254 233 243 253 232 242 252 231 241 251 231 241 251 230 240 250 230 240 250 229 239 249 228 238 248 227 237 247 226 236 246 225 235 245 224 234 244 224 234 244 224 234 244 224 234 244 225 235 245 225 235 245 226 236 246 226 236 246 226 236 246 226 236 246 225 235 245 224 234 244 224 234 244 223 233 243 222 232 242 103 113 123 103 113 123 103 113 123 103 113 123 102 112 122 102 112 122 102 112 122 101 111 121 101 111 121 100 110 120 100 110 120 100 110 120 100 110 120 100 110 120 101 111 121 101 111 121 101 111 121 102 112 122 102 112 122 102 112 122 102 112 122 102 112 122 101 111 121 101 111 121 100 110 120 100 110 120 100 110 120 100 110 120 99 109 119 99 109 119 99 109 119 99 109 119 98 108 118 98 108 118 98 108 118 97 107 117 97 107 117 97 107 117 97 107 117 97 107 117 98 108 118 98 108 118 99 109 119 99 109 119 99 109 119 99 109 119 99 109 119 98 108 118 98 108 118 97 107 117 97 107 117 97 107 117 96 106 116 96 106 116 96 106 116 96 106 116 95 105 115 95 105 115 95 105 115 94 104 114 93 103 113 93 103 113 93 103 113 93 103 113 93 103 113 93 103 113 94 104 114 94 104 114 94 104 114 94 104 114 94 104 114 94 104 114 93 103 113 92 102 112 92 102 112 91 101 111 91 101 111 90 100 110 90 100 110 90 100 110 90 100 110 100 110 120 99 109 119 99 109 119 99 109 119 98 108 118 98 108 118 97 107 117 97 107 117 97 107 117 97 107 117 97 107 117 97 107 117 97 107 117 98 108 118 98 108 118 98 108 118 98 108 118 98 108 118 98 108 118 98 108 118 98 108 118 97 107 117 97 107 117 97 107 117 96 106 116 96 106 116 96 106 116 96 106 116 95 105 115 95 105 115 95 105 115 94 104 114 94 104 114 94 104 114 93 103 113 93 103 113 93 103 113 94 104 114 94 104 114 94 104 114 94 104 114 94 104 114 94 104 114 94 104 114 93 103 113 93 103 113 92 102 112 92 102 112 91 101 111 91 101 111 90 100 110 90 100 110 90 100 110 89 99 109 89 99 109 88 98 108 88 98 108 88 98 108 87 97 107 87 97 107 87 97 107 87 97 107 87 97 107 88 98 108 88 98 108 89 99 109 89 99 109 89 99 109 90 100 110 90 100 110 90 100 110 89 99 109 89 99 109 89 99 109 89 99 109 90 100 110 90 100 110 90 100 110 90 100 110 90 100 110 90 100 110 90 100 110 91 101 111 91 101 111 91 101 111 91 101 111 92 102 112 93 103 113 94 104 114 95 105 115 95 105 115 96 106 116 97 107 117 97 107 117 98 108 118 98 108 118 98 108 118 98 108 118 99 109 119 99 109 119 99 109 119 99 109 119 100 110 120 100 110 120 100 110 120 100 110 120 101 111 121 101 111 121 101 111 121 101 111 121 102 112 122 102 112 122 103 113 123 222 232 242 224 234 244 225 235 245 227 237 247 228 238 248 229 239 249 229 239 249 230 240 250 230 240 250 230 240 250 231 241 251 231 241 251 231 241 251 231 241 251 232 242 252 232 242 252 232 242 252 232 242 252 232 242 252 232 242 252 232 242 252 232 242 252 232 242 252 232 242 252 233 243 253 233 243 253 234 244 254 235 245 255 236 246 256 236 246 256 236 246 256 236 246 256 236 246 256 235 245 255 234 244 254 234 244 254 233 243 253 232 242 252 231 241 251 231 241 251 230 240 250 229 239 249 229 239 249 228 238 248 227 237 247 226 236 246 225 235 245 224 234 244 224 234 244 224 234 244 224 234 244 224 234 244 225 235 245 225 235 245 225 235 245 225 235 245 225 235 245 225 235 245 224 234 244 223 233 243 223 233 243 222 232 242 103 113 123 103 113 123 103 113 123 103 113 123 102 112 122 102 112 122 102 112 122 102 112 122 101 111 121 101 111 121 101 111 121 101 111 121 101 111 121 101 111 121 101 111 121 101 111 121 102 112 122 102 112 122 102 112 122 102 112 122 102 112 122 102 112 122 101 111 121 101 111 121 101 111 121 100 110 120 100 110 120 100 110 120 99 109 119 99 109 119 99 109 119 99 109 119 98 108 118 98 108 118 97 107 117 97 107 117 97 107 117 97 107 117 97 107 117 97 107 117 98 108 118 98 108 118 98 108 118 98 108 118 98 108 118 98 108 118 98 108 118 98 108 118 98 108 118 97 107 117 97 107 117 97 107 117 96 106 116 96 106 116 96 106 116 96 106 116 95 105 115 95 105 115 95 105 115 94 104 114 94 104 114 93 103 113 93 103 113 93 103 113 93 103 113 94 104 114 94 104 114 94 104 114 94 104 114 94 104 114 94 104 114 94 104 114 93 103 113 93 103 113 92 102 112 92 102 112 91 101 111 91 101 111 90 100 110 90 100 110 90 100 110 100 110 120 99 109 119 99 109 119 98 108 118 98 108 118 98 108 118 97 107 117 97 107 117 97 107 117 97 107 117 97 107 117 97 107 117 97 107 117 97 107 117 98 108 118 98 108 118 98 108 118 98 108 118 98 108 118 98 108 118 97 107 117 97 107 117 97 107 117 97 107 117 96 106 116 96 106 116 96 106 116 96 106 116 95 105 115 95 105 115 95 105 115 94 104 114 94 104 114 94 104 114 94 104 114 94 104 114 94 104 114 94 104 114 94 104 114 94 104 114 94 104 114 94 104 114 94 104 114 94 104 114 93 103 113 93 103 113 93 103 113 92 102 112 92 102 112 91 101 111 91 101 111 90 100 110 90 100 110 89 99 109 89 99 109 88 98 108 88 98 108 88 98 108 88 98 108 87 97 107 87 97 107 88 98 108 88 98 108 88 98 108 88 98 108 89 99 109 89 99 109 89 99 109 89 99 109 89 99 109 90 100 110 90 100 110 90 100 110 90 100 110 90 100 110 90 100 110 90 100 110 90 100 110 90 100 110 90 100 110 91 101 111 91 101 111 91 101 111 91 101 111 92 102 112 92 102 112 93 103 113 94 104 114 94 104 114 95 105 115 96 106 116 96 106 116 97 107 117 97 107 117 98 108 118 98 108 118 98 108 118 99 109 119 99 109 119 99 109 119 99 109 119 99 109 119 100 110 120 100 110 120 100 110 120 100 110 120 100 110 120 101 111 121 101 111 121 101 111 121 102 112 122 102 112 122 103 113 123 222 232 242 223 233 243 224 234 244 225 235 245 226 236 246 227 237 247 228 238 248 229 239 249 229 239 249 230 240 250 230 240 250 230 240 250 231 241 251 231 241 251 231 241 251 231 241 251 232 242 252 232 242 252 232 242 252 232 242 252 232 242 252 232 242 252 232 242 252 233 243 253 233 243 253 234 244 254 234 244 254 235 245 255 235 245 255 236 246 256 236 246 256 236 246 256 235 245 255 235 245 255 234 244 254 234 244 254 233 243 253 232 242 252 231 241 251 231 241 251 230 240 250 229 239 249 228 238 248 227 237 247 226 236 246 226 236 246 225 235 245 225 235 245 224 234 244 224 234 244 224 234 244 224 234 244 224 234 244 224 234 244 224 234 244 224 234 244 224 234 244 224 234 244 224 234 244 223 233 243 223 233 243 222 232 242 222 232 242 103 113 123 103 113 123 103 113 123 103 113 123 102 112 122 102 112 122 102 112 122 102 112 122 101 111 121 101 111 121 101 111 121 101 111 121 101 111 121 102 112 122 102 112 122 102 112 122 102 112 122 102 112 122 102 112 122 102 112 122 102 112 122 102 112 122 101 111 121 101 111 121 101 111 121 100 110 120 100 110 120 99 109 119 99 109 119 99 109 119 98 108 118 98 108 118 98 108 118 97 107 117 97 107 117 97 107 117 97 107 117 97 107 117 97 107 117 97 107 117 97 107 117 98 108 118 98 108 118 98 108 118 98 108 118 98 108 118 98 108 118 97 107 117 97 107 117 97 107 117 97 107 117 96 106 116 96 106 116 96 106 116 95 105 115 95 105 115 95 105 115 95 105 115 94 104 114 94 104 114 94 104 114 94 104 114 94 104 114 94 104 114 94 104 114 94 104 114 94 104 114 94 104 114 94 104 114 94 104 114 94 104 114 93 103 113 93 103 113 92 102 112 92 102 112 91 101 111 91 101 111 90 100 110 90 100 110 90 100 110 100 110 120 99 109 119 99 109 119 98 108 118 98 108 118 97 107 117 97 107 117 97 107 117 97 107 117 97 107 117 97 107 117 97 107 117 97 107 117 97 107 117 97 107 117 97 107 117 97 107 117 97 107 117 97 107 117 97 107 117 97 107 117 97 107 117 97 107 117 97 107 117 96 106 116 96 106 116 96 106 116 95 105 115 95 105 115 95 105 115 95 105 115 95 105 115 94 104 114 94 104 114 94 104 114 94 104 114 94 104 114 94 104 114 94 104 114 94 104 114 94 104 114 94 104 114 94 104 114 94 104 114 93 103 113 93 103 113 93 103 113 92 102 112 92 102 112 91 101 111 91 101 111 90 100 110 90 100 110 89 99 109 89 99 109 88 98 108 88 98 108 88 98 108 88 98 108 88 98 108 88 98 108 88 98 108 88 98 108 88 98 108 88 98 108 88 98 108 89 99 109 89 99 109 89 99 109 89 99 109 90 100 110 90 100 110 90 100 110 90 100 110 90 100 110 90 100 110 90 100 110 90 100 110 91 101 111 91 101 111 91 101 111 91 101 111 92 102 112 92 102 112 93 103 113 93 103 113 94 104 114 94 104 114 95 105 115 95 105 115 96 106 116 96 106 116 97 107 117 97 107 117 98 108 118 98 108 118 99 109 119 99 109 119 99 109 119 99 109 119 99 109 119 99 109 119 100 110 120 100 110 120 100 110 120 100 110 120 100 110 120 100 110 120 101 111 121 101 111 121 102 112 122 102 112 122 103 113 123 103 113 123 222 232 242 223 233 243 224 234 244 225 235 245 226 236 246 227 237 247 228 238 248 228 238 248 229 239 249 230 240 250 230 240 250 230 240 250 230 240 250 231 241 251 231 241 251 231 241 251 231 241 251 231 241 251 232 242 252 232 242 252 233 243 253 233 243 253 233 243 253 234 244 254 234 244 254 234 244 254 235 245 255 235 245 255 235 245 255 235 245 255 235 245 255 235 245 255 235 245 255 234 244 254 234 244 254 233 243 253 232 242 252 231 241 251 230 240 250 229 239 249 228 238 248 227 237 247 227 237 247 226 236 246 226 236 246 225 235 245 225 235 245 225 235 245 224 234 244 224 234 244 224 234 244 224 234 244 224 234 244 223 233 243 223 233 243 223 233 243 223 233 243 223 233 243 223 233 243 223 233 243 223 233 243 222 232 242 222 232 242 103 113 123 103 113 123 103 113 123 102 112 122 102 112 122 102 112 122 102 112 122 102 112 122 102 112 122 102 112 122 102 112 122 102 112 122 102 112 122 102 112 122 102 112 122 102 112 122 102 112 122 102 112 122 102 112 122 102 112 122 102 112 122 101 111 121 101 111 121 101 111 121 100 110 120 100 110 120 99 109 119 99 109 119 98 108 118 98 108 118 98 108 118 97 107 117 97 107 117 97 107 117 97 107 117 97 107 117 97 107 117 97 107 117 97 107 117 97 107 117 97 107 117 97 107 117 97 107 117 97 107 117 97 107 117 97 107 117 97 107 117 97 107 117 97 107 117 96 106 116 96 106 116 96 106 116 96 106 116 95 105 115 95 105 115 95 105 115 95 105 115 95 105 115 94 104 114 94 104 114 94 104 114 94 104 114 94 104 114 94 104 114 94 104 114 94 104 114 94 104 114 94 104 114 94 104 114 94 104 114 93 103 113 93 103 113 93 103 113 92 102 112 92 102 112 91 101 111 91 101 111 90 100 110 90 100 110 100 110 120 99 109 119 98 108 118 98 108 118 98 108 118 97 107 117 97 107 117 97 107 117 97 107 117 97 107 117 97 107 117 97 107 117 97 107 117 96 106 116 96 106 116 96 106 116 96 106 116 96 106 116 96 106 116 97 107 117 97 107 117 97 107 117 97 107 117 96 106 116 96 106 116 96 106 116 95 105 115 95 105 115 95 105 115 95 105 115 95 105 115 95 105 115 95 105 115 95 105 115 95 105 115 95 105 115 95 105 115 95 105 115 94 104 114 94 104 114 94 104 114 94 104 114 94 104 114 93 103 113 93 103 113 93 103 113 93 103 113 93 103 113 92 102 112 92 102 112 91 101 111 90 100 110 90 100 110 89 99 109 89 99 109 88 98 108 88 98 108 88 98 108 88 98 108 88 98 108 88 98 108 88 98 108 88 98 108 88 98 108 88 98 108 88 98 108 88 98 108 88 98 108 89 99 109 89 99 109 90 100 110 90 100 110 90 100 110 90 100 110 91 101 111 91 101 111 91 101 111 91 101 111 91 101 111 91 101 111 91 101 111 92 102 112 92 102 112 93 103 113 94 104 114 94 104 114 95 105 115 95 105 115 95 105 115 96 106 116 96 106 116 96 106 116 97 107 117 97 107 117 98 108 118 98 108 118 99 109 119 99 109 119 99 109 119 100 110 120 100 110 120 100 110 120 99 109 119 99 109 119 99 109 119 100 110 120 100 110 120 100 110 120 101 111 121 101 111 121 102 112 122 102 112 122 103 113 123 103 113 123 103 113 123 222 232 242 222 232 242 223 233 243 224 234 244 225 235 245 226 236 246 227 237 247 228 238 248 229 239 249 229 239 249 230 240 250 230 240 250 230 240 250 230 240 250 230 240 250 230 240 250 231 241 251 231 241 251 232 242 252 233 243 253 233 243 253 234 244 254 234 244 254 234 244 254 234 244 254 234 244 254 234 244 254 234 244 254 234 244 254 234 244 254 234 244 254 234 244 254 234 244 254 234 244 254 233 243 253 232 242 252 231 241 251 230 240 250 229 239 249 228 238 248 227 237 247 226 236 246 226 236 246 225 235 245 225 235 245 225 235 245 225 235 245 225 235 245 224 234 244 224 234 244 223 233 243 223 233 243 223 233 243 222 232 242 222 232 242 223 233 243 223 233 243 223 233 243 223 233 243 223 233 243 222 232 242 222 232 242 103 113 123 103 113 123 103 113 123 102 112 122 102 112 122 102 112 122 102 112 122 103 113 123 103 113 123 103 113 123 103 113 123 103 113 123 103 113 123 102 112 122 102 112 122 102 112 122 102 112 122 102 112 122 102 112 122 102 112 122 102 112 122 102 112 122 101 111 121 101 111 121 101 111 121 100 110 120 99 109 119 99 109 119 98 108 118 98 108 118 97 107 117 97 107 117 97 107 117 97 107 117 97 107 117 97 107 117 97 107 117 97 107 117 97 107 117 96 106 116 96 106 116 96 106 116 96 106 116 96 106 116 96 106 116 97 107 117 97 107 117 97 107 117 97 107 117 96 106 116 96 106 116 96 106 116 95 105 115 95 105 115 95 105 115 95 105 115 95 105 115 95 105 115 95 105 115 95 105 115 95 105 115 95 105 115 95 105 115 95 105 115 94 104 114 94 104 114 94 104 114 94 104 114 93 103 113 93 103 113 93 103 113 93 103 113 93 103 113 93 103 113 92 102 112 91 101 111 91 101 111 90 100 110 90 100 110 100 110 120 99 109 119 98 108 118 98 108 118 97 107 117 97 107 117 97 107 117 97 107 117 97 107 117 97 107 117 97 107 117 97 107 117 96 106 116 96 106 116 96 106 116 96 106 116 95 105 115 96 106 116 96 106 116 96 106 116 96 106 116 96 106 116 96 106 116 96 106 116 96 106 116 96 106 116 95 105 115 95 105 115 95 105 115 95 105 115 95 105 115 95 105 115 95 105 115 95 105 115 95 105 115 95 105 115 95 105 115 95 105 115 95 105 115 94 104 114 94 104 114 94 104 114 93 103 113 93 103 113 93 103 113 93 103 113 93 103 113 93 103 113 92 102 112 92 102 112 91 101 111 91 101 111 90 100 110 89 99 109 89 99 109 89 99 109 89 99 109 89 99 109 89 99 109 89 99 109 89 99 109 89 99 109 88 98 108 88 98 108 88 98 108 88 98 108 88 98 108 88 98 108 89 99 109 89 99 109 89 99 109 90 100 110 90 100 110 91 101 111 91 101 111 91 101 111 91 101 111 91 101 111 91 101 111 91 101 111 92 102 112 92 102 112 93 103 113 94 104 114 94 104 114 95 105 115 95 105 115 96 106 116 96 106 116 96 106 116 96 106 116 97 107 117 97 107 117 97 107 117 98 108 118 98 108 118 99 109 119 99 109 119 100 110 120 100 110 120 100 110 120 100 110 120 99 109 119 99 109 119 99 109 119 100 110 120 100 110 120 100 110 120 101 111 121 101 111 121 102 112 122 102 112 122 103 113 123 103 113 123 103 113 123 103 113 123 103 113 123 222 232 242 223 233 243 224 234 244 225 235 245 226 236 246 227 237 247 228 238 248 229 239 249 229 239 249 229 239 249 229 239 249 229 239 249 230 240 250 230 240 250 231 241 251 231 241 251 232 242 252 233 243 253 234 244 254 234 244 254 235 245 255 235 245 255 234 244 254 234 244 254 234 244 254 233 243 253 233 243 253 233 243 253 233 243 253 234 244 254 234 244 254 233 243 253 233 243 253 232 242 252 231 241 251 230 240 250 229 239 249 228 238 248 227 237 247 226 236 246 226 236 246 226 236 246 225 235 245 225 235 245 225 235 245 225 235 245 224 234 244 224 234 244 223 233 243 222 232 242 222 232 242 222 232 242 222 232 242 222 232 242 222 232 242 223 233 243 223 233 243 223 233 243 223 233 243 222 232 242 222 232 242 103 113 123 103 113 123 103 113 123 103 113 123 103 113 123 103 113 123 103 113 123 103 113 123 222 232 242 222 232 242 103 113 123 103 113 123 103 113 123 102 112 122 102 112 122 102 112 122 102 112 122 102 112 122 102 112 122 102 112 122 102 112 122 101 111 121 101 111 121 101 111 121 100 110 120 99 109 119 99 109 119 98 108 118 98 108 118 97 107 117 97 107 117 97 107 117 97 107 117 97 107 117 97 107 117 97 107 117 97 107 117 96 106 116 96 106 116 96 106 116 95 105 115 95 105 115 96 106 116 96 106 116 96 106 116 96 106 116 96 106 116 96 106 116 96 106 116 96 106 116 96 106 116 95 105 115 95 105 115 95 105 115 95 105 115 95 105 115 95 105 115 95 105 115 95 105 115 95 105 115 95 105 115 95 105 115 95 105 115 94 104 114 94 104 114 94 104 114 93 103 113 93 103 113 93 103 113 93 103 113 93 103 113 93 103 113 93 103 113 92 102 112 92 102 112 91 101 111 90 100 110 90 100 110 100 110 120 99 109 119 98 108 118 98 108 118 97 107 117 97 107 117 97 107 117 97 107 117 97 107 117 97 107 117 97 107 117 97 107 117 96 106 116 96 106 116 95 105 115 95 105 115 95 105 115 95 105 115 95 105 115 95 105 115 96 106 116 96 106 116 96 106 116 96 106 116 96 106 116 96 106 116 95 105 115 95 105 115 95 105 115 95 105 115 95 105 115 95 105 115 96 106 116 96 106 116 96 106 116 96 106 116 96 106 116 95 105 115 95 105 115 94 104 114 94 104 114 93 103 113 93 103 113 93 103 113 93 103 113 93 103 113 93 103 113 93 103 113 92 102 112 92 102 112 91 101 111 91 101 111 90 100 110 89 99 109 89 99 109 89 99 109 89 99 109 89 99 109 89 99 109 89 99 109 89 99 109 89 99 109 89 99 109 88 98 108 88 98 108 88 98 108 88 98 108 88 98 108 88 98 108 89 99 109 89 99 109 90 100 110 91 101 111 91 101 111 91 101 111 91 101 111 91 101 111 91 101 111 92 102 112 92 102 112 92 102 112 93 103 113 94 104 114 95 105 115 95 105 115 96 106 116 96 106 116 96 106 116 97 107 117 97 107 117 97 107 117 97 107 117 97 107 117 97 107 117 98 108 118 98 108 118 99 109 119 99 109 119 100 110 120 100 110 120 100 110 120 100 110 120 99 109 119 99 109 119 99 109 119 99 109 119 100 110 120 100 110 120 101 111 121 101 111 121 102 112 122 102 112 122 102 112 122 102 112 122 102 112 122 102 112 122 103 113 123 103 113 123 103 113 123 222 232 242 224 234 244 225 235 245 226 236 246 227 237 247 228 238 248 228 238 248 229 239 249 229 239 249 229 239 249 229 239 249 230 240 250 230 240 250 231 241 251 232 242 252 233 243 253 234 244 254 235 245 255 235 245 255 235 245 255 234 244 254 234 244 254 233 243 253 233 243 253 233 243 253 233 243 253 233 243 253 233 243 253 233 243 253 233 243 253 232 242 252 232 242 252 231 241 251 230 240 250 228 238 248 227 237 247 227 237 247 226 236 246 226 236 246 226 236 246 226 236 246 226 236 246 225 235 245 225 235 245 224 234 244 223 233 243 223 233 243 222 232 242 103 113 123 103 113 123 103 113 123 103 113 123 222 232 242 222 232 242 222 232 242 223 233 243 223 233 243 222 232 242 222 232 242 103 113 123 103 113 123 103 113 123 103 113 123 103 113 123 103 113 123 222 232 242 222 232 242 223 233 243 223 233 243 222 232 242 222 232 242 103 113 123 103 113 123 102 112 122 102 112 122 102 112 122 102 112 122 102 112 122 102 112 122 102 112 122 101 111 121 101 111 121 101 111 121 100 110 120 99 109 119 99 109 119 98 108 118 98 108 118 97 107 117 97 107 117 97 107 117 97 107 117 97 107 117 97 107 117 97 107 117 96 106 116 96 106 116 96 106 116 95 105 115 95 105 115 95 105 115 95 105 115 95 105 115 95 105 115 96 106 116 96 106 116 96 106 116 96 106 116 96 106 116 95 105 115 95 105 115 95 105 115 95 105 115 95 105 115 95 105 115 95 105 115 96 106 116 96 106 116 96 106 116 96 106 116 96 106 116 95 105 115 95 105 115 94 104 114 94 104 114 93 103 113 93 103 113 93 103 113 93 103 113 93 103 113 93 103 113 93 103 113 92 102 112 92 102 112 91 101 111 90 100 110 90 100 110 100 110 120 99 109 119 98 108 118 98 108 118 98 108 118 97 107 117 97 107 117 97 107 117 97 107 117 97 107 117 97 107 117 96 106 116 96 106 116 95 105 115 95 105 115 95 105 115 94 104 114 94 104 114 95 105 115 95 105 115 95 105 115 95 105 115 96 106 116 96 106 116 96 106 116 95 105 115 95 105 115 95 105 115 95 105 115 95 105 115 95 105 115 96 106 116 96 106 116 96 106 116 96 106 116 96 106 116 96 106 116 95 105 115 95 105 115 94 104 114 94 104 114 94 104 114 93 103 113 93 103 113 93 103 113 93 103 113 93 103 113 93 103 113 92 102 112 92 102 112 91 101 111 91 101 111 90 100 110 90 100 110 90 100 110 89 99 109 89 99 109 89 99 109 89 99 109 89 99 109 89 99 109 89 99 109 89 99 109 89 99 109 88 98 108 88 98 108 88 98 108 88 98 108 88 98 108 89 99 109 89 99 109 90 100 110 91 101 111 91 101 111 91 101 111 92 102 112 92 102 112 92 102 112 92 102 112 93 103 113 93 103 113 94 104 114 95 105 115 95 105 115 96 106 116 96 106 116 97 107 117 97 107 117 97 107 117 97 107 117 97 107 117 97 107 117 97 107 117 97 107 117 98 108 118 98 108 118 99 109 119 99 109 119 99 109 119 100 110 120 100 110 120 100 110 120 99 109 119 99 109 119 99 109 119 100 110 120 100 110 120 100 110 120 101 111 121 101 111 121 102 112 122 102 112 122 102 112 122 102 112 122 102 112 122 102 112 122 102 112 122 102 112 122 103 113 123 103 113 123 222 232 242 224 234 244 225 235 245 226 236 246 227 237 247 227 237 247 228 238 248 228 238 248 228 238 248 229 239 249 230 240 250 230 240 250 231 241 251 232 242 252 233 243 253 234 244 254 235 245 255 235 245 255 234 244 254 234 244 254 233 243 253 233 243 253 232 242 252 232 242 252 232 242 252 232 242 252 232 242 252 232 242 252 232 242 252 232 242 252 231 241 251 230 240 250 229 239 249 228 238 248 227 237 247 227 237 247 226 236 246 226 236 246 226 236 246 226 236 246 226 236 246 225 235 245 225 235 245 224 234 244 223 233 243 222 232 242 103 113 123 103 113 123 103 113 123 103 113 123 103 113 123 103 113 123 222 232 242 222 232 242 222 232 242 222 232 242 222 232 242 222 232 242 222 232 242 103 113 123 103 113 123 222 232 242 222 232 242 222 232 242 223 233 243 223 233 243 224 234 244 223 233 243 223 233 243 222 232 242 103 113 123 103 113 123 102 112 122 102 112 122 102 112 122 102 112 122 102 112 122 102 112 122 102 112 122 101 111 121 101 111 121 101 111 121 100 110 120 99 109 119 99 109 119 98 108 118 98 108 118 98 108 118 97 107 117 97 107 117 97 107 117 97 107 117 97 107 117 97 107 117 96 106 116 96 106 116 95 105 115 95 105 115 94 104 114 94 104 114 94 104 114 95 105 115 95 105 115 95 105 115 95 105 115 96 106 116 96 106 116 95 105 115 95 105 115 95 105 115 95 105 115 95 105 115 95 105 115 95 105 115 96 106 116 96 106 116 96 106 116 96 106 116 96 106 116 96 106 116 95 105 115 95 105 115 94 104 114 94 104 114 93 103 113 93 103 113 93 103 113 93 103 113 93 103 113 93 103 113 93 103 113 92 102 112 92 102 112 91 101 111 91 101 111 90 100 110 100 110 120 99 109 119 99 109 119 98 108 118 98 108 118 98 108 118 97 107 117 97 107 117 97 107 117 97 107 117 97 107 117 96 106 116 96 106 116 95 105 115 95 105 115 94 104 114 94 104 114 94 104 114 94 104 114 94 104 114 95 105 115 95 105 115 95 105 115 95 105 115 95 105 115 95 105 115 95 105 115 95 105 115 95 105 115 95 105 115 96 106 116 96 106 116 96 106 116 96 106 116 96 106 116 96 106 116 96 106 116 96 106 116 95 105 115 95 105 115 94 104 114 94 104 114 93 103 113 93 103 113 93 103 113 93 103 113 93 103 113 93 103 113 92 102 112 92 102 112 92 102 112 91 101 111 91 101 111 90 100 110 90 100 110 90 100 110 90 100 110 90 100 110 90 100 110 90 100 110 90 100 110 89 99 109 89 99 109 89 99 109 88 98 108 88 98 108 88 98 108 88 98 108 88 98 108 89 99 109 89 99 109 90 100 110 90 100 110 91 101 111 91 101 111 92 102 112 92 102 112 92 102 112 93 103 113 93 103 113 94 104 114 95 105 115 95 105 115 96 106 116 97 107 117 97 107 117 97 107 117 97 107 117 97 107 117 97 107 117 97 107 117 97 107 117 97 107 117 98 108 118 98 108 118 98 108 118 99 109 119 99 109 119 99 109 119 99 109 119 100 110 120 100 110 120 99 109 119 100 110 120 100 110 120 100 110 120 100 110 120 100 110 120 101 111 121 101 111 121 101 111 121 102 112 122 102 112 122 102 112 122 102 112 122 102 112 122 102 112 122 102 112 122 102 112 122 103 113 123 103 113 123 222 232 242 223 233 243 225 235 245 225 235 245 226 236 246 227 237 247 228 238 248 228 238 248 229 239 249 230 240 250 231 241 251 232 242 252 232 242 252 233 243 253 234 244 254 234 244 254 234 244 254 234 244 254 234 244 254 233 243 253 233 243 253 232 242 252 232 242 252 232 242 252 232 242 252 232 242 252 231 241 251 231 241 251 231 241 251 230 240 250 230 240 250 229 239 249 228 238 248 227 237 247 227 237 247 226 236 246 226 236 246 226 236 246 226 236 246 226 236 246 225 235 245 225 235 245 224 234 244 223 233 243 222 232 242 103 113 123 103 113 123 103 113 123 103 113 123 103 113 123 103 113 123 103 113 123 103 113 123 222 232 242 222 232 242 222 232 242 222 232 242 222 232 242 222 232 242 222 232 242 223 233 243 223 233 243 223 233 243 224 234 244 224 234 244 224 234 244 224 234 244 224 234 244 223 233 243 222 232 242 103 113 123 103 113 123 102 112 122 102 112 122 102 112 122 102 112 122 101 111 121 101 111 121 101 111 121 101 111 121 100 110 120 100 110 120 99 109 119 99 109 119 98 108 118 98 108 118 98 108 118 98 108 118 97 107 117 97 107 117 97 107 117 97 107 117 96 106 116 96 106 116 95 105 115 95 105 115 94 104 114 94 104 114 94 104 114 94 104 114 94 104 114 94 104 114 95 105 115 95 105 115 95 105 115 95 105 115 95 105 115 95 105 115 95 105 115 95 105 115 95 105 115 95 105 115 96 106 116 96 106 116 96 106 116 96 106 116 96 106 116 96 106 116 96 106 116 95 105 115 95 105 115 94 104 114 94 104 114 94 104 114 93 103 113 93 103 113 93 103 113 93 103 113 93 103 113 93 103 113 92 102 112 92 102 112 91 101 111 91 101 111 90 100 110 100 110 120 99 109 119 99 109 119 98 108 118 98 108 118 98 108 118 98 108 118 97 107 117 97 107 117 97 107 117 96 106 116 96 106 116 95 105 115 95 105 115 94 104 114 94 104 114 94 104 114 94 104 114 94 104 114 94 104 114 94 104 114 94 104 114 94 104 114 95 105 115 95 105 115 95 105 115 95 105 115 95 105 115 95 105 115 96 106 116 96 106 116 96 106 116 96 106 116 96 106 116 96 106 116 96 106 116 96 106 116 96 106 116 95 105 115 95 105 115 94 104 114 94 104 114 93 103 113 93 103 113 93 103 113 93 103 113 93 103 113 92 102 112 92 102 112 92 102 112 92 102 112 91 101 111 91 101 111 91 101 111 91 101 111 90 100 110 90 100 110 90 100 110 90 100 110 90 100 110 90 100 110 89 99 109 89 99 109 89 99 109 89 99 109 89 99 109 88 98 108 89 99 109 89 99 109 89 99 109 89 99 109 90 100 110 90 100 110 91 101 111 91 101 111 92 102 112 93 103 113 93 103 113 94 104 114 94 104 114 95 105 115 95 105 115 96 106 116 97 107 117 97 107 117 97 107 117 98 108 118 98 108 118 98 108 118 98 108 118 98 108 118 98 108 118 98 108 118 98 108 118 98 108 118 98 108 118 99 109 119 99 109 119 99 109 119 99 109 119 99 109 119 99 109 119 100 110 120 100 110 120 100 110 120 100 110 120 100 110 120 101 111 121 101 111 121 101 111 121 101 111 121 101 111 121 101 111 121 101 111 121 101 111 121 101 111 121 101 111 121 101 111 121 102 112 122 102 112 122 103 113 123 103 113 123 222 232 242 223 233 243 224 234 244 225 235 245 226 236 246 227 237 247 228 238 248 229 239 249 230 240 250 231 241 251 232 242 252 232 242 252 233 243 253 234 244 254 234 244 254 234 244 254 234 244 254 233 243 253 233 243 253 232 242 252 232 242 252 232 242 252 231 241 251 231 241 251 231 241 251 231 241 251 230 240 250 230 240 250 230 240 250 229 239 249 229 239 249 228 238 248 228 238 248 227 237 247 227 237 247 227 237 247 226 236 246 226 236 246 225 235 245 225 235 245 224 234 244 223 233 243 223 233 243 222 232 242 103 113 123 103 113 123 103 113 123 103 113 123 103 113 123 103 113 123 103 113 123 103 113 123 103 113 123 222 232 242 222 232 242 222 232 242 223 233 243 223 233 243 223 233 243 224 234 244 224 234 244 224 234 244 225 235 245 225 235 245 225 235 245 224 234 244 224 234 244 223 233 243 222 232 242 222 232 242 103 113 123 103 113 123 102 112 122 102 112 122 102 112 122 101 111 121 101 111 121 101 111 121 100 110 120 100 110 120 100 110 120 99 109 119 99 109 119 99 109 119 98 108 118 98 108 118 98 108 118 98 108 118 97 107 117 97 107 117 97 107 117 96 106 116 96 106 116 95 105 115 95 105 115 94 104 114 94 104 114 94 104 114 94 104 114 94 104 114 94 104 114 94 104 114 94 104 114 94 104 114 95 105 115 95 105 115 95 105 115 95 105 115 95 105 115 96 106 116 96 106 116 96 106 116 96 106 116 96 106 116 96 106 116 96 106 116 96 106 116 96 106 116 95 105 115 95 105 115 95 105 115 94 104 114 94 104 114 93 103 113 93 103 113 93 103 113 93 103 113 92 102 112 92 102 112 92 102 112 92 102 112 91 101 111 91 101 111 91 101 111 100 110 120 99 109 119 99 109 119 99 109 119 98 108 118 98 108 118 98 108 118 97 107 117 97 107 117 96 106 116 96 106 116 95 105 115 95 105 115 95 105 115 94 104 114 94 104 114 94 104 114 93 103 113 93 103 113 93 103 113 93 103 113 93 103 113 94 104 114 94 104 114 94 104 114 95 105 115 95 105 115 95 105 115 96 106 116 96 106 116 96 106 116 96 106 116 96 106 116 96 106 116 96 106 116 96 106 116 96 106 116 96 106 116 95 105 115 95 105 115 94 104 114 94 104 114 94 104 114 93 103 113 93 103 113 93 103 113 92 102 112 92 102 112 92 102 112 92 102 112 92 102 112 92 102 112 91 101 111 91 101 111 91 101 111 91 101 111 91 101 111 91 101 111 90 100 110 90 100 110 90 100 110 90 100 110 89 99 109 89 99 109 89 99 109 89 99 109 89 99 109 89 99 109 89 99 109 89 99 109 89 99 109 90 100 110 90 100 110 91 101 111 92 102 112 92 102 112 93 103 113 94 104 114 94 104 114 95 105 115 96 106 116 96 106 116 97 107 117 97 107 117 97 107 117 98 108 118 98 108 118 98 108 118 98 108 118 98 108 118 98 108 118 98 108 118 98 108 118 98 108 118 98 108 118 98 108 118 98 108 118 99 109 119 99 109 119 99 109 119 99 109 119 99 109 119 100 110 120 100 110 120 100 110 120 100 110 120 101 111 121 101 111 121 101 111 121 101 111 121 101 111 121 101 111 121 101 111 121 101 111 121 101 111 121 101 111 121 101 111 121 101 111 121 101 111 121 102 112 122 102 112 122 102 112 122 103 113 123 222 232 242 223 233 243 224 234 244 225 235 245 226 236 246 228 238 248 229 239 249 230 240 250 231 241 251 232 242 252 232 242 252 233 243 253 233 243 253 233 243 253 233 243 253 233 243 253 233 243 253 233 243 253 232 242 252 232 242 252 231 241 251 231 241 251 230 240 250 230 240 250 230 240 250 229 239 249 229 239 249 229 239 249 229 239 249 228 238 248 228 238 248 228 238 248 228 238 248 227 237 247 227 237 247 226 236 246 226 236 246 225 235 245 224 234 244 224 234 244 223 233 243 222 232 242 222 232 242 103 113 123 103 113 123 103 113 123 103 113 123 103 113 123 103 113 123 103 113 123 103 113 123 103 113 123 103 113 123 222 232 242 222 232 242 223 233 243 224 234 244 224 234 244 225 235 245 225 235 245 225 235 245 225 235 245 225 235 245 225 235 245 225 235 245 224 234 244 224 234 244 223 233 243 222 232 242 103 113 123 103 113 123 102 112 122 102 112 122 102 112 122 101 111 121 101 111 121 100 110 120 100 110 120 100 110 120 100 110 120 99 109 119 99 109 119 99 109 119 99 109 119 98 108 118 98 108 118 98 108 118 97 107 117 97 107 117 96 106 116 96 106 116 95 105 115 95 105 115 94 104 114 94 104 114 94 104 114 94 104 114 93 103 113 93 103 113 93 103 113 93 103 113 94 104 114 94 104 114 94 104 114 94 104 114 95 105 115 95 105 115 96 106 116 96 106 116 96 106 116 96 106 116 96 106 116 96 106 116 96 106 116 96 106 116 96 106 116 96 106 116 95 105 115 95 105 115 95 105 115 94 104 114 94 104 114 94 104 114 93 103 113 93 103 113 93 103 113 92 102 112 92 102 112 92 102 112 92 102 112 92 102 112 91 101 111 91 101 111 100 110 120 99 109 119 99 109 119 99 109 119 99 109 119 98 108 118 98 108 118 97 107 117 97 107 117 96 106 116 96 106 116 95 105 115 95 105 115 94 104 114 94 104 114 94 104 114 94 104 114 93 103 113 93 103 113 93 103 113 93 103 113 93 103 113 93 103 113 93 103 113 94 104 114 94 104 114 95 105 115 96 106 116 96 106 116 96 106 116 97 107 117 97 107 117 97 107 117 96 106 116 96 106 116 96 106 116 96 106 116 96 106 116 95 105 115 95 105 115 95 105 115 94 104 114 94 104 114 93 103 113 93 103 113 92 102 112 92 102 112 92 102 112 92 102 112 92 102 112 92 102 112 92 102 112 92 102 112 92 102 112 92 102 112 92 102 112 91 101 111 91 101 111 91 101 111 90 100 110 90 100 110 90 100 110 89 99 109 89 99 109 89 99 109 89 99 109 89 99 109 89 99 109 89 99 109 89 99 109 90 100 110 90 100 110 90 100 110 91 101 111 92 102 112 92 102 112 93 103 113 94 104 114 95 105 115 96 106 116 96 106 116 97 107 117 97 107 117 98 108 118 98 108 118 98 108 118 98 108 118 98 108 118 98 108 118 99 109 119 99 109 119 99 109 119 99 109 119 99 109 119 98 108 118 98 108 118 98 108 118 98 108 118 98 108 118 99 109 119 99 109 119 99 109 119 100 110 120 100 110 120 100 110 120 101 111 121 101 111 121 101 111 121 101 111 121 100 110 120 100 110 120 100 110 120 100 110 120 100 110 120 100 110 120 101 111 121 101 111 121 101 111 121 101 111 121 101 111 121 101 111 121 102 112 122 102 112 122 103 113 123 103 113 123 223 233 243 224 234 244 226 236 246 227 237 247 229 239 249 230 240 250 231 241 251 232 242 252 232 242 252 232 242 252 232 242 252 232 242 252 232 242 252 232 242 252 232 242 252 232 242 252 232 242 252 232 242 252 231 241 251 231 241 251 230 240 250 229 239 249 229 239 249 228 238 248 228 238 248 228 238 248 228 238 248 228 238 248 228 238 248 228 238 248 228 238 248 228 238 248 227 237 247 227 237 247 226 236 246 225 235 245 224 234 244 223 233 243 223 233 243 222 232 242 222 232 242 103 113 123 103 113 123 103 113 123 103 113 123 103 113 123 102 112 122 102 112 122 102 112 122 103 113 123 103 113 123 222 232 242 223 233 243 224 234 244 224 234 244 225 235 245 226 236 246 226 236 246 226 236 246 226 236 246 226 236 246 225 235 245 225 235 245 224 234 244 224 234 244 223 233 243 223 233 243 222 232 242 103 113 123 103 113 123 102 112 122 102 112 122 101 111 121 101 111 121 100 110 120 100 110 120 100 110 120 100 110 120 99 109 119 99 109 119 99 109 119 99 109 119 99 109 119 98 108 118 98 108 118 97 107 117 96 106 116 96 106 116 95 105 115 95 105 115 95 105 115 94 104 114 94 104 114 94 104 114 94 104 114 93 103 113 93 103 113 93 103 113 93 103 113 93 103 113 93 103 113 94 104 114 94 104 114 95 105 115 95 105 115 96 106 116 96 106 116 96 106 116 97 107 117 97 107 117 96 106 116 96 106 116 96 106 116 96 106 116 96 106 116 95 105 115 95 105 115 95 105 115 95 105 115 94 104 114 94 104 114 93 103 113 93 103 113 92 102 112 92 102 112 92 102 112 92 102 112 92 102 112 92 102 112 92 102 112 92 102 112 100 110 120 100 110 120 99 109 119 99 109 119 99 109 119 98 108 118 98 108 118 97 107 117 96 106 116 96 106 116 95 105 115 95 105 115 95 105 115 94 104 114 94 104 114 94 104 114 94 104 114 93 103 113 93 103 113 93 103 113 92 102 112 92 102 112 93 103 113 93 103 113 94 104 114 94 104 114 95 105 115 96 106 116 96 106 116 97 107 117 97 107 117 97 107 117 97 107 117 96 106 116 96 106 116 96 106 116 96 106 116 95 105 115 95 105 115 95 105 115 95 105 115 95 105 115 94 104 114 94 104 114 93 103 113 92 102 112 92 102 112 92 102 112 92 102 112 92 102 112 92 102 112 92 102 112 92 102 112 92 102 112 92 102 112 92 102 112 92 102 112 91 101 111 91 101 111 90 100 110 90 100 110 90 100 110 90 100 110 90 100 110 90 100 110 90 100 110 90 100 110 90 100 110 90 100 110 90 100 110 90 100 110 90 100 110 90 100 110 91 101 111 92 102 112 93 103 113 94 104 114 95 105 115 96 106 116 97 107 117 97 107 117 98 108 118 98 108 118 98 108 118 98 108 118 98 108 118 98 108 118 99 109 119 99 109 119 99 109 119 99 109 119 99 109 119 99 109 119 99 109 119 99 109 119 98 108 118 98 108 118 98 108 118 98 108 118 98 108 118 99 109 119 99 109 119 100 110 120 100 110 120 101 111 121 101 111 121 101 111 121 101 111 121 100 110 120 100 110 120 100 110 120 100 110 120 100 110 120 100 110 120 100 110 120 100 110 120 101 111 121 101 111 121 101 111 121 101 111 121 101 111 121 101 111 121 102 112 122 102 112 122 103 113 123 222 232 242 223 233 243 225 235 245 227 237 247 228 238 248 230 240 250 231 241 251 231 241 251 231 241 251 232 242 252 232 242 252 232 242 252 232 242 252 232 242 252 232 242 252 232 242 252 232 242 252 231 241 251 231 241 251 230 240 250 229 239 249 229 239 249 228 238 248 227 237 247 227 237 247 227 237 247 227 237 247 228 238 248 228 238 248 228 238 248 228 238 248 228 238 248 227 237 247 227 237 247 226 236 246 225 235 245 224 234 244 223 233 243 222 232 242 222 232 242 222 232 242 103 113 123 103 113 123 103 113 123 103 113 123 103 113 123 102 112 122 102 112 122 102 112 122 103 113 123 103 113 123 222 232 242 223 233 243 224 234 244 225 235 245 226 236 246 227 237 247 227 237 247 227 237 247 226 236 246 226 236 246 225 235 245 225 235 245 224 234 244 224 234 244 224 234 244 223 233 243 222 232 242 222 232 242 103 113 123 102 112 122 102 112 122 101 111 121 100 110 120 100 110 120 100 110 120 99 109 119 99 109 119 100 110 120 100 110 120 99 109 119 99 109 119 99 109 119 98 108 118 98 108 118 97 107 117 96 106 116 96 106 116 95 105 115 95 105 115 94 104 114 94 104 114 94 104 114 94 104 114 93 103 113 93 103 113 93 103 113 93 103 113 92 102 112 93 103 113 93 103 113 93 103 113 94 104 114 95 105 115 95 105 115 96 106 116 96 106 116 97 107 117 97 107 117 97 107 117 96 106 116 96 106 116 96 106 116 96 106 116 96 106 116 95 105 115 95 105 115 95 105 115 95 105 115 94 104 114 94 104 114 93 103 113 93 103 113 92 102 112 92 102 112 92 102 112 92 102 112 92 102 112 92 102 112 92 102 112 92 102 112 100 110 120 100 110 120 100 110 120 99 109 119 99 109 119 99 109 119 98 108 118 97 107 117 96 106 116 96 106 116 95 105 115 95 105 115 94 104 114 94 104 114 94 104 114 94 104 114 93 103 113 93 103 113 93 103 113 92 102 112 92 102 112 92 102 112 92 102 112 93 103 113 93 103 113 94 104 114 95 105 115 96 106 116 96 106 116 97 107 117 97 107 117 97 107 117 97 107 117 96 106 116 96 106 116 96 106 116 96 106 116 95 105 115 95 105 115 95 105 115 95 105 115 95 105 115 94 104 114 94 104 114 93 103 113 92 102 112 92 102 112 92 102 112 92 102 112 92 102 112 92 102 112 92 102 112 92 102 112 93 103 113 93 103 113 92 102 112 92 102 112 92 102 112 91 101 111 91 101 111 90 100 110 90 100 110 90 100 110 90 100 110 90 100 110 90 100 110 90 100 110 90 100 110 90 100 110 90 100 110 90 100 110 90 100 110 91 101 111 91 101 111 92 102 112 93 103 113 94 104 114 95 105 115 96 106 116 97 107 117 98 108 118 98 108 118 98 108 118 98 108 118 98 108 118 99 109 119 99 109 119 99 109 119 99 109 119 99 109 119 99 109 119 99 109 119 99 109 119 99 109 119 99 109 119 99 109 119 98 108 118 98 108 118 98 108 118 98 108 118 99 109 119 99 109 119 100 110 120 100 110 120 101 111 121 101 111 121 101 111 121 101 111 121 100 110 120 100 110 120 100 110 120 100 110 120 100 110 120 100 110 120 100 110 120 100 110 120 100 110 120 100 110 120 100 110 120 101 111 121 101 111 121 101 111 121 101 111 121 101 111 121 102 112 122 103 113 123 223 233 243 224 234 244 226 236 246 228 238 248 229 239 249 230 240 250 231 241 251 231 241 251 231 241 251 231 241 251 231 241 251 231 241 251 231 241 251 231 241 251 231 241 251 231 241 251 231 241 251 230 240 250 230 240 250 229 239 249 228 238 248 227 237 247 227 237 247 226 236 246 227 237 247 227 237 247 227 237 247 228 238 248 228 238 248 228 238 248 228 238 248 227 237 247 227 237 247 225 235 245 224 234 244 223 233 243 223 233 243 222 232 242 222 232 242 222 232 242 222 232 242 103 113 123 103 113 123 103 113 123 103 113 123 102 112 122 102 112 122 102 112 122 102 112 122 103 113 123 222 232 242 223 233 243 224 234 244 226 236 246 227 237 247 227 237 247 227 237 247 227 237 247 227 237 247 226 236 246 226 236 246 225 235 245 225 235 245 224 234 244 224 234 244 223 233 243 223 233 243 222 232 242 103 113 123 102 112 122 102 112 122 101 111 121 100 110 120 100 110 120 100 110 120 99 109 119 99 109 119 100 110 120 100 110 120 100 110 120 99 109 119 99 109 119 98 108 118 98 108 118 97 107 117 96 106 116 95 105 115 95 105 115 95 105 115 94 104 114 94 104 114 94 104 114 94 104 114 93 103 113 93 103 113 93 103 113 92 102 112 92 102 112 92 102 112 92 102 112 93 103 113 94 104 114 94 104 114 95 105 115 96 106 116 96 106 116 97 107 117 97 107 117 97 107 117 96 106 116 96 106 116 96 106 116 96 106 116 96 106 116 95 105 115 95 105 115 95 105 115 95 105 115 95 105 115 94 104 114 93 103 113 93 103 113 92 102 112 92 102 112 92 102 112 92 102 112 92 102 112 92 102 112 92 102 112 93 103 113 100 110 120 100 110 120 100 110 120 99 109 119 99 109 119 98 108 118 98 108 118 97 107 117 96 106 116 96 106 116 95 105 115 95 105 115 94 104 114 94 104 114 94 104 114 94 104 114 93 103 113 93 103 113 93 103 113 92 102 112 92 102 112 92 102 112 92 102 112 93 103 113 93 103 113 94 104 114 95 105 115 96 106 116 96 106 116 96 106 116 97 107 117 97 107 117 96 106 116 96 106 116 96 106 116 96 106 116 96 106 116 95 105 115 95 105 115 95 105 115 95 105 115 95 105 115 94 104 114 94 104 114 93 103 113 93 103 113 92 102 112 92 102 112 92 102 112 92 102 112 92 102 112 92 102 112 93 103 113 93 103 113 93 103 113 93 103 113 92 102 112 92 102 112 91 101 111 91 101 111 91 101 111 90 100 110 90 100 110 90 100 110 90 100 110 91 101 111 91 101 111 91 101 111 91 101 111 91 101 111 91 101 111 91 101 111 91 101 111 92 102 112 92 102 112 93 103 113 95 105 115 96 106 116 97 107 117 97 107 117 98 108 118 99 109 119 99 109 119 99 109 119 99 109 119 99 109 119 99 109 119 99 109 119 99 109 119 99 109 119 100 110 120 100 110 120 100 110 120 99 109 119 99 109 119 99 109 119 98 108 118 98 108 118 98 108 118 98 108 118 99 109 119 99 109 119 100 110 120 100 110 120 101 111 121 101 111 121 101 111 121 101 111 121 100 110 120 100 110 120 100 110 120 99 109 119 99 109 119 99 109 119 100 110 120 100 110 120 100 110 120 100 110 120 100 110 120 100 110 120 100 110 120 100 110 120 101 111 121 101 111 121 102 112 122 103 113 123 222 232 242 224 234 244 226 236 246 227 237 247 229 239 249 229 239 249 230 240 250 230 240 250 230 240 250 230 240 250 230 240 250 230 240 250 230 240 250 230 240 250 231 241 251 231 241 251 230 240 250 230 240 250 229 239 249 228 238 248 227 237 247 227 237 247 226 236 246 226 236 246 226 236 246 227 237 247 227 237 247 228 238 248 228 238 248 228 238 248 228 238 248 227 237 247 226 236 246 225 235 245 224 234 244 223 233 243 223 233 243 222 232 242 222 232 242 222 232 242 222 232 242 103 113 123 103 113 123 103 113 123 103 113 123 103 113 123 102 112 122 102 112 122 103 113 123 103 113 123 222 232 242 223 233 243 225 235 245 226 236 246 227 237 247 227 237 247 228 238 248 227 237 247 227 237 247 226 236 246 226 236 246 225 235 245 225 235 245 224 234 244 224 234 244 224 234 244 223 233 243 222 232 242 103 113 123 103 113 123 102 112 122 101 111 121 100 110 120 100 110 120 100 110 120 99 109 119 99 109 119 100 110 120 100 110 120 100 110 120 99 109 119 99 109 119 98 108 118 98 108 118 97 107 117 96 106 116 95 105 115 95 105 115 94 104 114 94 104 114 94 104 114 94 104 114 93 103 113 93 103 113 93 103 113 92 102 112 92 102 112 92 102 112 92 102 112 92 102 112 93 103 113 93 103 113 94 104 114 95 105 115 96 106 116 96 106 116 97 107 117 97 107 117 97 107 117 96 106 116 96 106 116 96 106 116 96 106 116 95 105 115 95 105 115 95 105 115 95 105 115 95 105 115 95 105 115 94 104 114 94 104 114 93 103 113 92 102 112 92 102 112 92 102 112 92 102 112 92 102 112 92 102 112 93 103 113 93 103 113 100 110 120 99 109 119 99 109 119 99 109 119 99 109 119 98 108 118 98 108 118 97 107 117 96 106 116 96 106 116 95 105 115 95 105 115 94 104 114 94 104 114 94 104 114 93 103 113 93 103 113 93 103 113 92 102 112 92 102 112 92 102 112 92 102 112 92 102 112 93 103 113 93 103 113 94 104 114 95 105 115 95 105 115 96 106 116 96 106 116 96 106 116 96 106 116 96 106 116 96 106 116 96 106 116 96 106 116 96 106 116 95 105 115 95 105 115 95 105 115 95 105 115 95 105 115 94 104 114 94 104 114 93 103 113 93 103 113 92 102 112 92 102 112 92 102 112 92 102 112 92 102 112 93 103 113 93 103 113 93 103 113 93 103 113 93 103 113 93 103 113 92 102 112 92 102 112 91 101 111 91 101 111 91 101 111 91 101 111 91 101 111 91 101 111 91 101 111 91 101 111 91 101 111 91 101 111 91 101 111 91 101 111 91 101 111 92 102 112 92 102 112 93 103 113 94 104 114 95 105 115 96 106 116 97 107 117 98 108 118 98 108 118 99 109 119 99 109 119 99 109 119 99 109 119 99 109 119 99 109 119 99 109 119 100 110 120 100 110 120 100 110 120 100 110 120 100 110 120 99 109 119 99 109 119 99 109 119 99 109 119 98 108 118 98 108 118 99 109 119 99 109 119 99 109 119 100 110 120 100 110 120 100 110 120 101 111 121 100 110 120 100 110 120 100 110 120 100 110 120 99 109 119 99 109 119 99 109 119 99 109 119 99 109 119 99 109 119 100 110 120 100 110 120 100 110 120 100 110 120 100 110 120 100 110 120 100 110 120 101 111 121 102 112 122 102 112 122 103 113 123 223 233 243 225 235 245 226 236 246 227 237 247 228 238 248 229 239 249 229 239 249 229 239 249 229 239 249 229 239 249 229 239 249 230 240 250 230 240 250 230 240 250 230 240 250 229 239 249 229 239 249 228 238 248 228 238 248 227 237 247 226 236 246 226 236 246 226 236 246 226 236 246 226 236 246 227 237 247 227 237 247 227 237 247 228 238 248 227 237 247 227 237 247 226 236 246 225 235 245 224 234 244 223 233 243 223 233 243 222 232 242 222 232 242 222 232 242 222 232 242 103 113 123 103 113 123 103 113 123 103 113 123 103 113 123 103 113 123 103 113 123 103 113 123 103 113 123 222 232 242 223 233 243 225 235 245 226 236 246 227 237 247 227 237 247 228 238 248 227 237 247 227 237 247 227 237 247 226 236 246 226 236 246 225 235 245 225 235 245 224 234 244 224 234 244 223 233 243 222 232 242 103 113 123 103 113 123 102 112 122 101 111 121 101 111 121 100 110 120 100 110 120 100 110 120 100 110 120 99 109 119 99 109 119 99 109 119 99 109 119 99 109 119 98 108 118 97 107 117 97 107 117 96 106 116 95 105 115 95 105 115 94 104 114 94 104 114 94 104 114 94 104 114 93 103 113 93 103 113 93 103 113 92 102 112 92 102 112 92 102 112 92 102 112 92 102 112 93 103 113 93 103 113 94 104 114 95 105 115 95 105 115 96 106 116 96 106 116 96 106 116 96 106 116 96 106 116 96 106 116 96 106 116 96 106 116 95 105 115 95 105 115 95 105 115 95 105 115 95 105 115 95 105 115 94 104 114 94 104 114 93 103 113 93 103 113 92 102 112 92 102 112 92 102 112 92 102 112 92 102 112 93 103 113 93 103 113 100 110 120 99 109 119 99 109 119 99 109 119 98 108 118 98 108 118 97 107 117 97 107 117 96 106 116 96 106 116 95 105 115 95 105 115 94 104 114 94 104 114 93 103 113 93 103 113 93 103 113 93 103 113 92 102 112 92 102 112 92 102 112 92 102 112 92 102 112 93 103 113 93 103 113 94 104 114 94 104 114 95 105 115 95 105 115 96 106 116 96 106 116 96 106 116 96 106 116 96 106 116 96 106 116 96 106 116 96 106 116 95 105 115 95 105 115 95 105 115 95 105 115 94 104 114 94 104 114 94 104 114 93 103 113 93 103 113 93 103 113 93 103 113 92 102 112 93 103 113 93 103 113 93 103 113 93 103 113 93 103 113 93 103 113 93 103 113 93 103 113 92 102 112 92 102 112 92 102 112 92 102 112 91 101 111 91 101 111 91 101 111 91 101 111 91 101 111 91 101 111 91 101 111 91 101 111 92 102 112 92 102 112 92 102 112 92 102 112 93 103 113 94 104 114 95 105 115 95 105 115 96 106 116 97 107 117 98 108 118 98 108 118 99 109 119 99 109 119 99 109 119 100 110 120 100 110 120 100 110 120 100 110 120 100 110 120 100 110 120 100 110 120 100 110 120 100 110 120 100 110 120 99 109 119 99 109 119 99 109 119 99 109 119 99 109 119 99 109 119 99 109 119 99 109 119 100 110 120 100 110 120 100 110 120 100 110 120 100 110 120 100 110 120 100 110 120 100 110 120 99 109 119 99 109 119 99 109 119 99 109 119 99 109 119 99 109 119 99 109 119 99 109 119 99 109 119 100 110 120 100 110 120 100 110 120 100 110 120 101 111 121 101 111 121 102 112 122 103 113 123 222 232 242 224 234 244 225 235 245 226 236 246 227 237 247 228 238 248 228 238 248 228 238 248 229 239 249 229 239 249 229 239 249 229 239 249 229 239 249 229 239 249 229 239 249 228 238 248 228 238 248 228 238 248 227 237 247 227 237 247 226 236 246 226 236 246 226 236 246 226 236 246 226 236 246 226 236 246 227 237 247 227 237 247 227 237 247 227 237 247 226 236 246 226 236 246 225 235 245 224 234 244 224 234 244 223 233 243 223 233 243 222 232 242 222 232 242 222 232 242 103 113 123 103 113 123 103 113 123 103 113 123 103 113 123 103 113 123 103 113 123 103 113 123 222 232 242 223 233 243 224 234 244 225 235 245 226 236 246 226 236 246 227 237 247 227 237 247 227 237 247 227 237 247 227 237 247 226 236 246 226 236 246 225 235 245 225 235 245 224 234 244 224 234 244 223 233 243 222 232 242 103 113 123 103 113 123 102 112 122 101 111 121 101 111 121 100 110 120 100 110 120 100 110 120 100 110 120 99 109 119 99 109 119 99 109 119 99 109 119 98 108 118 98 108 118 97 107 117 97 107 117 96 106 116 95 105 115 95 105 115 94 104 114 94 104 114 94 104 114 93 103 113 93 103 113 93 103 113 93 103 113 92 102 112 92 102 112 92 102 112 92 102 112 93 103 113 93 103 113 93 103 113 94 104 114 95 105 115 95 105 115 96 106 116 96 106 116 96 106 116 96 106 116 96 106 116 96 106 116 96 106 116 96 106 116 95 105 115 95 105 115 95 105 115 95 105 115 95 105 115 94 104 114 94 104 114 94 104 114 93 103 113 93 103 113 93 103 113 93 103 113 92 102 112 93 103 113 93 103 113 93 103 113 93 103 113 100 110 120 99 109 119 99 109 119 98 108 118 98 108 118 98 108 118 97 107 117 97 107 117 96 106 116 96 106 116 95 105 115 95 105 115 94 104 114 94 104 114 93 103 113 93 103 113 93 103 113 92 102 112 92 102 112 92 102 112 92 102 112 93 103 113 93 103 113 93 103 113 93 103 113 94 104 114 94 104 114 95 105 115 95 105 115 95 105 115 95 105 115 96 106 116 96 106 116 96 106 116 96 106 116 96 106 116 96 106 116 95 105 115 95 105 115 95 105 115 95 105 115 94 104 114 94 104 114 94 104 114 94 104 114 93 103 113 93 103 113 93 103 113 93 103 113 93 103 113 93 103 113 93 103 113 93 103 113 93 103 113 93 103 113 93 103 113 93 103 113 93 103 113 93 103 113 92 102 112 92 102 112 92 102 112 92 102 112 92 102 112 92 102 112 92 102 112 92 102 112 92 102 112 92 102 112 92 102 112 92 102 112 93 103 113 93 103 113 94 104 114 95 105 115 95 105 115 96 106 116 97 107 117 97 107 117 98 108 118 98 108 118 99 109 119 99 109 119 100 110 120 100 110 120 100 110 120 100 110 120 100 110 120 100 110 120 100 110 120 100 110 120 100 110 120 100 110 120 100 110 120 99 109 119 99 109 119 99 109 119 99 109 119 99 109 119 99 109 119 99 109 119 99 109 119 100 110 120 100 110 120 100 110 120 100 110 120 100 110 120 100 110 120 100 110 120 100 110 120 99 109 119 99 109 119 99 109 119 99 109 119 99 109 119 99 109 119 99 109 119 99 109 119 99 109 119 99 109 119 100 110 120 100 110 120 100 110 120 101 111 121 101 111 121 102 112 122 103 113 123 103 113 123 222 232 242 224 234 244 225 235 245 226 236 246 226 236 246 227 237 247 228 238 248 228 238 248 228 238 248 228 238 248 228 238 248 228 238 248 228 238 248 228 238 248 227 237 247 227 237 247 227 237 247 227 237 247 226 236 246 226 236 246 226 236 246 226 236 246 226 236 246 226 236 246 226 236 246 226 236 246 226 236 246 226 236 246 226 236 246 226 236 246 225 235 245 225 235 245 224 234 244 224 234 244 223 233 243 223 233 243 222 232 242 222 232 242 222 232 242 103 113 123 103 113 123 103 113 123 103 113 123 103 113 123 103 113 123 222 232 242 222 232 242 223 233 243 223 233 243 224 234 244 225 235 245 225 235 245 226 236 246 226 236 246 227 237 247 227 237 247 227 237 247 227 237 247 227 237 247 226 236 246 226 236 246 225 235 245 224 234 244 223 233 243 223 233 243 222 232 242 103 113 123 103 113 123 102 112 122 102 112 122 101 111 121 101 111 121 100 110 120 100 110 120 100 110 120 99 109 119 99 109 119 99 109 119 98 108 118 98 108 118 98 108 118 97 107 117 97 107 117 96 106 116 96 106 116 95 105 115 95 105 115 94 104 114 94 104 114 93 103 113 93 103 113 93 103 113 92 102 112 92 102 112 92 102 112 92 102 112 93 103 113 93 103 113 93 103 113 93 103 113 94 104 114 94 104 114 95 105 115 95 105 115 95 105 115 96 106 116 96 106 116 96 106 116 96 106 116 96 106 116 96 106 116 96 106 116 95 105 115 95 105 115 95 105 115 94 104 114 94 104 114 94 104 114 94 104 114 93 103 113 93 103 113 93 103 113 93 103 113 93 103 113 93 103 113 93 103 113 93 103 113 93 103 113 100 110 120 99 109 119 99 109 119 98 108 118 98 108 118 97 107 117 97 107 117 97 107 117 96 106 116 96 106 116 95 105 115 95 105 115 94 104 114 94 104 114 93 103 113 93 103 113 93 103 113 92 102 112 92 102 112 92 102 112 93 103 113 93 103 113 93 103 113 93 103 113 93 103 113 94 104 114 94 104 114 94 104 114 94 104 114 95 105 115 95 105 115 95 105 115 95 105 115 96 106 116 96 106 116 96 106 116 96 106 116 95 105 115 95 105 115 95 105 115 94 104 114 94 104 114 94 104 114 94 104 114 94 104 114 94 104 114 94 104 114 94 104 114 94 104 114 93 103 113 93 103 113 93 103 113 93 103 113 93 103 113 93 103 113 93 103 113 93 103 113 93 103 113 93 103 113 93 103 113 93 103 113 93 103 113 92 102 112 92 102 112 92 102 112 92 102 112 92 102 112 92 102 112 92 102 112 93 103 113 93 103 113 94 104 114 94 104 114 95 105 115 95 105 115 96 106 116 96 106 116 97 107 117 97 107 117 98 108 118 98 108 118 99 109 119 99 109 119 100 110 120 100 110 120 100 110 120 100 110 120 100 110 120 100 110 120 100 110 120 100 110 120 100 110 120 100 110 120 100 110 120 100 110 120 100 110 120 100 110 120 100 110 120 100 110 120 100 110 120 100 110 120 100 110 120 99 109 119 99 109 119 99 109 119 99 109 119 99 109 119 99 109 119 99 109 119 99 109 119 99 109 119 99 109 119 99 109 119 99 109 119 99 109 119 99 109 119 99 109 119 99 109 119 99 109 119 99 109 119 99 109 119 100 110 120 100 110 120 101 111 121 101 111 121 102 112 122 102 112 122 103 113 123 103 113 123 222 232 242 223 233 243 224 234 244 225 235 245 226 236 246 227 237 247 227 237 247 227 237 247 228 238 248 228 238 248 227 237 247 227 237 247 227 237 247 226 236 246 226 236 246 226 236 246 226 236 246 226 236 246 226 236 246 226 236 246 226 236 246 226 236 246 226 236 246 226 236 246 225 235 245 225 235 245 225 235 245 225 235 245 225 235 245 225 235 245 225 235 245 224 234 244 224 234 244 224 234 244 223 233 243 223 233 243 222 232 242 222 232 242 103 113 123 103 113 123 103 113 123 103 113 123 222 232 242 222 232 242 223 233 243 223 233 243 224 234 244 224 234 244 224 234 244 225 235 245 225 235 245 225 235 245 226 236 246 226 236 246 227 237 247 227 237 247 227 237 247 227 237 247 226 236 246 226 236 246 225 235 245 224 234 244 223 233 243 222 232 242 103 113 123 103 113 123 103 113 123 102 112 122 102 112 122 102 112 122 101 111 121 101 111 121 100 110 120 100 110 120 99 109 119 99 109 119 98 108 118 98 108 118 98 108 118 97 107 117 97 107 117 97 107 117 96 106 116 96 106 116 95 105 115 95 105 115 94 104 114 94 104 114 93 103 113 93 103 113 93 103 113 92 102 112 92 102 112 93 103 113 93 103 113 93 103 113 93 103 113 93 103 113 94 104 114 94 104 114 94 104 114 94 104 114 94 104 114 95 105 115 95 105 115 95 105 115 96 106 116 96 106 116 96 106 116 96 106 116 95 105 115 95 105 115 95 105 115 95 105 115 94 104 114 94 104 114 94 104 114 94 104 114 94 104 114 94 104 114 94 104 114 94 104 114 93 103 113 93 103 113 93 103 113 93 103 113 93 103 113 100 110 120 99 109 119 98 108 118 98 108 118 97 107 117 97 107 117 97 107 117 97 107 117 96 106 116 96 106 116 95 105 115 95 105 115 94 104 114 94 104 114 93 103 113 93 103 113 93 103 113 92 102 112 93 103 113 93 103 113 93 103 113 93 103 113 93 103 113 94 104 114 94 104 114 94 104 114 94 104 114 94 104 114 94 104 114 94 104 114 94 104 114 95 105 115 95 105 115 95 105 115 96 106 116 96 106 116 95 105 115 95 105 115 95 105 115 95 105 115 94 104 114 94 104 114 94 104 114 94 104 114 94 104 114 94 104 114 94 104 114 94 104 114 94 104 114 94 104 114 94 104 114 93 103 113 93 103 113 93 103 113 93 103 113 93 103 113 93 103 113 93 103 113 93 103 113 93 103 113 93 103 113 93 103 113 93 103 113 93 103 113 93 103 113 93 103 113 93 103 113 93 103 113 93 103 113 93 103 113 94 104 114 95 105 115 95 105 115 96 106 116 96 106 116 96 106 116 97 107 117 97 107 117 97 107 117 98 108 118 98 108 118 99 109 119 99 109 119 100 110 120 100 110 120 101 111 121 101 111 121 101 111 121 101 111 121 100 110 120 100 110 120 100 110 120 100 110 120 100 110 120 100 110 120 100 110 120 100 110 120 100 110 120 100 110 120 100 110 120 100 110 120 100 110 120 99 109 119 99 109 119 99 109 119 99 109 119 99 109 119 99 109 119 99 109 119 99 109 119 99 109 119 99 109 119 99 109 119 99 109 119 99 109 119 98 108 118 98 108 118 98 108 118 99 109 119 99 109 119 99 109 119 100 110 120 100 110 120 101 111 121 101 111 121 102 112 122 102 112 122 102 112 122 103 113 123 103 113 123 103 113 123 222 232 242 223 233 243 224 234 244 225 235 245 226 236 246 227 237 247 227 237 247 227 237 247 226 236 246 226 236 246 226 236 246 225 235 245 225 235 245 225 235 245 226 236 246 226 236 246 226 236 246 226 236 246 226 236 246 226 236 246 226 236 246 225 235 245 225 235 245 224 234 244 224 234 244 224 234 244 224 234 244 224 234 244 224 234 244 224 234 244 224 234 244 224 234 244 224 234 244 223 233 243 222 232 242 222 232 242 103 113 123 103 113 123 103 113 123 222 232 242 222 232 242 223 233 243 224 234 244 224 234 244 224 234 244 225 235 245 225 235 245 225 235 245 225 235 245 225 235 245 225 235 245 226 236 246 226 236 246 226 236 246 227 237 247 227 237 247 227 237 247 226 236 246 225 235 245 224 234 244 223 233 243 222 232 242 103 113 123 103 113 123 103 113 123 102 112 122 102 112 122 102 112 122 102 112 122 101 111 121 101 111 121 100 110 120 99 109 119 99 109 119 98 108 118 98 108 118 97 107 117 97 107 117 97 107 117 96 106 116 96 106 116 96 106 116 95 105 115 95 105 115 94 104 114 94 104 114 93 103 113 93 103 113 92 102 112 92 102 112 93 103 113 93 103 113 93 103 113 93 103 113 93 103 113 94 104 114 94 104 114 94 104 114 94 104 114 94 104 114 94 104 114 94 104 114 94 104 114 95 105 115 95 105 115 95 105 115 96 106 116 96 106 116 95 105 115 95 105 115 95 105 115 94 104 114 94 104 114 94 104 114 94 104 114 94 104 114 94 104 114 94 104 114 94 104 114 94 104 114 94 104 114 94 104 114 93 103 113 93 103 113 93 103 113 100 110 120 99 109 119 98 108 118 97 107 117 97 107 117 97 107 117 97 107 117 96 106 116 96 106 116 96 106 116 96 106 116 95 105 115 94 104 114 94 104 114 93 103 113 93 103 113 93 103 113 93 103 113 93 103 113 93 103 113 93 103 113 94 104 114 94 104 114 94 104 114 94 104 114 94 104 114 93 103 113 93 103 113 93 103 113 94 104 114 94 104 114 94 104 114 95 105 115 95 105 115 95 105 115 95 105 115 95 105 115 95 105 115 95 105 115 94 104 114 94 104 114 94 104 114 94 104 114 94 104 114 94 104 114 94 104 114 94 104 114 95 105 115 94 104 114 94 104 114 94 104 114 93 103 113 93 103 113 93 103 113 93 103 113 93 103 113 93 103 113 93 103 113 93 103 113 94 104 114 94 104 114 94 104 114 94 104 114 93 103 113 93 103 113 93 103 113 93 103 113 93 103 113 94 104 114 94 104 114 95 105 115 95 105 115 96 106 116 96 106 116 97 107 117 97 107 117 97 107 117 97 107 117 97 107 117 98 108 118 98 108 118 99 109 119 99 109 119 100 110 120 100 110 120 101 111 121 101 111 121 101 111 121 101 111 121 100 110 120 100 110 120 100 110 120 100 110 120 100 110 120 100 110 120 100 110 120 100 110 120 101 111 121 101 111 121 100 110 120 100 110 120 100 110 120 99 109 119 99 109 119 99 109 119 98 108 118 98 108 118 99 109 119 99 109 119 99 109 119 99 109 119 99 109 119 99 109 119 99 109 119 99 109 119 98 108 118 98 108 118 98 108 118 98 108 118 99 109 119 99 109 119 100 110 120 101 111 121 101 111 121 101 111 121 102 112 122 102 112 122 102 112 122 102 112 122 102 112 122 103 113 123 103 113 123 222 232 242 223 233 243 224 234 244 225 235 245 225 235 245 226 236 246 226 236 246 225 235 245 225 235 245 225 235 245 225 235 245 225 235 245 225 235 245 225 235 245 226 236 246 226 236 246 226 236 246 226 236 246 226 236 246 225 235 245 225 235 245 224 234 244 224 234 244 223 233 243 223 233 243 223 233 243 224 234 244 224 234 244 224 234 244 224 234 244 224 234 244 224 234 244 223 233 243 223 233 243 222 232 242 222 232 242 222 232 242 222 232 242 223 233 243 223 233 243 224 234 244 225 235 245 225 235 245 225 235 245 225 235 245 225 235 245 225 235 245 225 235 245 225 235 245 225 235 245 225 235 245 226 236 246 226 236 246 226 236 246 227 237 247 226 236 246 226 236 246 225 235 245 224 234 244 223 233 243 222 232 242 103 113 123 103 113 123 103 113 123 103 113 123 102 112 122 102 112 122 102 112 122 101 111 121 101 111 121 100 110 120 99 109 119 98 108 118 98 108 118 97 107 117 97 107 117 97 107 117 96 106 116 96 106 116 96 106 116 96 106 116 95 105 115 95 105 115 94 104 114 94 104 114 93 103 113 93 103 113 93 103 113 93 103 113 93 103 113 93 103 113 93 103 113 94 104 114 94 104 114 94 104 114 94 104 114 94 104 114 93 103 113 93 103 113 93 103 113 94 104 114 94 104 114 94 104 114 95 105 115 95 105 115 95 105 115 95 105 115 95 105 115 95 105 115 95 105 115 94 104 114 94 104 114 94 104 114 94 104 114 94 104 114 94 104 114 94 104 114 95 105 115 95 105 115 94 104 114 94 104 114 94 104 114 93 103 113 93 103 113 100 110 120 99 109 119 98 108 118 97 107 117 97 107 117 97 107 117 96 106 116 96 106 116 96 106 116 96 106 116 95 105 115 95 105 115 94 104 114 94 104 114 93 103 113 93 103 113 93 103 113 93 103 113 93 103 113 93 103 113 94 104 114 94 104 114 94 104 114 94 104 114 94 104 114 94 104 114 93 103 113 93 103 113 93 103 113 93 103 113 93 103 113 94 104 114 94 104 114 95 105 115 95 105 115 95 105 115 95 105 115 95 105 115 95 105 115 94 104 114 94 104 114 94 104 114 94 104 114 94 104 114 94 104 114 95 105 115 95 105 115 95 105 115 95 105 115 94 104 114 94 104 114 94 104 114 93 103 113 93 103 113 93 103 113 93 103 113 93 103 113 93 103 113 94 104 114 94 104 114 94 104 114 94 104 114 94 104 114 94 104 114 94 104 114 94 104 114 94 104 114 94 104 114 95 105 115 95 105 115 96 106 116 96 106 116 97 107 117 97 107 117 97 107 117 98 108 118 98 108 118 98 108 118 98 108 118 98 108 118 98 108 118 99 109 119 99 109 119 100 110 120 100 110 120 101 111 121 101 111 121 101 111 121 101 111 121 100 110 120 100 110 120 100 110 120 100 110 120 100 110 120 100 110 120 101 111 121 101 111 121 101 111 121 101 111 121 101 111 121 100 110 120 100 110 120 99 109 119 99 109 119 98 108 118 98 108 118 98 108 118 98 108 118 99 109 119 99 109 119 99 109 119 99 109 119 99 109 119 99 109 119 98 108 118 98 108 118 98 108 118 98 108 118 98 108 118 99 109 119 99 109 119 100 110 120 100 110 120 101 111 121 101 111 121 101 111 121 101 111 121 101 111 121 102 112 122 102 112 122 102 112 122 102 112 122 103 113 123 103 113 123 223 233 243 223 233 243 224 234 244 224 234 244 224 234 244 224 234 244 224 234 244 224 234 244 224 234 244 224 234 244 224 234 244 225 235 245 225 235 245 226 236 246 226 236 246 226 236 246 226 236 246 225 235 245 224 234 244 224 234 244 223 233 243 223 233 243 223 233 243 223 233 243 223 233 243 224 234 244 224 234 244 224 234 244 224 234 244 224 234 244 223 233 243 223 233 243 223 233 243 222 232 242 222 232 242 223 233 243 223 233 243 224 234 244 225 235 245 225 235 245 226 236 246 226 236 246 226 236 246 225 235 245 225 235 245 224 234 244 224 234 244 224 234 244 225 235 245 225 235 245 226 236 246 226 236 246 226 236 246 226 236 246 226 236 246 225 235 245 224 234 244 223 233 243 222 232 242 103 113 123 103 113 123 103 113 123 103 113 123 103 113 123 102 112 122 102 112 122 102 112 122 101 111 121 100 110 120 99 109 119 98 108 118 98 108 118 97 107 117 97 107 117 96 106 116 96 106 116 96 106 116 96 106 116 96 106 116 95 105 115 95 105 115 94 104 114 94 104 114 93 103 113 93 103 113 93 103 113 93 103 113 93 103 113 93 103 113 94 104 114 94 104 114 94 104 114 94 104 114 94 104 114 93 103 113 93 103 113 93 103 113 93 103 113 93 103 113 94 104 114 94 104 114 94 104 114 95 105 115 95 105 115 95 105 115 95 105 115 95 105 115 94 104 114 94 104 114 94 104 114 94 104 114 94 104 114 94 104 114 94 104 114 95 105 115 95 105 115 95 105 115 95 105 115 94 104 114 94 104 114 94 104 114 93 103 113 100 110 120 99 109 119 98 108 118 97 107 117 97 107 117 96 106 116 96 106 116 96 106 116 96 106 116 96 106 116 95 105 115 95 105 115 95 105 115 94 104 114 94 104 114 93 103 113 93 103 113 93 103 113 93 103 113 94 104 114 94 104 114 94 104 114 94 104 114 94 104 114 94 104 114 93 103 113 93 103 113 93 103 113 93 103 113 93 103 113 93 103 113 93 103 113 94 104 114 94 104 114 94 104 114 95 105 115 95 105 115 95 105 115 94 104 114 94 104 114 94 104 114 94 104 114 94 104 114 94 104 114 95 105 115 95 105 115 95 105 115 95 105 115 95 105 115 95 105 115 94 104 114 94 104 114 94 104 114 93 103 113 93 103 113 93 103 113 93 103 113 94 104 114 94 104 114 94 104 114 94 104 114 95 105 115 95 105 115 95 105 115 95 105 115 95 105 115 95 105 115 95 105 115 95 105 115 96 106 116 97 107 117 97 107 117 97 107 117 98 108 118 98 108 118 98 108 118 98 108 118 98 108 118 98 108 118 98 108 118 98 108 118 99 109 119 99 109 119 100 110 120 100 110 120 100 110 120 101 111 121 101 111 121 101 111 121 101 111 121 100 110 120 100 110 120 100 110 120 100 110 120 101 111 121 101 111 121 101 111 121 101 111 121 101 111 121 101 111 121 100 110 120 100 110 120 99 109 119 99 109 119 98 108 118 98 108 118 98 108 118 98 108 118 98 108 118 98 108 118 99 109 119 99 109 119 99 109 119 99 109 119 98 108 118 98 108 118 98 108 118 98 108 118 99 109 119 99 109 119 99 109 119 100 110 120 100 110 120 101 111 121 101 111 121 101 111 121 101 111 121 101 111 121 101 111 121 101 111 121 101 111 121 102 112 122 102 112 122 103 113 123 103 113 123 222 232 242 222 232 242 223 233 243 223 233 243 223 233 243 223 233 243 223 233 243 223 233 243 224 234 244 224 234 244 224 234 244 225 235 245 225 235 245 226 236 246 226 236 246 225 235 245 225 235 245 224 234 244 223 233 243 223 233 243 222 232 242 222 232 242 222 232 242 223 233 243 223 233 243 223 233 243 224 234 244 224 234 244 224 234 244 224 234 244 223 233 243 223 233 243 223 233 243 223 233 243 224 234 244 224 234 244 225 235 245 225 235 245 226 236 246 226 236 246 226 236 246 226 236 246 225 235 245 225 235 245 224 234 244 224 234 244 224 234 244 224 234 244 225 235 245 225 235 245 225 235 245 225 235 245 225 235 245 225 235 245 224 234 244 224 234 244 223 233 243 222 232 242 222 232 242 103 113 123 103 113 123 103 113 123 103 113 123 103 113 123 102 112 122 102 112 122 101 111 121 100 110 120 99 109 119 98 108 118 98 108 118 97 107 117 97 107 117 96 106 116 96 106 116 96 106 116 96 106 116 96 106 116 95 105 115 95 105 115 94 104 114 94 104 114 94 104 114 93 103 113 93 103 113 93 103 113 93 103 113 94 104 114 94 104 114 94 104 114 94 104 114 94 104 114 94 104 114 93 103 113 93 103 113 93 103 113 93 103 113 93 103 113 93 103 113 93 103 113 94 104 114 94 104 114 94 104 114 95 105 115 95 105 115 95 105 115 94 104 114 94 104 114 94 104 114 94 104 114 94 104 114 94 104 114 95 105 115 95 105 115 95 105 115 95 105 115 95 105 115 95 105 115 94 104 114 94 104 114 93 103 113 100 110 120 99 109 119 98 108 118 97 107 117 97 107 117 96 106 116 96 106 116 96 106 116 96 106 116 95 105 115 95 105 115 95 105 115 95 105 115 94 104 114 94 104 114 94 104 114 94 104 114 94 104 114 94 104 114 94 104 114 94 104 114 94 104 114 94 104 114 94 104 114 94 104 114 93 103 113 93 103 113 93 103 113 93 103 113 93 103 113 93 103 113 93 103 113 93 103 113 94 104 114 94 104 114 94 104 114 94 104 114 94 104 114 94 104 114 94 104 114 94 104 114 94 104 114 95 105 115 95 105 115 95 105 115 95 105 115 95 105 115 95 105 115 95 105 115 95 105 115 95 105 115 94 104 114 94 104 114 94 104 114 94 104 114 94 104 114 94 104 114 94 104 114 94 104 114 94 104 114 95 105 115 95 105 115 95 105 115 95 105 115 95 105 115 95 105 115 96 106 116 96 106 116 96 106 116 97 107 117 97 107 117 98 108 118 98 108 118 98 108 118 98 108 118 98 108 118 98 108 118 98 108 118 98 108 118 98 108 118 99 109 119 99 109 119 99 109 119 100 110 120 100 110 120 100 110 120 100 110 120 101 111 121 101 111 121 101 111 121 101 111 121 101 111 121 101 111 121 101 111 121 101 111 121 101 111 121 101 111 121 101 111 121 101 111 121 101 111 121 100 110 120 100 110 120 99 109 119 99 109 119 98 108 118 98 108 118 98 108 118 98 108 118 98 108 118 98 108 118 98 108 118 98 108 118 98 108 118 98 108 118 98 108 118 98 108 118 98 108 118 99 109 119 99 109 119 99 109 119 100 110 120 100 110 120 100 110 120 100 110 120 101 111 121 101 111 121 101 111 121 101 111 121 101 111 121 101 111 121 101 111 121 101 111 121 101 111 121 102 112 122 102 112 122 103 113 123 103 113 123 103 113 123 222 232 242 222 232 242 222 232 242 222 232 242 223 233 243 223 233 243 224 234 244 224 234 244 225 235 245 225 235 245 225 235 245 225 235 245 225 235 245 224 234 244 224 234 244 223 233 243 223 233 243 222 232 242 222 232 242 222 232 242 222 232 242 223 233 243 223 233 243 223 233 243 224 234 244 224 234 244 224 234 244 224 234 244 224 234 244 224 234 244 224 234 244 225 235 245 225 235 245 226 236 246 226 236 246 226 236 246 226 236 246 226 236 246 226 236 246 226 236 246 225 235 245 225 235 245 224 234 244 224 234 244 224 234 244 224 234 244 224 234 244 224 234 244 225 235 245 224 234 244 224 234 244 224 234 244 223 233 243 223 233 243 222 232 242 222 232 242 222 232 242 103 113 123 103 113 123 103 113 123 103 113 123 102 112 122 102 112 122 101 111 121 100 110 120 99 109 119 98 108 118 98 108 118 97 107 117 97 107 117 96 106 116 96 106 116 96 106 116 96 106 116 95 105 115 95 105 115 95 105 115 94 104 114 94 104 114 94 104 114 94 104 114 94 104 114 94 104 114 94 104 114 94 104 114 94 104 114 94 104 114 94 104 114 94 104 114 94 104 114 93 103 113 93 103 113 93 103 113 93 103 113 93 103 113 93 103 113 93 103 113 93 103 113 94 104 114 94 104 114 94 104 114 94 104 114 94 104 114 94 104 114 94 104 114 94 104 114 94 104 114 95 105 115 95 105 115 95 105 115 95 105 115 95 105 115 95 105 115 95 105 115 95 105 115 94 104 114 94 104 114 94 104 114 100 110 120 99 109 119 98 108 118 97 107 117 97 107 117 96 106 116 96 106 116 96 106 116 95 105 115 95 105 115 95 105 115 95 105 115 95 105 115 95 105 115 94 104 114 94 104 114 94 104 114 94 104 114 94 104 114 94 104 114 94 104 114 94 104 114 94 104 114 94 104 114 94 104 114 93 103 113 93 103 113 93 103 113 93 103 113 93 103 113 93 103 113 93 103 113 93 103 113 93 103 113 93 103 113 93 103 113 94 104 114 94 104 114 94 104 114 94 104 114 94 104 114 95 105 115 95 105 115 95 105 115 95 105 115 95 105 115 95 105 115 95 105 115 95 105 115 95 105 115 95 105 115 94 104 114 94 104 114 94 104 114 94 104 114 94 104 114 94 104 114 94 104 114 94 104 114 95 105 115 95 105 115 95 105 115 95 105 115 96 106 116 96 106 116 96 106 116 97 107 117 97 107 117 97 107 117 98 108 118 98 108 118 98 108 118 99 109 119 99 109 119 99 109 119 99 109 119 99 109 119 99 109 119 99 109 119 99 109 119 99 109 119 99 109 119 99 109 119 99 109 119 100 110 120 100 110 120 100 110 120 100 110 120 101 111 121 101 111 121 101 111 121 101 111 121 101 111 121 101 111 121 101 111 121 101 111 121 101 111 121 101 111 121 101 111 121 100 110 120 100 110 120 100 110 120 99 109 119 99 109 119 98 108 118 98 108 118 98 108 118 98 108 118 98 108 118 98 108 118 98 108 118 98 108 118 98 108 118 98 108 118 98 108 118 99 109 119 99 109 119 99 109 119 99 109 119 99 109 119 100 110 120 100 110 120 100 110 120 100 110 120 100 110 120 100 110 120 100 110 120 100 110 120 100 110 120 100 110 120 100 110 120 100 110 120 101 111 121 101 111 121 101 111 121 102 112 122 102 112 122 102 112 122 103 113 123 103 113 123 103 113 123 222 232 242 222 232 242 223 233 243 223 233 243 224 234 244 224 234 244 224 234 244 224 234 244 224 234 244 224 234 244 224 234 244 223 233 243 223 233 243 222 232 242 222 232 242 222 232 242 222 232 242 222 232 242 222 232 242 222 232 242 223 233 243 223 233 243 223 233 243 224 234 244 224 234 244 225 235 245 225 235 245 225 235 245 226 236 246 226 236 246 226 236 246 227 237 247 227 237 247 226 236 246 226 236 246 226 236 246 226 236 246 225 235 245 225 235 245 224 234 244 224 234 244 224 234 244 224 234 244 224 234 244 224 234 244 224 234 244 224 234 244 223 233 243 223 233 243 223 233 243 223 233 243 223 233 243 222 232 242 222 232 242 222 232 242 103 113 123 103 113 123 102 112 122 102 112 122 101 111 121 101 111 121 100 110 120 99 109 119 99 109 119 98 108 118 97 107 117 97 107 117 96 106 116 96 106 116 96 106 116 95 105 115 95 105 115 95 105 115 95 105 115 95 105 115 94 104 114 94 104 114 94 104 114 94 104 114 94 104 114 94 104 114 94 104 114 94 104 114 94 104 114 94 104 114 94 104 114 93 103 113 93 103 113 93 103 113 93 103 113 93 103 113 93 103 113 93 103 113 93 103 113 93 103 113 93 103 113 93 103 113 93 103 113 94 104 114 94 104 114 94 104 114 94 104 114 95 105 115 95 105 115 95 105 115 95 105 115 95 105 115 95 105 115 95 105 115 95 105 115 95 105 115 95 105 115 95 105 115 94 104 114 94 104 114 100 110 120 99 109 119 98 108 118 98 108 118 97 107 117 97 107 117 96 106 116 96 106 116 95 105 115 95 105 115 95 105 115 95 105 115 95 105 115 95 105 115 95 105 115 95 105 115 95 105 115 95 105 115 95 105 115 95 105 115 94 104 114 94 104 114 94 104 114 94 104 114 93 103 113 93 103 113 93 103 113 93 103 113 93 103 113 93 103 113 92 102 112 92 102 112 92 102 112 92 102 112 93 103 113 93 103 113 93 103 113 93 103 113 94 104 114 94 104 114 95 105 115 95 105 115 95 105 115 95 105 115 95 105 115 95 105 115 95 105 115 95 105 115 95 105 115 95 105 115 95 105 115 95 105 115 95 105 115 95 105 115 95 105 115 94 104 114 94 104 114 94 104 114 95 105 115 95 105 115 95 105 115 95 105 115 96 106 116 96 106 116 97 107 117 97 107 117 98 108 118 98 108 118 98 108 118 99 109 119 99 109 119 99 109 119 99 109 119 99 109 119 99 109 119 99 109 119 99 109 119 99 109 119 99 109 119 99 109 119 99 109 119 99 109 119 99 109 119 99 109 119 99 109 119 100 110 120 100 110 120 100 110 120 100 110 120 101 111 121 101 111 121 101 111 121 101 111 121 102 112 122 101 111 121 101 111 121 101 111 121 101 111 121 101 111 121 100 110 120 100 110 120 100 110 120 99 109 119 99 109 119 99 109 119 98 108 118 98 108 118 98 108 118 98 108 118 97 107 117 97 107 117 98 108 118 98 108 118 98 108 118 98 108 118 99 109 119 99 109 119 99 109 119 100 110 120 100 110 120 100 110 120 100 110 120 100 110 120 100 110 120 100 110 120 100 110 120 100 110 120 100 110 120 100 110 120 100 110 120 100 110 120 100 110 120 100 110 120 100 110 120 100 110 120 101 111 121 101 111 121 101 111 121 102 112 122 102 112 122 103 113 123 103 113 123 222 232 242 223 233 243 223 233 243 223 233 243 223 233 243 223 233 243 223 233 243 223 233 243 223 233 243 223 233 243 223 233 243 223 233 243 222 232 242 222 232 242 222 232 242 222 232 242 222 232 242 222 232 242 222 232 242 222 232 242 223 233 243 223 233 243 224 234 244 225 235 245 225 235 245 226 236 246 226 236 246 227 237 247 227 237 247 227 237 247 227 237 247 227 237 247 227 237 247 226 236 246 226 236 246 226 236 246 225 235 245 225 235 245 225 235 245 224 234 244 224 234 244 223 233 243 223 233 243 223 233 243 223 233 243 223 233 243 223 233 243 223 233 243 223 233 243 223 233 243 223 233 243 223 233 243 222 232 242 222 232 242 103 113 123 103 113 123 102 112 122 102 112 122 101 111 121 101 111 121 100 110 120 99 109 119 99 109 119 98 108 118 97 107 117 97 107 117 96 106 116 96 106 116 95 105 115 95 105 115 95 105 115 95 105 115 95 105 115 95 105 115 95 105 115 95 105 115 95 105 115 95 105 115 95 105 115 95 105 115 94 104 114 94 104 114 94 104 114 94 104 114 94 104 114 93 103 113 93 103 113 93 103 113 93 103 113 93 103 113 93 103 113 92 102 112 92 102 112 92 102 112 92 102 112 93 103 113 93 103 113 93 103 113 94 104 114 94 104 114 94 104 114 95 105 115 95 105 115 95 105 115 95 105 115 95 105 115 95 105 115 95 105 115 95 105 115 95 105 115 95 105 115 95 105 115 95 105 115 95 105 115 100 110 120 99 109 119 98 108 118 98 108 118 97 107 117 97 107 117 96 106 116 95 105 115 95 105 115 95 105 115 95 105 115 95 105 115 95 105 115 95 105 115 95 105 115 95 105 115 95 105 115 95 105 115 95 105 115 95 105 115 94 104 114 94 104 114 94 104 114 93 103 113 93 103 113 93 103 113 93 103 113 93 103 113 93 103 113 93 103 113 92 102 112 92 102 112 92 102 112 92 102 112 92 102 112 92 102 112 93 103 113 93 103 113 94 104 114 94 104 114 95 105 115 95 105 115 95 105 115 96 106 116 95 105 115 95 105 115 95 105 115 95 105 115 95 105 115 95 105 115 95 105 115 95 105 115 95 105 115 95 105 115 95 105 115 95 105 115 95 105 115 95 105 115 95 105 115 95 105 115 95 105 115 96 106 116 96 106 116 97 107 117 98 108 118 98 108 118 99 109 119 99 109 119 99 109 119 100 110 120 100 110 120 100 110 120 99 109 119 99 109 119 99 109 119 100 110 120 100 110 120 100 110 120 100 110 120 100 110 120 100 110 120 99 109 119 99 109 119 99 109 119 99 109 119 99 109 119 99 109 119 100 110 120 100 110 120 101 111 121 101 111 121 102 112 122 102 112 122 102 112 122 102 112 122 101 111 121 101 111 121 101 111 121 100 110 120 100 110 120 100 110 120 100 110 120 99 109 119 99 109 119 99 109 119 99 109 119 98 108 118 98 108 118 97 107 117 97 107 117 97 107 117 97 107 117 98 108 118 98 108 118 98 108 118 99 109 119 99 109 119 100 110 120 100 110 120 100 110 120 100 110 120 100 110 120 100 110 120 99 109 119 99 109 119 99 109 119 99 109 119 99 109 119 100 110 120 100 110 120 100 110 120 100 110 120 99 109 119 99 109 119 99 109 119 100 110 120 100 110 120 100 110 120 101 111 121 102 112 122 102 112 122 103 113 123 222 232 242 222 232 242 223 233 243 223 233 243 223 233 243 223 233 243 222 232 242 222 232 242 222 232 242 222 232 242 222 232 242 222 232 242 222 232 242 222 232 242 222 232 242 222 232 242 222 232 242 222 232 242 222 232 242 222 232 242 222 232 242 223 233 243 224 234 244 225 235 245 226 236 246 227 237 247 227 237 247 228 238 248 228 238 248 228 238 248 227 237 247 227 237 247 226 236 246 226 236 246 226 236 246 226 236 246 226 236 246 225 235 245 225 235 245 224 234 244 224 234 244 223 233 243 223 233 243 222 232 242 222 232 242 222 232 242 222 232 242 222 232 242 222 232 242 223 233 243 223 233 243 223 233 243 223 233 243 222 232 242 103 113 123 103 113 123 102 112 122 102 112 122 101 111 121 100 110 120 100 110 120 99 109 119 99 109 119 98 108 118 98 108 118 97 107 117 96 106 116 96 106 116 95 105 115 95 105 115 95 105 115 95 105 115 95 105 115 95 105 115 95 105 115 95 105 115 95 105 115 95 105 115 95 105 115 95 105 115 95 105 115 94 104 114 94 104 114 94 104 114 93 103 113 93 103 113 93 103 113 93 103 113 93 103 113 93 103 113 93 103 113 92 102 112 92 102 112 92 102 112 92 102 112 92 102 112 92 102 112 93 103 113 93 103 113 94 104 114 94 104 114 95 105 115 95 105 115 95 105 115 96 106 116 95 105 115 95 105 115 95 105 115 95 105 115 95 105 115 95 105 115 95 105 115 95 105 115 95 105 115 100 110 120 99 109 119 99 109 119 98 108 118 97 107 117 97 107 117 96 106 116 96 106 116 95 105 115 95 105 115 95 105 115 95 105 115 95 105 115 95 105 115 96 106 116 96 106 116 96 106 116 96 106 116 95 105 115 95 105 115 95 105 115 94 104 114 94 104 114 93 103 113 93 103 113 93 103 113 93 103 113 93 103 113 93 103 113 93 103 113 92 102 112 92 102 112 92 102 112 92 102 112 92 102 112 92 102 112 92 102 112 93 103 113 93 103 113 94 104 114 95 105 115 95 105 115 96 106 116 96 106 116 96 106 116 95 105 115 95 105 115 95 105 115 95 105 115 95 105 115 95 105 115 95 105 115 95 105 115 96 106 116 96 106 116 95 105 115 95 105 115 95 105 115 95 105 115 95 105 115 96 106 116 96 106 116 97 107 117 98 108 118 98 108 118 99 109 119 100 110 120 100 110 120 100 110 120 100 110 120 100 110 120 100 110 120 100 110 120 100 110 120 100 110 120 100 110 120 100 110 120 100 110 120 100 110 120 100 110 120 100 110 120 100 110 120 99 109 119 99 109 119 99 109 119 99 109 119 99 109 119 100 110 120 100 110 120 101 111 121 101 111 121 102 112 122 102 112 122 102 112 122 102 112 122 101 111 121 101 111 121 101 111 121 100 110 120 100 110 120 100 110 120 100 110 120 99 109 119 99 109 119 99 109 119 99 109 119 98 108 118 98 108 118 97 107 117 97 107 117 97 107 117 97 107 117 97 107 117 98 108 118 98 108 118 99 109 119 99 109 119 100 110 120 100 110 120 100 110 120 100 110 120 100 110 120 99 109 119 99 109 119 99 109 119 99 109 119 99 109 119 99 109 119 99 109 119 99 109 119 99 109 119 99 109 119 99 109 119 99 109 119 99 109 119 99 109 119 99 109 119 100 110 120 100 110 120 101 111 121 102 112 122 102 112 122 103 113 123 222 232 242 222 232 242 222 232 242 222 232 242 222 232 242 103 113 123 103 113 123 103 113 123 222 232 242 222 232 242 222 232 242 222 232 242 222 232 242 222 232 242 222 232 242 222 232 242 103 113 123 103 113 123 222 232 242 222 232 242 223 233 243 224 234 244 225 235 245 227 237 247 228 238 248 228 238 248 228 238 248 228 238 248 228 238 248 228 238 248 227 237 247 227 237 247 226 236 246 226 236 246 226 236 246 226 236 246 225 235 245 225 235 245 224 234 244 224 234 244 223 233 243 222 232 242 103 113 123 103 113 123 103 113 123 103 113 123 103 113 123 222 232 242 223 233 243 223 233 243 223 233 243 223 233 243 222 232 242 103 113 123 103 113 123 102 112 122 101 111 121 101 111 121 100 110 120 100 110 120 99 109 119 99 109 119 98 108 118 98 108 118 97 107 117 97 107 117 96 106 116 95 105 115 95 105 115 95 105 115 95 105 115 95 105 115 95 105 115 95 105 115 96 106 116 96 106 116 96 106 116 96 106 116 95 105 115 95 105 115 94 104 114 94 104 114 94 104 114 93 103 113 93 103 113 93 103 113 93 103 113 93 103 113 93 103 113 92 102 112 92 102 112 92 102 112 92 102 112 91 101 111 92 102 112 92 102 112 92 102 112 93 103 113 94 104 114 94 104 114 95 105 115 95 105 115 96 106 116 96 106 116 96 106 116 95 105 115 95 105 115 95 105 115 95 105 115 95 105 115 95 105 115 95 105 115 96 106 116 100 110 120 99 109 119 99 109 119 98 108 118 98 108 118 97 107 117 96 106 116 96 106 116 95 105 115 95 105 115 95 105 115 95 105 115 95 105 115 96 106 116 96 106 116 96 106 116 96 106 116 96 106 116 96 106 116 95 105 115 95 105 115 94 104 114 94 104 114 93 103 113 93 103 113 93 103 113 93 103 113 93 103 113 93 103 113 92 102 112 92 102 112 92 102 112 91 101 111 91 101 111 91 101 111 91 101 111 92 102 112 93 103 113 93 103 113 94 104 114 95 105 115 95 105 115 95 105 115 96 106 116 96 106 116 95 105 115 95 105 115 95 105 115 95 105 115 95 105 115 95 105 115 96 106 116 96 106 116 96 106 116 96 106 116 96 106 116 96 106 116 96 106 116 96 106 116 96 106 116 96 106 116 97 107 117 97 107 117 98 108 118 99 109 119 100 110 120 100 110 120 101 111 121 101 111 121 101 111 121 101 111 121 101 111 121 100 110 120 100 110 120 100 110 120 100 110 120 100 110 120 100 110 120 100 110 120 100 110 120 100 110 120 100 110 120 99 109 119 99 109 119 99 109 119 99 109 119 99 109 119 100 110 120 100 110 120 101 111 121 101 111 121 102 112 122 102 112 122 102 112 122 102 112 122 101 111 121 101 111 121 101 111 121 100 110 120 100 110 120 100 110 120 100 110 120 99 109 119 99 109 119 99 109 119 99 109 119 98 108 118 98 108 118 97 107 117 97 107 117 97 107 117 97 107 117 97 107 117 98 108 118 98 108 118 99 109 119 100 110 120 100 110 120 100 110 120 100 110 120 100 110 120 99 109 119 99 109 119 99 109 119 99 109 119 99 109 119 99 109 119 99 109 119 99 109 119 99 109 119 99 109 119 99 109 119 98 108 118 98 108 118 98 108 118 98 108 118 98 108 118 99 109 119 99 109 119 100 110 120 101 111 121 102 112 122 103 113 123 103 113 123 103 113 123 103 113 123 103 113 123 103 113 123 103 113 123 103 113 123 103 113 123 103 113 123 103 113 123 222 232 242 222 232 242 222 232 242 222 232 242 222 232 242 222 232 242 103 113 123 103 113 123 222 232 242 222 232 242 223 233 243 225 235 245 226 236 246 227 237 247 228 238 248 229 239 249 229 239 249 229 239 249 228 238 248 228 238 248 227 237 247 227 237 247 226 236 246 226 236 246 226 236 246 226 236 246 225 235 245 225 235 245 224 234 244 224 234 244 223 233 243 222 232 242 103 113 123 103 113 123 103 113 123 103 113 123 103 113 123 222 232 242 222 232 242 223 233 243 223 233 243 223 233 243 222 232 242 103 113 123 103 113 123 102 112 122 101 111 121 101 111 121 100 110 120 100 110 120 99 109 119 99 109 119 99 109 119 98 108 118 97 107 117 97 107 117 96 106 116 95 105 115 95 105 115 95 105 115 95 105 115 95 105 115 95 105 115 96 106 116 96 106 116 96 106 116 96 106 116 96 106 116 96 106 116 95 105 115 95 105 115 94 104 114 94 104 114 93 103 113 93 103 113 93 103 113 93 103 113 93 103 113 93 103 113 92 102 112 92 102 112 92 102 112 91 101 111 91 101 111 91 101 111 92 102 112 92 102 112 93 103 113 94 104 114 94 104 114 95 105 115 95 105 115 96 106 116 96 106 116 96 106 116 95 105 115 95 105 115 95 105 115 95 105 115 95 105 115 95 105 115 96 106 116 96 106 116 100 110 120 99 109 119 99 109 119 98 108 118 98 108 118 97 107 117 96 106 116 96 106 116 95 105 115 95 105 115 95 105 115 95 105 115 95 105 115 96 106 116 96 106 116 96 106 116 96 106 116 96 106 116 96 106 116 95 105 115 95 105 115 94 104 114 94 104 114 94 104 114 93 103 113 93 103 113 93 103 113 93 103 113 93 103 113 92 102 112 92 102 112 92 102 112 91 101 111 91 101 111 91 101 111 91 101 111 92 102 112 92 102 112 93 103 113 94 104 114 94 104 114 95 105 115 95 105 115 95 105 115 95 105 115 95 105 115 95 105 115 95 105 115 95 105 115 95 105 115 96 106 116 96 106 116 96 106 116 96 106 116 96 106 116 96 106 116 96 106 116 96 106 116 96 106 116 96 106 116 97 107 117 97 107 117 98 108 118 99 109 119 100 110 120 100 110 120 101 111 121 101 111 121 102 112 122 102 112 122 101 111 121 101 111 121 101 111 121 101 111 121 101 111 121 101 111 121 101 111 121 101 111 121 101 111 121 101 111 121 100 110 120 100 110 120 100 110 120 99 109 119 99 109 119 99 109 119 99 109 119 100 110 120 100 110 120 101 111 121 101 111 121 102 112 122 102 112 122 102 112 122 102 112 122 101 111 121 101 111 121 101 111 121 100 110 120 100 110 120 100 110 120 100 110 120 99 109 119 99 109 119 99 109 119 99 109 119 98 108 118 98 108 118 98 108 118 97 107 117 97 107 117 97 107 117 98 108 118 98 108 118 98 108 118 99 109 119 99 109 119 100 110 120 100 110 120 100 110 120 100 110 120 99 109 119 99 109 119 99 109 119 98 108 118 98 108 118 98 108 118 98 108 118 98 108 118 98 108 118 98 108 118 98 108 118 98 108 118 98 108 118 97 107 117 98 108 118 98 108 118 98 108 118 99 109 119 100 110 120 100 110 120 101 111 121 102 112 122 102 112 122 103 113 123 103 113 123 103 113 123 103 113 123 103 113 123 103 113 123 103 113 123 103 113 123 103 113 123 103 113 123 222 232 242 222 232 242 222 232 242 222 232 242 222 232 242 222 232 242 222 232 242 222 232 242 223 233 243 224 234 244 225 235 245 226 236 246 227 237 247 228 238 248 229 239 249 229 239 249 229 239 249 229 239 249 228 238 248 227 237 247 227 237 247 226 236 246 226 236 246 226 236 246 226 236 246 225 235 245 225 235 245 224 234 244 223 233 243 222 232 242 103 113 123 103 113 123 103 113 123 103 113 123 103 113 123 103 113 123 103 113 123 222 232 242 222 232 242 222 232 242 222 232 242 103 113 123 103 113 123 102 112 122 102 112 122 101 111 121 101 111 121 100 110 120 100 110 120 99 109 119 99 109 119 99 109 119 98 108 118 98 108 118 97 107 117 96 106 116 96 106 116 95 105 115 95 105 115 95 105 115 95 105 115 96 106 116 96 106 116 96 106 116 96 106 116 96 106 116 96 106 116 96 106 116 95 105 115 95 105 115 94 104 114 94 104 114 93 103 113 93 103 113 93 103 113 93 103 113 93 103 113 93 103 113 92 102 112 92 102 112 92 102 112 91 101 111 91 101 111 91 101 111 91 101 111 92 102 112 93 103 113 93 103 113 94 104 114 95 105 115 95 105 115 95 105 115 95 105 115 95 105 115 95 105 115 95 105 115 95 105 115 95 105 115 95 105 115 96 106 116 96 106 116 96 106 116 100 110 120 99 109 119 99 109 119 98 108 118 98 108 118 97 107 117 97 107 117 96 106 116 96 106 116 96 106 116 96 106 116 96 106 116 96 106 116 96 106 116 96 106 116 96 106 116 96 106 116 96 106 116 96 106 116 95 105 115 95 105 115 95 105 115 94 104 114 94 104 114 93 103 113 93 103 113 93 103 113 93 103 113 92 102 112 92 102 112 92 102 112 92 102 112 91 101 111 91 101 111 91 101 111 91 101 111 92 102 112 92 102 112 93 103 113 94 104 114 94 104 114 95 105 115 95 105 115 95 105 115 95 105 115 95 105 115 95 105 115 95 105 115 96 106 116 96 106 116 96 106 116 96 106 116 96 106 116 97 107 117 97 107 117 97 107 117 97 107 117 97 107 117 97 107 117 97 107 117 98 108 118 98 108 118 99 109 119 99 109 119 100 110 120 101 111 121 101 111 121 102 112 122 102 112 122 102 112 122 102 112 122 102 112 122 102 112 122 101 111 121 101 111 121 101 111 121 101 111 121 101 111 121 101 111 121 101 111 121 100 110 120 100 110 120 100 110 120 100 110 120 99 109 119 99 109 119 100 110 120 100 110 120 100 110 120 101 111 121 101 111 121 101 111 121 101 111 121 102 112 122 101 111 121 101 111 121 101 111 121 101 111 121 100 110 120 100 110 120 100 110 120 100 110 120 99 109 119 99 109 119 99 109 119 99 109 119 98 108 118 98 108 118 98 108 118 98 108 118 97 107 117 98 108 118 98 108 118 98 108 118 99 109 119 99 109 119 99 109 119 100 110 120 100 110 120 100 110 120 99 109 119 99 109 119 99 109 119 98 108 118 98 108 118 98 108 118 98 108 118 98 108 118 98 108 118 98 108 118 98 108 118 97 107 117 97 107 117 97 107 117 97 107 117 97 107 117 97 107 117 98 108 118 98 108 118 99 109 119 100 110 120 100 110 120 101 111 121 101 111 121 102 112 122 102 112 122 102 112 122 102 112 122 102 112 122 102 112 122 102 112 122 103 113 123 103 113 123 103 113 123 103 113 123 103 113 123 222 232 242 222 232 242 222 232 242 222 232 242 222 232 242 223 233 243 223 233 243 224 234 244 225 235 245 226 236 246 227 237 247 228 238 248 229 239 249 229 239 249 229 239 249 229 239 249 228 238 248 228 238 248 227 237 247 227 237 247 226 236 246 226 236 246 226 236 246 225 235 245 224 234 244 224 234 244 223 233 243 222 232 242 103 113 123 103 113 123 103 113 123 103 113 123 103 113 123 103 113 123 103 113 123 103 113 123 103 113 123 103 113 123 103 113 123 103 113 123 103 113 123 102 112 122 102 112 122 101 111 121 101 111 121 100 110 120 100 110 120 99 109 119 99 109 119 99 109 119 98 108 118 98 108 118 97 107 117 97 107 117 96 106 116 96 106 116 96 106 116 96 106 116 96 106 116 96 106 116 96 106 116 96 106 116 96 106 116 96 106 116 96 106 116 96 106 116 95 105 115 95 105 115 94 104 114 94 104 114 94 104 114 93 103 113 93 103 113 93 103 113 93 103 113 92 102 112 92 102 112 92 102 112 91 101 111 91 101 111 91 101 111 91 101 111 92 102 112 92 102 112 93 103 113 93 103 113 94 104 114 94 104 114 95 105 115 95 105 115 95 105 115 95 105 115 95 105 115 95 105 115 95 105 115 96 106 116 96 106 116 96 106 116 96 106 116 96 106 116 100 110 120 99 109 119 99 109 119 98 108 118 98 108 118 97 107 117 97 107 117 97 107 117 96 106 116 96 106 116 96 106 116 96 106 116 96 106 116 96 106 116 96 106 116 96 106 116 96 106 116 96 106 116 96 106 116 95 105 115 95 105 115 95 105 115 94 104 114 94 104 114 94 104 114 93 103 113 93 103 113 93 103 113 92 102 112 92 102 112 92 102 112 91 101 111 91 101 111 91 101 111 91 101 111 92 102 112 92 102 112 92 102 112 93 103 113 93 103 113 94 104 114 94 104 114 95 105 115 95 105 115 95 105 115 95 105 115 96 106 116 96 106 116 96 106 116 96 106 116 96 106 116 96 106 116 97 107 117 97 107 117 97 107 117 97 107 117 97 107 117 98 108 118 98 108 118 98 108 118 99 109 119 99 109 119 100 110 120 100 110 120 101 111 121 101 111 121 102 112 122 102 112 122 102 112 122 102 112 122 102 112 122 102 112 122 102 112 122 102 112 122 102 112 122 102 112 122 101 111 121 101 111 121 101 111 121 101 111 121 101 111 121 100 110 120 100 110 120 100 110 120 100 110 120 100 110 120 100 110 120 100 110 120 100 110 120 101 111 121 101 111 121 101 111 121 101 111 121 101 111 121 101 111 121 101 111 121 101 111 121 101 111 121 100 110 120 100 110 120 100 110 120 100 110 120 99 109 119 99 109 119 99 109 119 99 109 119 98 108 118 98 108 118 98 108 118 98 108 118 98 108 118 98 108 118 98 108 118 98 108 118 99 109 119 99 109 119 99 109 119 99 109 119 99 109 119 99 109 119 99 109 119 99 109 119 99 109 119 98 108 118 98 108 118 98 108 118 98 108 118 97 107 117 97 107 117 97 107 117 97 107 117 97 107 117 97 107 117 97 107 117 97 107 117 97 107 117 97 107 117 97 107 117 98 108 118 98 108 118 99 109 119 100 110 120 100 110 120 101 111 121 101 111 121 101 111 121 102 112 122 102 112 122 102 112 122 102 112 122 102 112 122 102 112 122 103 113 123 103 113 123 103 113 123 103 113 123 103 113 123 222 232 242 222 232 242 222 232 242 223 233 243 223 233 243 224 234 244 225 235 245 226 236 246 227 237 247 227 237 247 228 238 248 228 238 248 229 239 249 229 239 249 229 239 249 228 238 248 228 238 248 228 238 248 227 237 247 227 237 247 226 236 246 225 235 245 225 235 245 224 234 244 223 233 243 223 233 243 222 232 242 103 113 123 103 113 123 103 113 123 103 113 123 103 113 123 103 113 123 103 113 123 103 113 123 103 113 123 103 113 123 103 113 123 103 113 123 102 112 122 102 112 122 102 112 122 101 111 121 101 111 121 100 110 120 100 110 120 99 109 119 99 109 119 99 109 119 98 108 118 98 108 118 97 107 117 97 107 117 97 107 117 96 106 116 96 106 116 96 106 116 96 106 116 96 106 116 96 106 116 96 106 116 96 106 116 96 106 116 96 106 116 96 106 116 95 105 115 95 105 115 95 105 115 94 104 114 94 104 114 93 103 113 93 103 113 93 103 113 92 102 112 92 102 112 92 102 112 92 102 112 91 101 111 91 101 111 91 101 111 91 101 111 92 102 112 92 102 112 92 102 112 93 103 113 93 103 113 94 104 114 94 104 114 95 105 115 95 105 115 95 105 115 95 105 115 96 106 116 96 106 116 96 106 116 96 106 116 96 106 116 96 106 116 97 107 117 100 110 120 99 109 119 99 109 119 98 108 118 98 108 118 98 108 118 97 107 117 97 107 117 97 107 117 97 107 117 97 107 117 97 107 117 96 106 116 96 106 116 96 106 116 96 106 116 96 106 116 96 106 116 96 106 116 95 105 115 95 105 115 95 105 115 95 105 115 94 104 114 94 104 114 93 103 113 93 103 113 92 102 112 92 102 112 92 102 112 92 102 112 91 101 111 91 101 111 92 102 112 92 102 112 92 102 112 92 102 112 92 102 112 93 103 113 93 103 113 93 103 113 94 104 114 94 104 114 95 105 115 95 105 115 95 105 115 96 106 116 96 106 116 96 106 116 96 106 116 97 107 117 97 107 117 97 107 117 97 107 117 97 107 117 98 108 118 98 108 118 98 108 118 99 109 119 99 109 119 100 110 120 100 110 120 100 110 120 101 111 121 101 111 121 102 112 122 102 112 122 102 112 122 102 112 122 103 113 123 103 113 123 103 113 123 103 113 123 103 113 123 102 112 122 102 112 122 102 112 122 101 111 121 101 111 121 101 111 121 101 111 121 100 110 120 100 110 120 100 110 120 100 110 120 100 110 120 100 110 120 100 110 120 100 110 120 100 110 120 100 110 120 101 111 121 101 111 121 101 111 121 101 111 121 101 111 121 101 111 121 101 111 121 100 110 120 100 110 120 100 110 120 100 110 120 99 109 119 99 109 119 99 109 119 99 109 119 98 108 118 98 108 118 98 108 118 98 108 118 98 108 118 98 108 118 99 109 119 99 109 119 99 109 119 99 109 119 99 109 119 99 109 119 99 109 119 99 109 119 99 109 119 99 109 119 98 108 118 98 108 118 98 108 118 98 108 118 97 107 117 97 107 117 97 107 117 97 107 117 96 106 116 96 106 116 96 106 116 96 106 116 96 106 116 97 107 117 97 107 117 97 107 117 98 108 118 98 108 118 98 108 118 99 109 119 99 109 119 100 110 120 100 110 120 100 110 120 101 111 121 101 111 121 102 112 122 102 112 122 102 112 122 102 112 122 102 112 122 103 113 123 103 113 123 103 113 123 103 113 123 103 113 123 222 232 242 223 233 243 223 233 243 224 234 244 225 235 245 225 235 245 226 236 246 227 237 247 227 237 247 228 238 248 228 238 248 228 238 248 228 238 248 229 239 249 228 238 248 228 238 248 228 238 248 227 237 247 227 237 247 226 236 246 225 235 245 224 234 244 224 234 244 223 233 243 222 232 242 222 232 242 103 113 123 103 113 123 103 113 123 103 113 123 103 113 123 103 113 123 103 113 123 102 112 122 102 112 122 102 112 122 102 112 122 102 112 122 102 112 122 102 112 122 101 111 121 101 111 121 101 111 121 100 110 120 100 110 120 99 109 119 99 109 119 98 108 118 98 108 118 98 108 118 97 107 117 97 107 117 97 107 117 97 107 117 97 107 117 97 107 117 97 107 117 96 106 116 96 106 116 96 106 116 96 106 116 96 106 116 96 106 116 96 106 116 95 105 115 95 105 115 95 105 115 94 104 114 94 104 114 94 104 114 93 103 113 93 103 113 92 102 112 92 102 112 92 102 112 92 102 112 91 101 111 91 101 111 92 102 112 92 102 112 92 102 112 92 102 112 92 102 112 93 103 113 93 103 113 93 103 113 94 104 114 94 104 114 95 105 115 95 105 115 95 105 115 96 106 116 96 106 116 96 106 116 96 106 116 97 107 117 97 107 117 97 107 117 100 110 120 99 109 119 99 109 119 98 108 118 98 108 118 98 108 118 98 108 118 98 108 118 98 108 118 97 107 117 97 107 117 97 107 117 97 107 117 97 107 117 96 106 116 96 106 116 96 106 116 96 106 116 96 106 116 95 105 115 95 105 115 95 105 115 95 105 115 94 104 114 94 104 114 93 103 113 93 103 113 92 102 112 92 102 112 92 102 112 92 102 112 92 102 112 92 102 112 92 102 112 92 102 112 92 102 112 92 102 112 92 102 112 93 103 113 93 103 113 93 103 113 93 103 113 94 104 114 94 104 114 95 105 115 95 105 115 96 106 116 96 106 116 96 106 116 97 107 117 97 107 117 97 107 117 97 107 117 97 107 117 98 108 118 98 108 118 98 108 118 99 109 119 100 110 120 100 110 120 101 111 121 101 111 121 101 111 121 102 112 122 102 112 122 102 112 122 102 112 122 102 112 122 103 113 123 103 113 123 103 113 123 103 113 123 103 113 123 103 113 123 103 113 123 103 113 123 102 112 122 102 112 122 101 111 121 101 111 121 101 111 121 101 111 121 101 111 121 101 111 121 101 111 121 101 111 121 101 111 121 101 111 121 100 110 120 100 110 120 100 110 120 100 110 120 100 110 120 100 110 120 100 110 120 100 110 120 100 110 120 100 110 120 100 110 120 100 110 120 100 110 120 100 110 120 99 109 119 99 109 119 99 109 119 99 109 119 99 109 119 99 109 119 99 109 119 99 109 119 99 109 119 99 109 119 99 109 119 99 109 119 99 109 119 99 109 119 98 108 118 98 108 118 98 108 118 98 108 118 98 108 118 98 108 118 98 108 118 98 108 118 98 108 118 98 108 118 97 107 117 97 107 117 96 106 116 96 106 116 96 106 116 96 106 116 96 106 116 96 106 116 96 106 116 96 106 116 97 107 117 97 107 117 97 107 117 97 107 117 98 108 118 98 108 118 98 108 118 99 109 119 99 109 119 100 110 120 100 110 120 101 111 121 101 111 121 102 112 122 102 112 122 102 112 122 102 112 122 102 112 122 102 112 122 103 113 123 103 113 123 103 113 123 222 232 242 223 233 243 224 234 244 225 235 245 226 236 246 226 236 246 226 236 246 227 237 247 227 237 247 227 237 247 227 237 247 228 238 248 228 238 248 228 238 248 228 238 248 228 238 248 228 238 248 228 238 248 227 237 247 226 236 246 225 235 245 224 234 244 223 233 243 223 233 243 222 232 242 222 232 242 222 232 242 103 113 123 103 113 123 103 113 123 103 113 123 103 113 123 102 112 122 102 112 122 102 112 122 102 112 122 102 112 122 101 111 121 101 111 121 101 111 121 101 111 121 101 111 121 101 111 121 100 110 120 100 110 120 99 109 119 99 109 119 98 108 118 98 108 118 98 108 118 98 108 118 98 108 118 98 108 118 98 108 118 97 107 117 97 107 117 97 107 117 97 107 117 96 106 116 96 106 116 96 106 116 96 106 116 96 106 116 96 106 116 95 105 115 95 105 115 95 105 115 95 105 115 94 104 114 94 104 114 93 103 113 93 103 113 92 102 112 92 102 112 92 102 112 92 102 112 92 102 112 92 102 112 92 102 112 92 102 112 92 102 112 92 102 112 92 102 112 93 103 113 93 103 113 93 103 113 93 103 113 94 104 114 94 104 114 95 105 115 95 105 115 96 106 116 96 106 116 97 107 117 97 107 117 97 107 117 97 107 117 97 107 117 100 110 120 99 109 119 99 109 119 98 108 118 98 108 118 98 108 118 98 108 118 98 108 118 98 108 118 98 108 118 98 108 118 98 108 118 97 107 117 97 107 117 96 106 116 96 106 116 96 106 116 95 105 115 95 105 115 95 105 115 95 105 115 95 105 115 95 105 115 95 105 115 94 104 114 93 103 113 93 103 113 92 102 112 92 102 112 92 102 112 92 102 112 92 102 112 92 102 112 92 102 112 92 102 112 92 102 112 93 103 113 93 103 113 92 102 112 93 103 113 93 103 113 93 103 113 93 103 113 94 104 114 94 104 114 95 105 115 96 106 116 96 106 116 97 107 117 97 107 117 97 107 117 97 107 117 97 107 117 98 108 118 98 108 118 98 108 118 99 109 119 100 110 120 100 110 120 101 111 121 101 111 121 102 112 122 102 112 122 102 112 122 102 112 122 102 112 122 102 112 122 102 112 122 103 113 123 103 113 123 103 113 123 222 232 242 222 232 242 222 232 242 103 113 123 103 113 123 102 112 122 102 112 122 102 112 122 101 111 121 101 111 121 101 111 121 101 111 121 101 111 121 101 111 121 101 111 121 101 111 121 101 111 121 101 111 121 100 110 120 100 110 120 100 110 120 100 110 120 100 110 120 100 110 120 100 110 120 100 110 120 100 110 120 100 110 120 100 110 120 100 110 120 100 110 120 99 109 119 99 109 119 99 109 119 99 109 119 99 109 119 99 109 119 99 109 119 99 109 119 99 109 119 99 109 119 99 109 119 99 109 119 99 109 119 98 108 118 98 108 118 98 108 118 98 108 118 98 108 118 98 108 118 98 108 118 98 108 118 98 108 118 98 108 118 97 107 117 97 107 117 96 106 116 96 106 116 96 106 116 95 105 115 95 105 115 95 105 115 96 106 116 96 106 116 96 106 116 97 107 117 97 107 117 97 107 117 97 107 117 97 107 117 97 107 117 97 107 117 98 108 118 98 108 118 99 109 119 100 110 120 100 110 120 101 111 121 101 111 121 102 112 122 102 112 122 102 112 122 102 112 122 102 112 122 102 112 122 103 113 123 103 113 123 223 233 243 224 234 244 225 235 245 226 236 246 226 236 246 227 237 247 227 237 247 227 237 247 227 237 247 227 237 247 227 237 247 227 237 247 228 238 248 228 238 248 228 238 248 228 238 248 228 238 248 228 238 248 227 237 247 226 236 246 225 235 245 224 234 244 223 233 243 222 232 242 222 232 242 222 232 242 222 232 242 222 232 242 103 113 123 103 113 123 103 113 123 103 113 123 102 112 122 102 112 122 101 111 121 101 111 121 101 111 121 101 111 121 101 111 121 101 111 121 101 111 121 101 111 121 101 111 121 100 110 120 100 110 120 99 109 119 99 109 119 98 108 118 98 108 118 98 108 118 98 108 118 98 108 118 98 108 118 98 108 118 98 108 118 98 108 118 97 107 117 97 107 117 97 107 117 96 106 116 96 106 116 96 106 116 95 105 115 95 105 115 95 105 115 95 105 115 95 105 115 95 105 115 94 104 114 94 104 114 93 103 113 93 103 113 92 102 112 92 102 112 92 102 112 92 102 112 92 102 112 92 102 112 92 102 112 92 102 112 92 102 112 93 103 113 93 103 113 92 102 112 93 103 113 93 103 113 93 103 113 93 103 113 94 104 114 95 105 115 95 105 115 96 106 116 96 106 116 97 107 117 97 107 117 97 107 117 97 107 117 97 107 117 100 110 120 99 109 119 99 109 119 98 108 118 98 108 118 98 108 118 98 108 118 99 109 119 99 109 119 99 109 119 98 108 118 98 108 118 97 107 117 97 107 117 96 106 116 96 106 116 96 106 116 95 105 115 95 105 115 95 105 115 95 105 115 95 105 115 95 105 115 95 105 115 94 104 114 93 103 113 93 103 113 92 102 112 92 102 112 92 102 112 92 102 112 92 102 112 92 102 112 92 102 112 93 103 113 93 103 113 93 103 113 93 103 113 92 102 112 92 102 112 92 102 112 93 103 113 93 103 113 94 104 114 94 104 114 95 105 115 96 106 116 96 106 116 97 107 117 97 107 117 97 107 117 97 107 117 98 108 118 98 108 118 98 108 118 99 109 119 100 110 120 100 110 120 101 111 121 102 112 122 102 112 122 103 113 123 103 113 123 103 113 123 103 113 123 103 113 123 103 113 123 103 113 123 103 113 123 103 113 123 222 232 242 222 232 242 222 232 242 222 232 242 222 232 242 103 113 123 103 113 123 102 112 122 102 112 122 101 111 121 101 111 121 101 111 121 101 111 121 101 111 121 102 112 122 101 111 121 101 111 121 101 111 121 101 111 121 100 110 120 100 110 120 99 109 119 99 109 119 99 109 119 99 109 119 100 110 120 100 110 120 100 110 120 100 110 120 100 110 120 100 110 120 100 110 120 99 109 119 99 109 119 99 109 119 99 109 119 99 109 119 99 109 119 99 109 119 100 110 120 100 110 120 100 110 120 99 109 119 99 109 119 99 109 119 98 108 118 98 108 118 98 108 118 97 107 117 97 107 117 98 108 118 98 108 118 98 108 118 98 108 118 97 107 117 97 107 117 97 107 117 96 106 116 96 106 116 95 105 115 95 105 115 95 105 115 95 105 115 96 106 116 96 106 116 96 106 116 96 106 116 96 106 116 96 106 116 96 106 116 96 106 116 96 106 116 96 106 116 97 107 117 97 107 117 98 108 118 99 109 119 100 110 120 100 110 120 101 111 121 101 111 121 101 111 121 102 112 122 102 112 122 102 112 122 102 112 122 103 113 123 222 232 242 223 233 243 224 234 244 225 235 245 226 236 246 227 237 247 227 237 247 227 237 247 227 237 247 227 237 247 226 236 246 226 236 246 227 237 247 227 237 247 228 238 248 228 238 248 228 238 248 228 238 248 227 237 247 227 237 247 226 236 246 225 235 245 224 234 244 223 233 243 222 232 242 222 232 242 222 232 242 222 232 242 222 232 242 222 232 242 103 113 123 103 113 123 102 112 122 102 112 122 101 111 121 101 111 121 101 111 121 100 110 120 100 110 120 100 110 120 101 111 121 101 111 121 101 111 121 101 111 121 100 110 120 100 110 120 99 109 119 99 109 119 99 109 119 98 108 118 98 108 118 98 108 118 98 108 118 99 109 119 99 109 119 99 109 119 98 108 118 98 108 118 97 107 117 97 107 117 96 106 116 96 106 116 96 106 116 95 105 115 95 105 115 95 105 115 95 105 115 95 105 115 95 105 115 94 104 114 94 104 114 93 103 113 93 103 113 92 102 112 92 102 112 92 102 112 92 102 112 92 102 112 92 102 112 92 102 112 93 103 113 93 103 113 93 103 113 93 103 113 92 102 112 92 102 112 92 102 112 93 103 113 93 103 113 94 104 114 94 104 114 95 105 115 96 106 116 96 106 116 97 107 117 97 107 117 97 107 117 98 108 118 98 108 118 100 110 120 99 109 119 99 109 119 99 109 119 99 109 119 99 109 119 99 109 119 99 109 119 99 109 119 99 109 119 99 109 119 98 108 118 98 108 118 97 107 117 97 107 117 96 106 116 96 106 116 95 105 115 95 105 115 95 105 115 95 105 115 95 105 115 95 105 115 95 105 115 94 104 114 94 104 114 93 103 113 93 103 113 92 102 112 92 102 112 92 102 112 92 102 112 92 102 112 93 103 113 93 103 113 93 103 113 93 103 113 93 103 113 92 102 112 92 102 112 92 102 112 92 102 112 93 103 113 93 103 113 94 104 114 95 105 115 96 106 116 96 106 116 97 107 117 97 107 117 97 107 117 98 108 118 98 108 118 99 109 119 99 109 119 100 110 120 100 110 120 101 111 121 102 112 122 103 113 123 103 113 123 103 113 123 103 113 123 103 113 123 103 113 123 103 113 123 103 113 123 103 113 123 103 113 123 103 113 123 222 232 242 222 232 242 223 233 243 222 232 242 222 232 242 222 232 242 103 113 123 103 113 123 102 112 122 102 112 122 102 112 122 102 112 122 102 112 122 102 112 122 102 112 122 102 112 122 101 111 121 101 111 121 101 111 121 100 110 120 100 110 120 99 109 119 99 109 119 99 109 119 99 109 119 99 109 119 100 110 120 100 110 120 100 110 120 100 110 120 100 110 120 100 110 120 99 109 119 99 109 119 99 109 119 99 109 119 99 109 119 99 109 119 100 110 120 100 110 120 100 110 120 100 110 120 100 110 120 99 109 119 99 109 119 98 108 118 98 108 118 97 107 117 97 107 117 97 107 117 97 107 117 97 107 117 97 107 117 97 107 117 97 107 117 97 107 117 96 106 116 96 106 116 95 105 115 95 105 115 95 105 115 95 105 115 95 105 115 95 105 115 96 106 116 96 106 116 96 106 116 96 106 116 96 106 116 96 106 116 96 106 116 96 106 116 96 106 116 96 106 116 97 107 117 97 107 117 98 108 118 99 109 119 100 110 120 100 110 120 101 111 121 101 111 121 101 111 121 102 112 122 102 112 122 102 112 122 103 113 123 222 232 242 223 233 243 224 234 244 226 236 246 226 236 246 227 237 247 227 237 247 227 237 247 227 237 247 226 236 246 226 236 246 226 236 246 226 236 246 227 237 247 227 237 247 227 237 247 228 238 248 227 237 247 227 237 247 226 236 246 226 236 246 225 235 245 224 234 244 223 233 243 222 232 242 222 232 242 222 232 242 222 232 242 222 232 242 222 232 242 103 113 123 103 113 123 102 112 122 102 112 122 101 111 121 101 111 121 100 110 120 100 110 120 100 110 120 100 110 120 100 110 120 100 110 120 100 110 120 100 110 120 100 110 120 100 110 120 99 109 119 99 109 119 99 109 119 99 109 119 99 109 119 99 109 119 99 109 119 99 109 119 99 109 119 99 109 119 99 109 119 98 108 118 98 108 118 97 107 117 96 106 116 96 106 116 96 106 116 95 105 115 95 105 115 95 105 115 95 105 115 95 105 115 95 105 115 94 104 114 94 104 114 93 103 113 93 103 113 92 102 112 92 102 112 92 102 112 92 102 112 92 102 112 92 102 112 93 103 113 93 103 113 93 103 113 93 103 113 93 103 113 92 102 112 92 102 112 92 102 112 93 103 113 93 103 113 94 104 114 94 104 114 95 105 115 96 106 116 96 106 116 97 107 117 97 107 117 98 108 118 98 108 118 98 108 118 100 110 120 99 109 119 99 109 119 99 109 119 99 109 119 99 109 119 99 109 119 99 109 119 99 109 119 99 109 119 99 109 119 99 109 119 98 108 118 97 107 117 97 107 117 96 106 116 96 106 116 95 105 115 95 105 115 95 105 115 95 105 115 95 105 115 95 105 115 94 104 114 94 104 114 94 104 114 93 103 113 93 103 113 93 103 113 92 102 112 92 102 112 93 103 113 93 103 113 93 103 113 93 103 113 93 103 113 93 103 113 93 103 113 92 102 112 92 102 112 92 102 112 92 102 112 93 103 113 93 103 113 94 104 114 95 105 115 95 105 115 96 106 116 97 107 117 97 107 117 98 108 118 98 108 118 99 109 119 99 109 119 100 110 120 100 110 120 101 111 121 102 112 122 103 113 123 103 113 123 103 113 123 222 232 242 222 232 242 222 232 242 222 232 242 103 113 123 103 113 123 103 113 123 222 232 242 222 232 242 222 232 242 222 232 242 223 233 243 223 233 243 222 232 242 222 232 242 103 113 123 103 113 123 103 113 123 102 112 122 102 112 122 102 112 122 102 112 122 102 112 122 102 112 122 102 112 122 102 112 122 101 111 121 101 111 121 100 110 120 100 110 120 99 109 119 99 109 119 99 109 119 99 109 119 99 109 119 99 109 119 99 109 119 100 110 120 100 110 120 100 110 120 100 110 120 99 109 119 99 109 119 99 109 119 99 109 119 100 110 120 100 110 120 100 110 120 100 110 120 100 110 120 100 110 120 100 110 120 99 109 119 99 109 119 98 108 118 98 108 118 97 107 117 97 107 117 97 107 117 97 107 117 97 107 117 97 107 117 97 107 117 96 106 116 96 106 116 96 106 116 96 106 116 95 105 115 95 105 115 95 105 115 95 105 115 95 105 115 95 105 115 95 105 115 96 106 116 96 106 116 96 106 116 95 105 115 95 105 115 95 105 115 95 105 115 95 105 115 96 106 116 96 106 116 97 107 117 97 107 117 98 108 118 99 109 119 99 109 119 100 110 120 101 111 121 101 111 121 101 111 121 102 112 122 103 113 123 103 113 123 222 232 242 223 233 243 225 235 245 226 236 246 226 236 246 227 237 247 227 237 247 227 237 247 227 237 247 226 236 246 226 236 246 226 236 246 226 236 246 226 236 246 227 237 247 227 237 247 227 237 247 227 237 247 226 236 246 226 236 246 225 235 245 225 235 245 224 234 244 223 233 243 223 233 243 222 232 242 222 232 242 222 232 242 222 232 242 103 113 123 103 113 123 103 113 123 102 112 122 101 111 121 101 111 121 100 110 120 100 110 120 100 110 120 100 110 120 100 110 120 100 110 120 100 110 120 100 110 120 100 110 120 100 110 120 100 110 120 99 109 119 99 109 119 99 109 119 99 109 119 99 109 119 99 109 119 99 109 119 99 109 119 99 109 119 99 109 119 99 109 119 98 108 118 98 108 118 97 107 117 97 107 117 96 106 116 96 106 116 95 105 115 95 105 115 95 105 115 95 105 115 95 105 115 95 105 115 94 104 114 94 104 114 93 103 113 93 103 113 93 103 113 93 103 113 92 102 112 92 102 112 93 103 113 93 103 113 93 103 113 93 103 113 93 103 113 93 103 113 93 103 113 92 102 112 92 102 112 92 102 112 93 103 113 93 103 113 93 103 113 94 104 114 95 105 115 96 106 116 96 106 116 97 107 117 97 107 117 98 108 118 98 108 118 99 109 119 100 110 120 99 109 119 100 110 120 100 110 120 100 110 120 100 110 120 100 110 120 100 110 120 100 110 120 99 109 119 99 109 119 99 109 119 98 108 118 98 108 118 97 107 117 96 106 116 96 106 116 96 106 116 95 105 115 95 105 115 95 105 115 95 105 115 94 104 114 94 104 114 94 104 114 94 104 114 93 103 113 93 103 113 93 103 113 93 103 113 93 103 113 93 103 113 93 103 113 93 103 113 93 103 113 93 103 113 93 103 113 93 103 113 93 103 113 92 102 112 92 102 112 93 103 113 93 103 113 93 103 113 94 104 114 94 104 114 95 105 115 96 106 116 96 106 116 97 107 117 98 108 118 98 108 118 99 109 119 100 110 120 100 110 120 101 111 121 102 112 122 103 113 123 103 113 123 222 232 242 222 232 242 223 233 243 223 233 243 223 233 243 223 233 243 222 232 242 222 232 242 222 232 242 222 232 242 222 232 242 222 232 242 222 232 242 222 232 242 222 232 242 222 232 242 222 232 242 222 232 242 103 113 123 103 113 123 103 113 123 103 113 123 103 113 123 103 113 123 102 112 122 102 112 122 102 112 122 102 112 122 101 111 121 101 111 121 100 110 120 100 110 120 99 109 119 99 109 119 99 109 119 99 109 119 99 109 119 99 109 119 99 109 119 99 109 119 99 109 119 99 109 119 99 109 119 100 110 120 100 110 120 100 110 120 100 110 120 100 110 120 100 110 120 100 110 120 100 110 120 100 110 120 100 110 120 100 110 120 99 109 119 99 109 119 98 108 118 98 108 118 97 107 117 97 107 117 97 107 117 97 107 117 96 106 116 96 106 116 96 106 116 96 106 116 96 106 116 96 106 116 95 105 115 95 105 115 95 105 115 95 105 115 95 105 115 95 105 115 95 105 115 95 105 115 95 105 115 95 105 115 95 105 115 95 105 115 95 105 115 95 105 115 95 105 115 95 105 115 95 105 115 96 106 116 96 106 116 97 107 117 97 107 117 98 108 118 99 109 119 99 109 119 100 110 120 101 111 121 101 111 121 102 112 122 103 113 123 103 113 123 223 233 243 224 234 244 225 235 245 226 236 246 226 236 246 227 237 247 227 237 247 227 237 247 227 237 247 226 236 246 226 236 246 226 236 246 226 236 246 226 236 246 226 236 246 226 236 246 226 236 246 226 236 246 226 236 246 225 235 245 225 235 245 225 235 245 224 234 244 224 234 244 223 233 243 223 233 243 223 233 243 222 232 242 222 232 242 103 113 123 103 113 123 102 112 122 102 112 122 101 111 121 101 111 121 100 110 120 100 110 120 100 110 120 99 109 119 99 109 119 99 109 119 99 109 119 99 109 119 99 109 119 100 110 120 100 110 120 99 109 119 99 109 119 100 110 120 100 110 120 100 110 120 100 110 120 100 110 120 100 110 120 100 110 120 99 109 119 99 109 119 98 108 118 98 108 118 97 107 117 97 107 117 96 106 116 96 106 116 96 106 116 95 105 115 95 105 115 95 105 115 95 105 115 94 104 114 94 104 114 94 104 114 94 104 114 93 103 113 93 103 113 93 103 113 93 103 113 93 103 113 93 103 113 93 103 113 93 103 113 93 103 113 93 103 113 93 103 113 93 103 113 92 102 112 92 102 112 93 103 113 93 103 113 93 103 113 93 103 113 94 104 114 95 105 115 95 105 115 96 106 116 97 107 117 97 107 117 98 108 118 99 109 119 99 109 119 100 110 120 100 110 120 100 110 120 100 110 120 100 110 120 100 110 120 100 110 120 100 110 120 100 110 120 99 109 119 99 109 119 99 109 119 98 108 118 98 108 118 97 107 117 97 107 117 96 106 116 96 106 116 95 105 115 95 105 115 95 105 115 94 104 114 94 104 114 94 104 114 94 104 114 94 104 114 94 104 114 94 104 114 94 104 114 94 104 114 93 103 113 93 103 113 93 103 113 93 103 113 93 103 113 93 103 113 93 103 113 93 103 113 93 103 113 93 103 113 93 103 113 93 103 113 93 103 113 93 103 113 94 104 114 94 104 114 95 105 115 96 106 116 96 106 116 97 107 117 98 108 118 99 109 119 100 110 120 100 110 120 101 111 121 102 112 122 103 113 123 103 113 123 222 232 242 222 232 242 223 233 243 223 233 243 223 233 243 223 233 243 223 233 243 223 233 243 223 233 243 223 233 243 223 233 243 223 233 243 223 233 243 222 232 242 222 232 242 222 232 242 222 232 242 222 232 242 222 232 242 222 232 242 222 232 242 222 232 242 103 113 123 103 113 123 103 113 123 103 113 123 102 112 122 102 112 122 101 111 121 101 111 121 101 111 121 100 110 120 100 110 120 99 109 119 99 109 119 99 109 119 99 109 119 99 109 119 99 109 119 99 109 119 99 109 119 99 109 119 99 109 119 99 109 119 100 110 120 100 110 120 100 110 120 100 110 120 100 110 120 100 110 120 100 110 120 100 110 120 100 110 120 100 110 120 99 109 119 99 109 119 99 109 119 98 108 118 98 108 118 97 107 117 97 107 117 97 107 117 96 106 116 96 106 116 96 106 116 95 105 115 95 105 115 95 105 115 95 105 115 95 105 115 95 105 115 95 105 115 95 105 115 95 105 115 95 105 115 95 105 115 95 105 115 95 105 115 95 105 115 95 105 115 94 104 114 94 104 114 94 104 114 95 105 115 95 105 115 95 105 115 95 105 115 96 106 116 96 106 116 97 107 117 97 107 117 98 108 118 99 109 119 100 110 120 100 110 120 101 111 121 102 112 122 103 113 123 222 232 242 223 233 243 224 234 244 225 235 245 225 235 245 226 236 246 226 236 246 226 236 246 227 237 247 227 237 247 226 236 246 226 236 246 226 236 246 226 236 246 226 236 246 225 235 245 225 235 245 225 235 245 225 235 245 225 235 245 225 235 245 225 235 245 224 234 244 224 234 244 224 234 244 224 234 244 223 233 243 223 233 243 222 232 242 103 113 123 103 113 123 103 113 123 102 112 122 102 112 122 101 111 121 101 111 121 100 110 120 100 110 120 99 109 119 99 109 119 99 109 119 99 109 119 99 109 119 99 109 119 99 109 119 99 109 119 99 109 119 100 110 120 100 110 120 100 110 120 100 110 120 100 110 120 100 110 120 100 110 120 100 110 120 100 110 120 99 109 119 99 109 119 99 109 119 98 108 118 98 108 118 97 107 117 97 107 117 96 106 116 96 106 116 95 105 115 95 105 115 95 105 115 94 104 114 94 104 114 94 104 114 94 104 114 94 104 114 94 104 114 94 104 114 94 104 114 93 103 113 93 103 113 93 103 113 93 103 113 93 103 113 93 103 113 93 103 113 93 103 113 93 103 113 93 103 113 93 103 113 93 103 113 93 103 113 93 103 113 94 104 114 94 104 114 94 104 114 95 105 115 96 106 116 97 107 117 97 107 117 98 108 118 99 109 119 100 110 120 100 110 120 100 110 120 100 110 120 100 110 120 101 111 121 100 110 120 100 110 120 100 110 120 100 110 120 99 109 119 99 109 119 99 109 119 98 108 118 98 108 118 98 108 118 97 107 117 97 107 117 96 106 116 96 106 116 95 105 115 95 105 115 94 104 114 94 104 114 94 104 114 94 104 114 94 104 114 94 104 114 94 104 114 94 104 114 94 104 114 94 104 114 94 104 114 93 103 113 93 103 113 93 103 113 93 103 113 93 103 113 93 103 113 93 103 113 93 103 113 93 103 113 93 103 113 93 103 113 94 104 114 94 104 114 94 104 114 95 105 115 95 105 115 96 106 116 97 107 117 98 108 118 99 109 119 100 110 120 101 111 121 102 112 122 103 113 123 103 113 123 222 232 242 222 232 242 223 233 243 223 233 243 223 233 243 224 234 244 224 234 244 224 234 244 224 234 244 224 234 244 224 234 244 224 234 244 223 233 243 223 233 243 222 232 242 222 232 242 222 232 242 222 232 242 222 232 242 223 233 243 223 233 243 223 233 243 223 233 243 222 232 242 222 232 242 103 113 123 103 113 123 102 112 122 102 112 122 101 111 121 101 111 121 101 111 121 100 110 120 100 110 120 100 110 120 99 109 119 99 109 119 99 109 119 98 108 118 98 108 118 98 108 118 98 108 118 99 109 119 99 109 119 99 109 119 100 110 120 100 110 120 100 110 120 101 111 121 101 111 121 101 111 121 100 110 120 100 110 120 100 110 120 100 110 120 99 109 119 99 109 119 99 109 119 98 108 118 98 108 118 97 107 117 97 107 117 96 106 116 96 106 116 96 106 116 95 105 115 95 105 115 95 105 115 95 105 115 95 105 115 95 105 115 95 105 115 95 105 115 95 105 115 95 105 115 95 105 115 95 105 115 94 104 114 94 104 114 94 104 114 94 104 114 94 104 114 94 104 114 94 104 114 94 104 114 94 104 114 95 105 115 95 105 115 95 105 115 95 105 115 96 106 116 97 107 117 97 107 117 98 108 118 99 109 119 100 110 120 101 111 121 102 112 122 103 113 123 222 232 242 223 233 243 224 234 244 225 235 245 225 235 245 225 235 245 226 236 246 226 236 246 226 236 246 226 236 246 226 236 246 226 236 246 226 236 246 226 236 246 225 235 245 225 235 245 225 235 245 224 234 244 224 234 244 224 234 244 224 234 244 224 234 244 224 234 244 224 234 244 224 234 244 224 234 244 224 234 244 223 233 243 222 232 242 103 113 123 103 113 123 102 112 122 102 112 122 101 111 121 101 111 121 101 111 121 100 110 120 100 110 120 99 109 119 99 109 119 99 109 119 99 109 119 98 108 118 98 108 118 99 109 119 99 109 119 99 109 119 100 110 120 100 110 120 100 110 120 100 110 120 101 111 121 100 110 120 100 110 120 100 110 120 100 110 120 99 109 119 99 109 119 99 109 119 98 108 118 98 108 118 97 107 117 97 107 117 96 106 116 96 106 116 95 105 115 95 105 115 94 104 114 94 104 114 94 104 114 94 104 114 94 104 114 94 104 114 94 104 114 94 104 114 94 104 114 94 104 114 94 104 114 94 104 114 93 103 113 93 103 113 93 103 113 93 103 113 93 103 113 93 103 113 93 103 113 93 103 113 93 103 113 93 103 113 93 103 113 94 104 114 94 104 114 94 104 114 95 105 115 96 106 116 96 106 116 97 107 117 98 108 118 99 109 119 100 110 120 100 110 120 100 110 120 100 110 120 101 111 121 101 111 121 101 111 121 101 111 121 100 110 120 100 110 120 99 109 119 99 109 119 99 109 119 98 108 118 98 108 118 98 108 118 97 107 117 97 107 117 96 106 116 96 106 116 95 105 115 95 105 115 94 104 114 94 104 114 94 104 114 94 104 114 94 104 114 94 104 114 94 104 114 95 105 115 94 104 114 94 104 114 94 104 114 94 104 114 93 103 113 93 103 113 93 103 113 93 103 113 93 103 113 93 103 113 93 103 113 93 103 113 93 103 113 94 104 114 94 104 114 94 104 114 94 104 114 95 105 115 95 105 115 96 106 116 97 107 117 98 108 118 99 109 119 101 111 121 102 112 122 103 113 123 103 113 123 222 232 242 222 232 242 223 233 243 223 233 243 223 233 243 224 234 244 224 234 244 225 235 245 225 235 245 225 235 245 225 235 245 225 235 245 224 234 244 224 234 244 223 233 243 222 232 242 222 232 242 222 232 242 222 232 242 223 233 243 223 233 243 223 233 243 224 234 244 224 234 244 223 233 243 223 233 243 222 232 242 103 113 123 102 112 122 102 112 122 101 111 121 101 111 121 101 111 121 100 110 120 100 110 120 100 110 120 99 109 119 99 109 119 99 109 119 98 108 118 98 108 118 98 108 118 98 108 118 98 108 118 99 109 119 99 109 119 100 110 120 100 110 120 101 111 121 101 111 121 101 111 121 101 111 121 101 111 121 100 110 120 100 110 120 99 109 119 99 109 119 99 109 119 99 109 119 98 108 118 98 108 118 98 108 118 97 107 117 96 106 116 96 106 116 95 105 115 95 105 115 94 104 114 94 104 114 94 104 114 94 104 114 95 105 115 95 105 115 95 105 115 95 105 115 95 105 115 95 105 115 95 105 115 94 104 114 94 104 114 94 104 114 94 104 114 94 104 114 94 104 114 94 104 114 94 104 114 94 104 114 94 104 114 95 105 115 95 105 115 95 105 115 95 105 115 96 106 116 97 107 117 98 108 118 99 109 119 100 110 120 101 111 121 102 112 122 103 113 123 222 232 242 223 233 243 224 234 244 224 234 244 225 235 245 225 235 245 225 235 245 225 235 245 226 236 246 226 236 246 226 236 246 226 236 246 226 236 246 226 236 246 225 235 245 224 234 244 224 234 244 223 233 243 223 233 243 223 233 243 224 234 244 224 234 244 224 234 244 225 235 245 225 235 245 224 234 244 224 234 244 223 233 243 222 232 242 103 113 123 102 112 122 102 112 122 101 111 121 101 111 121 101 111 121 100 110 120 100 110 120 100 110 120 99 109 119 99 109 119 99 109 119 98 108 118 98 108 118 98 108 118 98 108 118 99 109 119 99 109 119 100 110 120 100 110 120 101 111 121 101 111 121 101 111 121 101 111 121 100 110 120 100 110 120 100 110 120 99 109 119 99 109 119 99 109 119 98 108 118 98 108 118 98 108 118 97 107 117 97 107 117 96 106 116 96 106 116 95 105 115 94 104 114 94 104 114 94 104 114 94 104 114 94 104 114 94 104 114 94 104 114 94 104 114 95 105 115 94 104 114 94 104 114 94 104 114 94 104 114 93 103 113 93 103 113 93 103 113 93 103 113 93 103 113 93 103 113 93 103 113 93 103 113 94 104 114 94 104 114 94 104 114 94 104 114 94 104 114 95 105 115 96 106 116 96 106 116 97 107 117 99 109 119 100 110 120 101 111 121 100 110 120 100 110 120 101 111 121 101 111 121 101 111 121 101 111 121 101 111 121 100 110 120 100 110 120 99 109 119 99 109 119 99 109 119 99 109 119 98 108 118 98 108 118 98 108 118 97 107 117 97 107 117 96 106 116 95 105 115 95 105 115 94 104 114 94 104 114 94 104 114 94 104 114 94 104 114 94 104 114 95 105 115 95 105 115 95 105 115 95 105 115 94 104 114 94 104 114 94 104 114 93 103 113 93 103 113 93 103 113 93 103 113 93 103 113 93 103 113 94 104 114 94 104 114 94 104 114 94 104 114 94 104 114 94 104 114 95 105 115 95 105 115 96 106 116 97 107 117 99 109 119 100 110 120 101 111 121 102 112 122 103 113 123 222 232 242 223 233 243 223 233 243 223 233 243 224 234 244 224 234 244 224 234 244 225 235 245 225 235 245 225 235 245 226 236 246 226 236 246 225 235 245 225 235 245 224 234 244 223 233 243 223 233 243 222 232 242 222 232 242 222 232 242 223 233 243 223 233 243 224 234 244 224 234 244 224 234 244 224 234 244 223 233 243 222 232 242 103 113 123 103 113 123 102 112 122 101 111 121 101 111 121 101 111 121 100 110 120 100 110 120 100 110 120 100 110 120 99 109 119 99 109 119 98 108 118 98 108 118 98 108 118 98 108 118 98 108 118 99 109 119 99 109 119 100 110 120 100 110 120 101 111 121 101 111 121 101 111 121 101 111 121 101 111 121 100 110 120 100 110 120 99 109 119 99 109 119 99 109 119 98 108 118 98 108 118 98 108 118 97 107 117 97 107 117 96 106 116 96 106 116 95 105 115 94 104 114 94 104 114 94 104 114 94 104 114 94 104 114 95 105 115 95 105 115 95 105 115 95 105 115 95 105 115 95 105 115 94 104 114 94 104 114 94 104 114 93 103 113 93 103 113 93 103 113 93 103 113 94 104 114 94 104 114 94 104 114 94 104 114 94 104 114 94 104 114 95 105 115 95 105 115 95 105 115 96 106 116 97 107 117 98 108 118 100 110 120 101 111 121 102 112 122 103 113 123 222 232 242 223 233 243 224 234 244 224 234 244 224 234 244 224 234 244 225 235 245 225 235 245 225 235 245 226 236 246 226 236 246 226 236 246 226 236 246 225 235 245 225 235 245 224 234 244 223 233 243 223 233 243 223 233 243 223 233 243 223 233 243 224 234 244 224 234 244 224 234 244 225 235 245 224 234 244 224 234 244 223 233 243 222 232 242 103 113 123 102 112 122 102 112 122 101 111 121 101 111 121 101 111 121 100 110 120 100 110 120 100 110 120 99 109 119 99 109 119 99 109 119 98 108 118 98 108 118 98 108 118 98 108 118 99 109 119 99 109 119 100 110 120 100 110 120 101 111 121 101 111 121 101 111 121 101 111 121 101 111 121 100 110 120 100 110 120 99 109 119 99 109 119 99 109 119 98 108 118 98 108 118 98 108 118 98 108 118 97 107 117 96 106 116 96 106 116 95 105 115 94 104 114 94 104 114 94 104 114 94 104 114 94 104 114 94 104 114 95 105 115 95 105 115 95 105 115 95 105 115 95 105 115 94 104 114 94 104 114 93 103 113 93 103 113 93 103 113 93 103 113 93 103 113 93 103 113 93 103 113 94 104 114 94 104 114 94 104 114 94 104 114 94 104 114 95 105 115 95 105 115 96 106 116 97 107 117 98 108 118 99 109 119 100 110 120 101 111 121 100 110 120 100 110 120 101 111 121 101 111 121 101 111 121 101 111 121 101 111 121 100 110 120 100 110 120 100 110 120 99 109 119 99 109 119 99 109 119 98 108 118 98 108 118 98 108 118 97 107 117 97 107 117 96 106 116 95 105 115 95 105 115 94 104 114 94 104 114 94 104 114 94 104 114 94 104 114 95 105 115 95 105 115 95 105 115 95 105 115 95 105 115 95 105 115 94 104 114 94 104 114 93 103 113 93 103 113 93 103 113 93 103 113 93 103 113 94 104 114 94 104 114 94 104 114 94 104 114 94 104 114 94 104 114 95 105 115 95 105 115 96 106 116 97 107 117 98 108 118 99 109 119 100 110 120 101 111 121 102 112 122 103 113 123 222 232 242 223 233 243 224 234 244 224 234 244 224 234 244 224 234 244 225 235 245 225 235 245 225 235 245 226 236 246 226 236 246 226 236 246 226 236 246 225 235 245 224 234 244 224 234 244 223 233 243 223 233 243 223 233 243 223 233 243 223 233 243 224 234 244 224 234 244 224 234 244 225 235 245 224 234 244 223 233 243 222 232 242 103 113 123 103 113 123 102 112 122 102 112 122 101 111 121 101 111 121 101 111 121 100 110 120 100 110 120 100 110 120 99 109 119 99 109 119 98 108 118 98 108 118 98 108 118 98 108 118 98 108 118 99 109 119 99 109 119 100 110 120 100 110 120 101 111 121 101 111 121 101 111 121 101 111 121 100 110 120 100 110 120 100 110 120 99 109 119 99 109 119 99 109 119 98 108 118 98 108 118 98 108 118 97 107 117 97 107 117 96 106 116 95 105 115 95 105 115 94 104 114 94 104 114 94 104 114 94 104 114 94 104 114 94 104 114 95 105 115 95 105 115 95 105 115 95 105 115 94 104 114 94 104 114 94 104 114 93 103 113 93 103 113 93 103 113 93 103 113 93 103 113 93 103 113 94 104 114 94 104 114 94 104 114 94 104 114 94 104 114 94 104 114 95 105 115 95 105 115 96 106 116 97 107 117 98 108 118 99 109 119 101 111 121 102 112 122 103 113 123 222 232 242 222 232 242 223 233 243 223 233 243 224 234 244 224 234 244 224 234 244 224 234 244 225 235 245 225 235 245 226 236 246 226 236 246 225 235 245 225 235 245 224 234 244 224 234 244 223 233 243 222 232 242 222 232 242 222 232 242 223 233 243 223 233 243 224 234 244 224 234 244 224 234 244 224 234 244 223 233 243 223 233 243 103 113 123 103 113 123 102 112 122 102 112 122 101 111 121 101 111 121 101 111 121 100 110 120 100 110 120 100 110 120 99 109 119 99 109 119 98 108 118 98 108 118 98 108 118 98 108 118 98 108 118 99 109 119 99 109 119 100 110 120 100 110 120 101 111 121 101 111 121 101 111 121 101 111 121 101 111 121 100 110 120 100 110 120 99 109 119 99 109 119 99 109 119 99 109 119 98 108 118 98 108 118 98 108 118 97 107 117 96 106 116 96 106 116 95 105 115 95 105 115 94 104 114 94 104 114 94 104 114 94 104 114 94 104 114 95 105 115 95 105 115 95 105 115 95 105 115 95 105 115 94 104 114 94 104 114 94 104 114 93 103 113 93 103 113 93 103 113 93 103 113 93 103 113 94 104 114 94 104 114 94 104 114 94 104 114 94 104 114 95 105 115 95 105 115 95 105 115 96 106 116 97 107 117 98 108 118 99 109 119 100 110 120 102 112 122 100 110 120 100 110 120 101 111 121 101 111 121 101 111 121 101 111 121 101 111 121 100 110 120 100 110 120 100 110 120 99 109 119 99 109 119 99 109 119 98 108 118 98 108 118 98 108 118 97 107 117 97 107 117 96 106 116 96 106 116 95 105 115 95 105 115 94 104 114 94 104 114 94 104 114 95 105 115 95 105 115 95 105 115 95 105 115 95 105 115 95 105 115 95 105 115 94 104 114 94 104 114 94 104 114 94 104 114 93 103 113 94 104 114 94 104 114 94 104 114 94 104 114 94 104 114 94 104 114 95 105 115 95 105 115 95 105 115 96 106 116 96 106 116 97 107 117 98 108 118 99 109 119 100 110 120 101 111 121 103 113 123 103 113 123 223 233 243 223 233 243 224 234 244 224 234 244 225 235 245 225 235 245 225 235 245 226 236 246 226 236 246 226 236 246 226 236 246 226 236 246 226 236 246 225 235 245 225 235 245 224 234 244 224 234 244 223 233 243 223 233 243 223 233 243 224 234 244 224 234 244 224 234 244 225 235 245 225 235 245 224 234 244 223 233 243 223 233 243 103 113 123 103 113 123 102 112 122 102 112 122 101 111 121 101 111 121 101 111 121 100 110 120 100 110 120 100 110 120 99 109 119 99 109 119 99 109 119 98 108 118 98 108 118 98 108 118 98 108 118 99 109 119 99 109 119 100 110 120 100 110 120 101 111 121 101 111 121 101 111 121 101 111 121 100 110 120 100 110 120 100 110 120 99 109 119 99 109 119 99 109 119 98 108 118 98 108 118 98 108 118 97 107 117 97 107 117 96 106 116 95 105 115 95 105 115 94 104 114 94 104 114 94 104 114 94 104 114 94 104 114 94 104 114 94 104 114 95 105 115 95 105 115 94 104 114 94 104 114 94 104 114 93 103 113 93 103 113 93 103 113 93 103 113 93 103 113 93 103 113 93 103 113 93 103 113 93 103 113 94 104 114 94 104 114 94 104 114 94 104 114 95 105 115 95 105 115 96 106 116 97 107 117 98 108 118 99 109 119 100 110 120 101 111 121 102 112 122 103 113 123 222 232 242 222 232 242 223 233 243 223 233 243 223 233 243 224 234 244 224 234 244 224 234 244 225 235 245 225 235 245 225 235 245 225 235 245 224 234 244 224 234 244 223 233 243 223 233 243 222 232 242 222 232 242 222 232 242 222 232 242 223 233 243 223 233 243 224 234 244 224 234 244 223 233 243 223 233 243 222 232 242 103 113 123 103 113 123 102 112 122 102 112 122 101 111 121 101 111 121 100 110 120 100 110 120 100 110 120 100 110 120 99 109 119 99 109 119 98 108 118 98 108 118 98 108 118 98 108 118 98 108 118 99 109 119 99 109 119 100 110 120 100 110 120 101 111 121 101 111 121 101 111 121 101 111 121 101 111 121 100 110 120 100 110 120 100 110 120 99 109 119 99 109 119 99 109 119 98 108 118 98 108 118 98 108 118 97 107 117 97 107 117 96 106 116 95 105 115 95 105 115 94 104 114 94 104 114 94 104 114 94 104 114 95 105 115 95 105 115 95 105 115 95 105 115 95 105 115 95 105 115 95 105 115 94 104 114 94 104 114 94 104 114 94 104 114 93 103 113 94 104 114 94 104 114 94 104 114 94 104 114 94 104 114 95 105 115 95 105 115 95 105 115 95 105 115 96 106 116 96 106 116 97 107 117 98 108 118 99 109 119 101 111 121 102 112 122 100 110 120 100 110 120 100 110 120 101 111 121 101 111 121 101 111 121 101 111 121 100 110 120 100 110 120 100 110 120 99 109 119 99 109 119 99 109 119 99 109 119 98 108 118 98 108 118 97 107 117 97 107 117 96 106 116 96 106 116 95 105 115 95 105 115 95 105 115 95 105 115 95 105 115 95 105 115 95 105 115 95 105 115 95 105 115 95 105 115 95 105 115 95 105 115 95 105 115 94 104 114 94 104 114 94 104 114 94 104 114 94 104 114 94 104 114 94 104 114 94 104 114 95 105 115 95 105 115 95 105 115 95 105 115 96 106 116 96 106 116 97 107 117 98 108 118 98 108 118 99 109 119 101 111 121 102 112 122 103 113 123 103 113 123 222 232 242 223 233 243 224 234 244 225 235 245 225 235 245 225 235 245 226 236 246 226 236 246 226 236 246 226 236 246 226 236 246 226 236 246 226 236 246 226 236 246 225 235 245 225 235 245 224 234 244 224 234 244 224 234 244 224 234 244 224 234 244 224 234 244 224 234 244 224 234 244 224 234 244 224 234 244 223 233 243 223 233 243 222 232 242 103 113 123 103 113 123 102 112 122 102 112 122 101 111 121 101 111 121 100 110 120 100 110 120 100 110 120 99 109 119 99 109 119 99 109 119 99 109 119 98 108 118 98 108 118 99 109 119 99 109 119 99 109 119 100 110 120 100 110 120 100 110 120 101 111 121 101 111 121 100 110 120 100 110 120 100 110 120 100 110 120 99 109 119 99 109 119 98 108 118 98 108 118 98 108 118 97 107 117 97 107 117 96 106 116 96 106 116 95 105 115 95 105 115 94 104 114 94 104 114 94 104 114 94 104 114 94 104 114 94 104 114 94 104 114 94 104 114 94 104 114 94 104 114 94 104 114 94 104 114 93 103 113 93 103 113 93 103 113 93 103 113 93 103 113 93 103 113 93 103 113 93 103 113 93 103 113 93 103 113 94 104 114 94 104 114 94 104 114 95 105 115 95 105 115 96 106 116 97 107 117 98 108 118 99 109 119 100 110 120 101 111 121 102 112 122 102 112 122 103 113 123 222 232 242 222 232 242 223 233 243 223 233 243 223 233 243 224 234 244 224 234 244 224 234 244 224 234 244 224 234 244 224 234 244 224 234 244 223 233 243 223 233 243 223 233 243 222 232 242 222 232 242 222 232 242 222 232 242 223 233 243 223 233 243 223 233 243 223 233 243 223 233 243 222 232 242 222 232 242 103 113 123 103 113 123 102 112 122 102 112 122 101 111 121 101 111 121 100 110 120 100 110 120 100 110 120 99 109 119 99 109 119 99 109 119 99 109 119 98 108 118 98 108 118 98 108 118 98 108 118 99 109 119 99 109 119 100 110 120 100 110 120 100 110 120 101 111 121 101 111 121 101 111 121 101 111 121 100 110 120 100 110 120 100 110 120 99 109 119 99 109 119 99 109 119 98 108 118 98 108 118 98 108 118 97 107 117 97 107 117 96 106 116 96 106 116 95 105 115 95 105 115 95 105 115 95 105 115 95 105 115 95 105 115 95 105 115 95 105 115 95 105 115 95 105 115 95 105 115 95 105 115 95 105 115 94 104 114 94 104 114 94 104 114 94 104 114 94 104 114 94 104 114 94 104 114 94 104 114 95 105 115 95 105 115 95 105 115 95 105 115 96 106 116 96 106 116 97 107 117 98 108 118 99 109 119 100 110 120 101 111 121 102 112 122 100 110 120 100 110 120 100 110 120 100 110 120 100 110 120 100 110 120 100 110 120 100 110 120 100 110 120 100 110 120 100 110 120 99 109 119 99 109 119 99 109 119 98 108 118 98 108 118 97 107 117 97 107 117 96 106 116 96 106 116 96 106 116 96 106 116 95 105 115 95 105 115 95 105 115 95 105 115 95 105 115 95 105 115 95 105 115 95 105 115 95 105 115 95 105 115 95 105 115 95 105 115 95 105 115 95 105 115 94 104 114 94 104 114 94 104 114 94 104 114 95 105 115 95 105 115 95 105 115 95 105 115 96 106 116 96 106 116 97 107 117 97 107 117 98 108 118 99 109 119 100 110 120 101 111 121 102 112 122 102 112 122 103 113 123 222 232 242 223 233 243 224 234 244 225 235 245 226 236 246 226 236 246 226 236 246 226 236 246 227 237 247 227 237 247 226 236 246 226 236 246 226 236 246 226 236 246 226 236 246 225 235 245 225 235 245 225 235 245 225 235 245 225 235 245 225 235 245 225 235 245 224 234 244 224 234 244 224 234 244 224 234 244 223 233 243 223 233 243 222 232 242 103 113 123 103 113 123 102 112 122 102 112 122 101 111 121 101 111 121 100 110 120 100 110 120 100 110 120 99 109 119 99 109 119 99 109 119 99 109 119 99 109 119 99 109 119 99 109 119 99 109 119 99 109 119 100 110 120 100 110 120 100 110 120 100 110 120 100 110 120 100 110 120 100 110 120 100 110 120 100 110 120 99 109 119 99 109 119 98 108 118 98 108 118 97 107 117 97 107 117 97 107 117 96 106 116 96 106 116 95 105 115 95 105 115 94 104 114 94 104 114 94 104 114 94 104 114 94 104 114 94 104 114 94 104 114 94 104 114 94 104 114 93 103 113 93 103 113 93 103 113 93 103 113 93 103 113 93 103 113 93 103 113 93 103 113 93 103 113 93 103 113 93 103 113 93 103 113 93 103 113 93 103 113 94 104 114 94 104 114 95 105 115 95 105 115 96 106 116 97 107 117 98 108 118 99 109 119 99 109 119 100 110 120 101 111 121 102 112 122 102 112 122 103 113 123 103 113 123 222 232 242 223 233 243 223 233 243 223 233 243 223 233 243 223 233 243 223 233 243 223 233 243 223 233 243 223 233 243 223 233 243 223 233 243 222 232 242 222 232 242 222 232 242 222 232 242 222 232 242 222 232 242 222 232 242 222 232 242 222 232 242 222 232 242 103 113 123 103 113 123 103 113 123 102 112 122 102 112 122 102 112 122 101 111 121 101 111 121 100 110 120 100 110 120 100 110 120 99 109 119 99 109 119 99 109 119 99 109 119 99 109 119 99 109 119 99 109 119 99 109 119 99 109 119 99 109 119 100 110 120 100 110 120 100 110 120 100 110 120 100 110 120 100 110 120 100 110 120 100 110 120 100 110 120 100 110 120 100 110 120 99 109 119 99 109 119 98 108 118 98 108 118 98 108 118 97 107 117 97 107 117 96 106 116 96 106 116 96 106 116 95 105 115 95 105 115 95 105 115 95 105 115 95 105 115 95 105 115 95 105 115 95 105 115 95 105 115 95 105 115 95 105 115 95 105 115 95 105 115 95 105 115 94 104 114 94 104 114 94 104 114 94 104 114 94 104 114 95 105 115 95 105 115 95 105 115 95 105 115 96 106 116 96 106 116 97 107 117 98 108 118 98 108 118 99 109 119 100 110 120 101 111 121 102 112 122 100 110 120 100 110 120 100 110 120 100 110 120 100 110 120 100 110 120 100 110 120 100 110 120 100 110 120 100 110 120 100 110 120 99 109 119 99 109 119 99 109 119 98 108 118 98 108 118 97 107 117 97 107 117 97 107 117 96 106 116 96 106 116 96 106 116 96 106 116 96 106 116 96 106 116 95 105 115 95 105 115 95 105 115 95 105 115 95 105 115 95 105 115 95 105 115 95 105 115 95 105 115 95 105 115 95 105 115 95 105 115 95 105 115 95 105 115 95 105 115 95 105 115 95 105 115 95 105 115 96 106 116 96 106 116 97 107 117 98 108 118 98 108 118 99 109 119 100 110 120 100 110 120 101 111 121 102 112 122 102 112 122 103 113 123 222 232 242 223 233 243 224 234 244 225 235 245 226 236 246 226 236 246 227 237 247 227 237 247 227 237 247 227 237 247 226 236 246 226 236 246 226 236 246 226 236 246 226 236 246 226 236 246 226 236 246 226 236 246 226 236 246 226 236 246 225 235 245 225 235 245 224 234 244 224 234 244 224 234 244 223 233 243 223 233 243 222 232 242 222 232 242 103 113 123 103 113 123 103 113 123 102 112 122 102 112 122 101 111 121 101 111 121 100 110 120 100 110 120 99 109 119 99 109 119 99 109 119 99 109 119 99 109 119 99 109 119 99 109 119 99 109 119 99 109 119 100 110 120 100 110 120 100 110 120 100 110 120 100 110 120 100 110 120 100 110 120 100 110 120 99 109 119 99 109 119 99 109 119 98 108 118 98 108 118 97 107 117 97 107 117 96 106 116 96 106 116 95 105 115 95 105 115 95 105 115 95 105 115 94 104 114 94 104 114 94 104 114 94 104 114 94 104 114 93 103 113 93 103 113 93 103 113 93 103 113 93 103 113 93 103 113 93 103 113 93 103 113 93 103 113 93 103 113 93 103 113 93 103 113 92 102 112 92 102 112 93 103 113 93 103 113 93 103 113 94 104 114 94 104 114 95 105 115 96 106 116 96 106 116 97 107 117 98 108 118 98 108 118 99 109 119 100 110 120 100 110 120 101 111 121 102 112 122 102 112 122 103 113 123 103 113 123 222 232 242 222 232 242 223 233 243 223 233 243 223 233 243 223 233 243 222 232 242 222 232 242 222 232 242 222 232 242 222 232 242 222 232 242 222 232 242 222 232 242 222 232 242 222 232 242 222 232 242 222 232 242 103 113 123 103 113 123 103 113 123 103 113 123 103 113 123 103 113 123 102 112 122 102 112 122 102 112 122 101 111 121 101 111 121 100 110 120 100 110 120 99 109 119 99 109 119 99 109 119 99 109 119 99 109 119 99 109 119 99 109 119 99 109 119 99 109 119 99 109 119 99 109 119 100 110 120 100 110 120 100 110 120 100 110 120 100 110 120 100 110 120 100 110 120 100 110 120 100 110 120 100 110 120 100 110 120 99 109 119 99 109 119 98 108 118 98 108 118 97 107 117 97 107 117 97 107 117 97 107 117 96 106 116 96 106 116 96 106 116 96 106 116 96 106 116 96 106 116 95 105 115 95 105 115 95 105 115 95 105 115 95 105 115 95 105 115 95 105 115 95 105 115 95 105 115 95 105 115 95 105 115 95 105 115 95 105 115 95 105 115 95 105 115 95 105 115 95 105 115 95 105 115 96 106 116 96 106 116 97 107 117 98 108 118 98 108 118 99 109 119 100 110 120 101 111 121 101 111 121 102 112 122 100 110 120 99 109 119 99 109 119 99 109 119 99 109 119 100 110 120 100 110 120 100 110 120 100 110 120 100 110 120 100 110 120 100 110 120 99 109 119 99 109 119 98 108 118 98 108 118 97 107 117 97 107 117 97 107 117 97 107 117 97 107 117 97 107 117 97 107 117 96 106 116 96 106 116 96 106 116 95 105 115 95 105 115 95 105 115 95 105 115 95 105 115 95 105 115 95 105 115 95 105 115 96 106 116 96 106 116 96 106 116 95 105 115 95 105 115 95 105 115 95 105 115 95 105 115 96 106 116 96 106 116 97 107 117 98 108 118 98 108 118 99 109 119 100 110 120 100 110 120 101 111 121 101 111 121 102 112 122 102 112 122 103 113 123 103 113 123 223 233 243 224 234 244 225 235 245 226 236 246 227 237 247 227 237 247 227 237 247 227 237 247 227 237 247 226 236 246 226 236 246 226 236 246 226 236 246 226 236 246 227 237 247 227 237 247 227 237 247 227 237 247 226 236 246 226 236 246 225 235 245 224 234 244 224 234 244 223 233 243 223 233 243 222 232 242 222 232 242 222 232 242 222 232 242 103 113 123 103 113 123 102 112 122 102 112 122 101 111 121 101 111 121 100 110 120 100 110 120 100 110 120 100 110 120 100 110 120 100 110 120 100 110 120 100 110 120 100 110 120 100 110 120 100 110 120 99 109 119 99 109 119 99 109 119 99 109 119 99 109 119 99 109 119 99 109 119 99 109 119 99 109 119 99 109 119 99 109 119 98 108 118 98 108 118 97 107 117 96 106 116 96 106 116 96 106 116 95 105 115 95 105 115 95 105 115 95 105 115 95 105 115 94 104 114 94 104 114 94 104 114 93 103 113 93 103 113 93 103 113 93 103 113 92 102 112 93 103 113 93 103 113 93 103 113 93 103 113 93 103 113 93 103 113 93 103 113 93 103 113 92 102 112 92 102 112 92 102 112 93 103 113 93 103 113 94 104 114 94 104 114 95 105 115 96 106 116 96 106 116 97 107 117 98 108 118 98 108 118 98 108 118 99 109 119 100 110 120 100 110 120 101 111 121 102 112 122 102 112 122 103 113 123 103 113 123 222 232 242 222 232 242 222 232 242 222 232 242 222 232 242 103 113 123 103 113 123 222 232 242 222 232 242 222 232 242 222 232 242 223 233 243 223 233 243 222 232 242 222 232 242 103 113 123 103 113 123 103 113 123 103 113 123 102 112 122 102 112 122 102 112 122 102 112 122 102 112 122 102 112 122 102 112 122 101 111 121 101 111 121 100 110 120 100 110 120 99 109 119 99 109 119 99 109 119 99 109 119 99 109 119 99 109 119 99 109 119 100 110 120 100 110 120 100 110 120 100 110 120 99 109 119 99 109 119 99 109 119 99 109 119 100 110 120 100 110 120 100 110 120 100 110 120 100 110 120 100 110 120 100 110 120 99 109 119 99 109 119 98 108 118 98 108 118 97 107 117 97 107 117 97 107 117 97 107 117 97 107 117 97 107 117 97 107 117 97 107 117 96 106 116 96 106 116 96 106 116 95 105 115 95 105 115 95 105 115 95 105 115 95 105 115 95 105 115 95 105 115 95 105 115 96 106 116 96 106 116 95 105 115 95 105 115 95 105 115 95 105 115 95 105 115 95 105 115 96 106 116 96 106 116 97 107 117 98 108 118 99 109 119 99 109 119 100 110 120 100 110 120 101 111 121 101 111 121 102 112 122 100 110 120 99 109 119 99 109 119 99 109 119 99 109 119 99 109 119 100 110 120 100 110 120 100 110 120 100 110 120 100 110 120 100 110 120 99 109 119 99 109 119 98 108 118 98 108 118 97 107 117 97 107 117 97 107 117 97 107 117 97 107 117 97 107 117 97 107 117 97 107 117 97 107 117 96 106 116 96 106 116 95 105 115 95 105 115 95 105 115 95 105 115 95 105 115 95 105 115 96 106 116 96 106 116 96 106 116 96 106 116 96 106 116 96 106 116 96 106 116 96 106 116 96 106 116 96 106 116 97 107 117 98 108 118 98 108 118 99 109 119 100 110 120 100 110 120 101 111 121 101 111 121 101 111 121 102 112 122 102 112 122 103 113 123 103 113 123 222 232 242 224 234 244 225 235 245 226 236 246 227 237 247 227 237 247 227 237 247 227 237 247 227 237 247 226 236 246 226 236 246 226 236 246 226 236 246 227 237 247 227 237 247 227 237 247 227 237 247 227 237 247 227 237 247 226 236 246 225 235 245 224 234 244 223 233 243 223 233 243 222 232 242 222 232 242 222 232 242 222 232 242 222 232 242 103 113 123 103 113 123 103 113 123 102 112 122 101 111 121 101 111 121 100 110 120 100 110 120 100 110 120 100 110 120 100 110 120 100 110 120 100 110 120 100 110 120 100 110 120 100 110 120 100 110 120 99 109 119 99 109 119 99 109 119 99 109 119 99 109 119 99 109 119 99 109 119 99 109 119 99 109 119 99 109 119 98 108 118 98 108 118 97 107 117 97 107 117 96 106 116 96 106 116 95 105 115 95 105 115 95 105 115 95 105 115 95 105 115 95 105 115 95 105 115 94 104 114 94 104 114 93 103 113 93 103 113 92 102 112 92 102 112 92 102 112 92 102 112 92 102 112 93 103 113 93 103 113 93 103 113 93 103 113 93 103 113 92 102 112 92 102 112 92 102 112 92 102 112 93 103 113 93 103 113 94 104 114 95 105 115 95 105 115 96 106 116 97 107 117 97 107 117 97 107 117 98 108 118 98 108 118 98 108 118 99 109 119 99 109 119 100 110 120 101 111 121 102 112 122 102 112 122 103 113 123 103 113 123 103 113 123 103 113 123 103 113 123 103 113 123 103 113 123 103 113 123 103 113 123 103 113 123 222 232 242 222 232 242 222 232 242 223 233 243 222 232 242 222 232 242 103 113 123 103 113 123 102 112 122 102 112 122 102 112 122 102 112 122 102 112 122 102 112 122 102 112 122 102 112 122 102 112 122 101 111 121 101 111 121 100 110 120 100 110 120 99 109 119 99 109 119 99 109 119 99 109 119 99 109 119 100 110 120 100 110 120 100 110 120 100 110 120 100 110 120 100 110 120 99 109 119 99 109 119 99 109 119 99 109 119 99 109 119 99 109 119 100 110 120 100 110 120 100 110 120 100 110 120 100 110 120 99 109 119 99 109 119 98 108 118 98 108 118 98 108 118 97 107 117 97 107 117 97 107 117 97 107 117 97 107 117 97 107 117 97 107 117 97 107 117 96 106 116 96 106 116 95 105 115 95 105 115 95 105 115 95 105 115 95 105 115 95 105 115 96 106 116 96 106 116 96 106 116 96 106 116 96 106 116 96 106 116 96 106 116 96 106 116 96 106 116 96 106 116 96 106 116 97 107 117 98 108 118 99 109 119 99 109 119 100 110 120 100 110 120 101 111 121 101 111 121 101 111 121 102 112 122 100 110 120 99 109 119 99 109 119 99 109 119 99 109 119 99 109 119 99 109 119 99 109 119 100 110 120 100 110 120 100 110 120 99 109 119 99 109 119 99 109 119 98 108 118 98 108 118 98 108 118 97 107 117 97 107 117 98 108 118 98 108 118 98 108 118 98 108 118 97 107 117 97 107 117 96 106 116 96 106 116 95 105 115 95 105 115 95 105 115 95 105 115 95 105 115 96 106 116 96 106 116 96 106 116 96 106 116 96 106 116 96 106 116 96 106 116 96 106 116 96 106 116 97 107 117 97 107 117 98 108 118 98 108 118 99 109 119 100 110 120 100 110 120 101 111 121 101 111 121 101 111 121 102 112 122 102 112 122 102 112 122 103 113 123 103 113 123 222 232 242 223 233 243 225 235 245 226 236 246 226 236 246 227 237 247 227 237 247 227 237 247 227 237 247 226 236 246 226 236 246 227 237 247 227 237 247 227 237 247 228 238 248 228 238 248 228 238 248 228 238 248 227 237 247 226 236 246 225 235 245 224 234 244 223 233 243 223 233 243 222 232 242 222 232 242 222 232 242 222 232 242 222 232 242 222 232 242 103 113 123 103 113 123 102 112 122 102 112 122 101 111 121 101 111 121 100 110 120 100 110 120 100 110 120 101 111 121 101 111 121 101 111 121 101 111 121 100 110 120 100 110 120 100 110 120 99 109 119 99 109 119 98 108 118 98 108 118 98 108 118 98 108 118 99 109 119 99 109 119 99 109 119 98 108 118 98 108 118 98 108 118 97 107 117 97 107 117 96 106 116 96 106 116 95 105 115 95 105 115 95 105 115 95 105 115 95 105 115 95 105 115 95 105 115 94 104 114 94 104 114 93 103 113 93 103 113 92 102 112 92 102 112 92 102 112 92 102 112 92 102 112 92 102 112 93 103 113 93 103 113 93 103 113 93 103 113 92 102 112 92 102 112 92 102 112 92 102 112 93 103 113 93 103 113 94 104 114 95 105 115 95 105 115 96 106 116 97 107 117 97 107 117 97 107 117 97 107 117 98 108 118 98 108 118 98 108 118 99 109 119 99 109 119 100 110 120 101 111 121 102 112 122 102 112 122 103 113 123 103 113 123 103 113 123 103 113 123 103 113 123 103 113 123 103 113 123 103 113 123 103 113 123 103 113 123 222 232 242 222 232 242 222 232 242 222 232 242 103 113 123 103 113 123 102 112 122 102 112 122 102 112 122 101 111 121 101 111 121 101 111 121 101 111 121 102 112 122 102 112 122 101 111 121 101 111 121 101 111 121 100 110 120 100 110 120 100 110 120 99 109 119 99 109 119 99 109 119 100 110 120 100 110 120 100 110 120 100 110 120 100 110 120 100 110 120 100 110 120 99 109 119 99 109 119 99 109 119 99 109 119 99 109 119 99 109 119 99 109 119 100 110 120 100 110 120 100 110 120 100 110 120 99 109 119 99 109 119 98 108 118 98 108 118 98 108 118 98 108 118 97 107 117 98 108 118 98 108 118 98 108 118 98 108 118 97 107 117 97 107 117 97 107 117 96 106 116 96 106 116 95 105 115 95 105 115 95 105 115 95 105 115 95 105 115 96 106 116 96 106 116 96 106 116 96 106 116 96 106 116 96 106 116 96 106 116 96 106 116 96 106 116 97 107 117 97 107 117 98 108 118 98 108 118 99 109 119 100 110 120 101 111 121 101 111 121 101 111 121 102 112 122 102 112 122 102 112 122 100 110 120 99 109 119 99 109 119 99 109 119 99 109 119 99 109 119 99 109 119 99 109 119 99 109 119 99 109 119 99 109 119 99 109 119 99 109 119 99 109 119 98 108 118 98 108 118 98 108 118 98 108 118 98 108 118 98 108 118 98 108 118 98 108 118 98 108 118 98 108 118 97 107 117 97 107 117 96 106 116 96 106 116 95 105 115 95 105 115 95 105 115 96 106 116 96 106 116 96 106 116 96 106 116 97 107 117 97 107 117 97 107 117 97 107 117 97 107 117 97 107 117 97 107 117 98 108 118 98 108 118 99 109 119 100 110 120 100 110 120 101 111 121 101 111 121 102 112 122 102 112 122 102 112 122 102 112 122 102 112 122 103 113 123 103 113 123 222 232 242 223 233 243 224 234 244 225 235 245 226 236 246 226 236 246 227 237 247 227 237 247 227 237 247 227 237 247 227 237 247 227 237 247 227 237 247 228 238 248 228 238 248 228 238 248 228 238 248 228 238 248 227 237 247 227 237 247 226 236 246 224 234 244 223 233 243 223 233 243 222 232 242 222 232 242 222 232 242 222 232 242 222 232 242 103 113 123 103 113 123 103 113 123 102 112 122 102 112 122 102 112 122 101 111 121 101 111 121 101 111 121 101 111 121 101 111 121 101 111 121 101 111 121 101 111 121 101 111 121 100 110 120 100 110 120 99 109 119 99 109 119 98 108 118 98 108 118 98 108 118 98 108 118 98 108 118 98 108 118 98 108 118 98 108 118 98 108 118 97 107 117 97 107 117 96 106 116 96 106 116 96 106 116 96 106 116 95 105 115 95 105 115 95 105 115 95 105 115 95 105 115 95 105 115 94 104 114 94 104 114 93 103 113 92 102 112 92 102 112 92 102 112 92 102 112 92 102 112 92 102 112 92 102 112 92 102 112 92 102 112 93 103 113 93 103 113 92 102 112 92 102 112 93 103 113 93 103 113 93 103 113 94 104 114 94 104 114 95 105 115 96 106 116 96 106 116 97 107 117 97 107 117 97 107 117 97 107 117 97 107 117 97 107 117 98 108 118 98 108 118 99 109 119 100 110 120 100 110 120 101 111 121 101 111 121 102 112 122 102 112 122 102 112 122 102 112 122 102 112 122 102 112 122 102 112 122 103 113 123 103 113 123 103 113 123 222 232 242 222 232 242 222 232 242 103 113 123 103 113 123 103 113 123 102 112 122 102 112 122 101 111 121 101 111 121 101 111 121 101 111 121 101 111 121 101 111 121 101 111 121 101 111 121 101 111 121 101 111 121 100 110 120 100 110 120 100 110 120 100 110 120 100 110 120 100 110 120 100 110 120 100 110 120 100 110 120 100 110 120 100 110 120 100 110 120 100 110 120 99 109 119 99 109 119 99 109 119 99 109 119 99 109 119 99 109 119 99 109 119 99 109 119 99 109 119 99 109 119 99 109 119 99 109 119 99 109 119 98 108 118 98 108 118 98 108 118 98 108 118 98 108 118 98 108 118 98 108 118 98 108 118 98 108 118 98 108 118 97 107 117 97 107 117 97 107 117 96 106 116 96 106 116 95 105 115 95 105 115 95 105 115 96 106 116 96 106 116 96 106 116 96 106 116 97 107 117 97 107 117 97 107 117 97 107 117 97 107 117 97 107 117 97 107 117 98 108 118 99 109 119 99 109 119 100 110 120 101 111 121 101 111 121 101 111 121 102 112 122 102 112 122 102 112 122 102 112 122 100 110 120 99 109 119 99 109 119 99 109 119 99 109 119 99 109 119 99 109 119 99 109 119 99 109 119 99 109 119 99 109 119 99 109 119 99 109 119 99 109 119 98 108 118 98 108 118 98 108 118 98 108 118 98 108 118 98 108 118 98 108 118 98 108 118 98 108 118 98 108 118 97 107 117 97 107 117 97 107 117 96 106 116 96 106 116 96 106 116 96 106 116 96 106 116 96 106 116 96 106 116 97 107 117 97 107 117 97 107 117 97 107 117 97 107 117 98 108 118 98 108 118 98 108 118 99 109 119 99 109 119 100 110 120 100 110 120 101 111 121 101 111 121 102 112 122 102 112 122 102 112 122 102 112 122 102 112 122 102 112 122 103 113 123 103 113 123 222 232 242 223 233 243 224 234 244 224 234 244 225 235 245 226 236 246 226 236 246 227 237 247 227 237 247 227 237 247 227 237 247 227 237 247 228 238 248 228 238 248 228 238 248 228 238 248 228 238 248 228 238 248 227 237 247 227 237 247 226 236 246 225 235 245 224 234 244 223 233 243 222 232 242 222 232 242 222 232 242 222 232 242 103 113 123 103 113 123 103 113 123 103 113 123 103 113 123 102 112 122 102 112 122 102 112 122 102 112 122 101 111 121 101 111 121 101 111 121 101 111 121 101 111 121 101 111 121 101 111 121 100 110 120 100 110 120 99 109 119 99 109 119 98 108 118 98 108 118 98 108 118 98 108 118 98 108 118 98 108 118 98 108 118 97 107 117 97 107 117 97 107 117 97 107 117 96 106 116 96 106 116 96 106 116 96 106 116 96 106 116 95 105 115 95 105 115 95 105 115 95 105 115 95 105 115 94 104 114 94 104 114 93 103 113 92 102 112 92 102 112 92 102 112 92 102 112 92 102 112 92 102 112 92 102 112 92 102 112 92 102 112 92 102 112 92 102 112 93 103 113 93 103 113 93 103 113 93 103 113 93 103 113 94 104 114 94 104 114 95 105 115 96 106 116 96 106 116 96 106 116 97 107 117 97 107 117 97 107 117 97 107 117 97 107 117 97 107 117 98 108 118 98 108 118 99 109 119 99 109 119 100 110 120 100 110 120 101 111 121 101 111 121 101 111 121 102 112 122 102 112 122 102 112 122 102 112 122 103 113 123 103 113 123 103 113 123 103 113 123 103 113 123 103 113 123 103 113 123 103 113 123 102 112 122 102 112 122 101 111 121 101 111 121 101 111 121 101 111 121 101 111 121 101 111 121 101 111 121 101 111 121 101 111 121 101 111 121 101 111 121 100 110 120 100 110 120 100 110 120 100 110 120 100 110 120 100 110 120 100 110 120 100 110 120 100 110 120 100 110 120 100 110 120 100 110 120 100 110 120 99 109 119 99 109 119 99 109 119 99 109 119 99 109 119 99 109 119 99 109 119 99 109 119 99 109 119 99 109 119 99 109 119 99 109 119 99 109 119 99 109 119 98 108 118 98 108 118 98 108 118 98 108 118 98 108 118 98 108 118 98 108 118 98 108 118 98 108 118 98 108 118 97 107 117 97 107 117 96 106 116 96 106 116 96 106 116 96 106 116 96 106 116 96 106 116 96 106 116 96 106 116 97 107 117 97 107 117 97 107 117 97 107 117 97 107 117 98 108 118 98 108 118 98 108 118 99 109 119 99 109 119 100 110 120 101 111 121 101 111 121 101 111 121 102 112 122 102 112 122 102 112 122 102 112 122 102 112 122 100 110 120 99 109 119 99 109 119 99 109 119 99 109 119 98 108 118 98 108 118 98 108 118 98 108 118 98 108 118 98 108 118 99 109 119 99 109 119 99 109 119 99 109 119 99 109 119 99 109 119 99 109 119 99 109 119 99 109 119 99 109 119 98 108 118 98 108 118 98 108 118 98 108 118 97 107 117 97 107 117 97 107 117 96 106 116 96 106 116 96 106 116 96 106 116 96 106 116 96 106 116 97 107 117 97 107 117 97 107 117 98 108 118 98 108 118 98 108 118 99 109 119 99 109 119 100 110 120 100 110 120 101 111 121 101 111 121 101 111 121 102 112 122 102 112 122 102 112 122 102 112 122 102 112 122 103 113 123 103 113 123 103 113 123 103 113 123 222 232 242 222 232 242 223 233 243 224 234 244 224 234 244 225 235 245 226 236 246 226 236 246 227 237 247 227 237 247 228 238 248 228 238 248 228 238 248 228 238 248 229 239 249 228 238 248 228 238 248 228 238 248 227 237 247 226 236 246 226 236 246 225 235 245 224 234 244 223 233 243 223 233 243 222 232 242 222 232 242 103 113 123 103 113 123 103 113 123 103 113 123 103 113 123 103 113 123 103 113 123 102 112 122 102 112 122 102 112 122 102 112 122 102 112 122 102 112 122 102 112 122 101 111 121 101 111 121 101 111 121 100 110 120 100 110 120 99 109 119 99 109 119 98 108 118 98 108 118 98 108 118 97 107 117 97 107 117 97 107 117 97 107 117 97 107 117 97 107 117 97 107 117 96 106 116 96 106 116 96 106 116 96 106 116 96 106 116 96 106 116 96 106 116 95 105 115 95 105 115 95 105 115 94 104 114 94 104 114 93 103 113 93 103 113 93 103 113 92 102 112 92 102 112 92 102 112 92 102 112 91 101 111 92 102 112 92 102 112 92 102 112 92 102 112 92 102 112 93 103 113 93 103 113 93 103 113 94 104 114 94 104 114 94 104 114 95 105 115 95 105 115 96 106 116 96 106 116 96 106 116 96 106 116 96 106 116 97 107 117 97 107 117 97 107 117 97 107 117 97 107 117 98 108 118 98 108 118 99 109 119 99 109 119 99 109 119 100 110 120 100 110 120 101 111 121 101 111 121 101 111 121 102 112 122 102 112 122 102 112 122 103 113 123 103 113 123 103 113 123 103 113 123 103 113 123 103 113 123 102 112 122 102 112 122 102 112 122 101 111 121 101 111 121 101 111 121 101 111 121 100 110 120 100 110 120 100 110 120 100 110 120 100 110 120 100 110 120 100 110 120 100 110 120 100 110 120 100 110 120 101 111 121 101 111 121 101 111 121 101 111 121 101 111 121 101 111 121 100 110 120 100 110 120 100 110 120 100 110 120 99 109 119 99 109 119 99 109 119 99 109 119 98 108 118 98 108 118 98 108 118 98 108 118 98 108 118 98 108 118 99 109 119 99 109 119 99 109 119 99 109 119 99 109 119 99 109 119 99 109 119 99 109 119 99 109 119 99 109 119 99 109 119 98 108 118 98 108 118 98 108 118 98 108 118 97 107 117 97 107 117 97 107 117 96 106 116 96 106 116 96 106 116 96 106 116 96 106 116 97 107 117 97 107 117 97 107 117 97 107 117 98 108 118 98 108 118 98 108 118 99 109 119 99 109 119 100 110 120 100 110 120 101 111 121 101 111 121 101 111 121 102 112 122 102 112 122 102 112 122 102 112 122 102 112 122 103 113 123 100 110 120 99 109 119 99 109 119 99 109 119 99 109 119 98 108 118 98 108 118 98 108 118 98 108 118 98 108 118 98 108 118 98 108 118 98 108 118 99 109 119 99 109 119 99 109 119 99 109 119 99 109 119 99 109 119 99 109 119 99 109 119 99 109 119 98 108 118 98 108 118 98 108 118 98 108 118 97 107 117 97 107 117 97 107 117 97 107 117 97 107 117 97 107 117 97 107 117 97 107 117 97 107 117 97 107 117 98 108 118 98 108 118 99 109 119 99 109 119 100 110 120 100 110 120 101 111 121 101 111 121 101 111 121 102 112 122 102 112 122 102 112 122 102 112 122 102 112 122 103 113 123 103 113 123 103 113 123 103 113 123 103 113 123 103 113 123 222 232 242 222 232 242 222 232 242 223 233 243 224 234 244 224 234 244 225 235 245 226 236 246 227 237 247 228 238 248 228 238 248 229 239 249 229 239 249 229 239 249 229 239 249 228 238 248 228 238 248 227 237 247 227 237 247 226 236 246 226 236 246 225 235 245 224 234 244 224 234 244 223 233 243 222 232 242 222 232 242 103 113 123 103 113 123 103 113 123 103 113 123 103 113 123 103 113 123 103 113 123 103 113 123 103 113 123 103 113 123 103 113 123 102 112 122 102 112 122 102 112 122 101 111 121 101 111 121 101 111 121 100 110 120 100 110 120 99 109 119 99 109 119 98 108 118 98 108 118 97 107 117 97 107 117 97 107 117 96 106 116 96 106 116 96 106 116 96 106 116 96 106 116 96 106 116 96 106 116 96 106 116 96 106 116 96 106 116 96 106 116 96 106 116 95 105 115 95 105 115 94 104 114 94 104 114 94 104 114 93 103 113 93 103 113 93 103 113 92 102 112 92 102 112 92 102 112 92 102 112 91 101 111 91 101 111 91 101 111 92 102 112 92 102 112 92 102 112 93 103 113 93 103 113 94 104 114 94 104 114 94 104 114 95 105 115 95 105 115 95 105 115 95 105 115 96 106 116 96 106 116 96 106 116 96 106 116 96 106 116 97 107 117 97 107 117 97 107 117 97 107 117 97 107 117 98 108 118 98 108 118 98 108 118 99 109 119 99 109 119 99 109 119 100 110 120 101 111 121 101 111 121 102 112 122 102 112 122 102 112 122 102 112 122 102 112 122 102 112 122 102 112 122 102 112 122 102 112 122 102 112 122 102 112 122 101 111 121 101 111 121 101 111 121 101 111 121 100 110 120 100 110 120 100 110 120 100 110 120 100 110 120 100 110 120 100 110 120 100 110 120 100 110 120 101 111 121 101 111 121 101 111 121 101 111 121 101 111 121 101 111 121 101 111 121 101 111 121 100 110 120 100 110 120 100 110 120 100 110 120 99 109 119 99 109 119 99 109 119 99 109 119 98 108 118 98 108 118 98 108 118 98 108 118 98 108 118 98 108 118 98 108 118 98 108 118 98 108 118 99 109 119 99 109 119 99 109 119 99 109 119 99 109 119 99 109 119 99 109 119 99 109 119 98 108 118 98 108 118 98 108 118 98 108 118 98 108 118 97 107 117 97 107 117 97 107 117 97 107 117 97 107 117 97 107 117 97 107 117 97 107 117 97 107 117 97 107 117 98 108 118 98 108 118 99 109 119 99 109 119 100 110 120 100 110 120 101 111 121 101 111 121 101 111 121 102 112 122 102 112 122 102 112 122 102 112 122 102 112 122 103 113 123 103 113 123 103 113 123 100 110 120 99 109 119 99 109 119 99 109 119 99 109 119 98 108 118 98 108 118 98 108 118 98 108 118 98 108 118 98 108 118 98 108 118 98 108 118 99 109 119 99 109 119 99 109 119 100 110 120 100 110 120 99 109 119 99 109 119 99 109 119 99 109 119 98 108 118 98 108 118 98 108 118 98 108 118 98 108 118 98 108 118 98 108 118 97 107 117 97 107 117 97 107 117 97 107 117 97 107 117 97 107 117 97 107 117 98 108 118 99 109 119 99 109 119 100 110 120 101 111 121 101 111 121 102 112 122 102 112 122 102 112 122 102 112 122 102 112 122 102 112 122 102 112 122 103 113 123 103 113 123 103 113 123 103 113 123 103 113 123 103 113 123 222 232 242 222 232 242 222 232 242 222 232 242 222 232 242 223 233 243 224 234 244 225 235 245 226 236 246 227 237 247 228 238 248 228 238 248 229 239 249 229 239 249 229 239 249 229 239 249 228 238 248 228 238 248 227 237 247 227 237 247 226 236 246 226 236 246 225 235 245 225 235 245 224 234 244 223 233 243 223 233 243 222 232 242 103 113 123 103 113 123 103 113 123 103 113 123 103 113 123 103 113 123 103 113 123 103 113 123 103 113 123 103 113 123 103 113 123 103 113 123 102 112 122 102 112 122 101 111 121 101 111 121 100 110 120 100 110 120 100 110 120 99 109 119 99 109 119 98 108 118 98 108 118 97 107 117 97 107 117 96 106 116 96 106 116 96 106 116 96 106 116 96 106 116 96 106 116 96 106 116 96 106 116 96 106 116 96 106 116 96 106 116 96 106 116 96 106 116 95 105 115 95 105 115 94 104 114 94 104 114 93 103 113 93 103 113 93 103 113 93 103 113 92 102 112 92 102 112 92 102 112 92 102 112 91 101 111 91 101 111 91 101 111 91 101 111 92 102 112 92 102 112 93 103 113 93 103 113 94 104 114 94 104 114 95 105 115 95 105 115 95 105 115 95 105 115 95 105 115 95 105 115 96 106 116 96 106 116 96 106 116 96 106 116 96 106 116 97 107 117 97 107 117 97 107 117 97 107 117 97 107 117 97 107 117 97 107 117 98 108 118 98 108 118 99 109 119 99 109 119 100 110 120 101 111 121 101 111 121 102 112 122 102 112 122 102 112 122 102 112 122 102 112 122 102 112 122 101 111 121 101 111 121 101 111 121 101 111 121 101 111 121 101 111 121 101 111 121 101 111 121 100 110 120 100 110 120 100 110 120 100 110 120 99 109 119 100 110 120 100 110 120 100 110 120 100 110 120 101 111 121 101 111 121 101 111 121 101 111 121 101 111 121 101 111 121 101 111 121 101 111 121 100 110 120 100 110 120 100 110 120 100 110 120 99 109 119 99 109 119 99 109 119 99 109 119 98 108 118 98 108 118 98 108 118 98 108 118 98 108 118 98 108 118 98 108 118 98 108 118 98 108 118 99 109 119 99 109 119 99 109 119 100 110 120 100 110 120 99 109 119 99 109 119 99 109 119 99 109 119 98 108 118 98 108 118 98 108 118 98 108 118 98 108 118 98 108 118 98 108 118 97 107 117 97 107 117 97 107 117 97 107 117 97 107 117 97 107 117 98 108 118 98 108 118 99 109 119 99 109 119 100 110 120 101 111 121 101 111 121 102 112 122 102 112 122 102 112 122 102 112 122 102 112 122 102 112 122 102 112 122 103 113 123 103 113 123 103 113 123 103 113 123 100 110 120 99 109 119 99 109 119 99 109 119 99 109 119 98 108 118 98 108 118 97 107 117 97 107 117 97 107 117 97 107 117 98 108 118 98 108 118 99 109 119 99 109 119 100 110 120 100 110 120 100 110 120 100 110 120 99 109 119 99 109 119 99 109 119 99 109 119 98 108 118 98 108 118 98 108 118 98 108 118 98 108 118 98 108 118 98 108 118 98 108 118 98 108 118 97 107 117 97 107 117 98 108 118 98 108 118 98 108 118 99 109 119 100 110 120 101 111 121 101 111 121 102 112 122 102 112 122 103 113 123 103 113 123 103 113 123 103 113 123 103 113 123 103 113 123 103 113 123 103 113 123 103 113 123 103 113 123 222 232 242 222 232 242 222 232 242 222 232 242 222 232 242 222 232 242 222 232 242 222 232 242 223 233 243 224 234 244 225 235 245 227 237 247 228 238 248 229 239 249 229 239 249 229 239 249 229 239 249 228 238 248 228 238 248 227 237 247 227 237 247 226 236 246 226 236 246 226 236 246 226 236 246 225 235 245 225 235 245 224 234 244 223 233 243 222 232 242 103 113 123 103 113 123 103 113 123 103 113 123 103 113 123 103 113 123 103 113 123 222 232 242 222 232 242 222 232 242 222 232 242 103 113 123 103 113 123 102 112 122 101 111 121 101 111 121 100 110 120 100 110 120 100 110 120 99 109 119 99 109 119 98 108 118 98 108 118 97 107 117 97 107 117 96 106 116 96 106 116 95 105 115 95 105 115 95 105 115 95 105 115 96 106 116 96 106 116 96 106 116 96 106 116 96 106 116 96 106 116 96 106 116 95 105 115 95 105 115 94 104 114 94 104 114 93 103 113 93 103 113 93 103 113 93 103 113 93 103 113 92 102 112 92 102 112 92 102 112 91 101 111 91 101 111 91 101 111 91 101 111 92 102 112 92 102 112 93 103 113 94 104 114 94 104 114 95 105 115 95 105 115 95 105 115 95 105 115 95 105 115 95 105 115 95 105 115 95 105 115 95 105 115 96 106 116 96 106 116 96 106 116 96 106 116 96 106 116 96 106 116 96 106 116 96 106 116 96 106 116 96 106 116 97 107 117 97 107 117 98 108 118 99 109 119 99 109 119 100 110 120 101 111 121 101 111 121 102 112 122 102 112 122 101 111 121 101 111 121 101 111 121 101 111 121 101 111 121 101 111 121 101 111 121 101 111 121 101 111 121 101 111 121 100 110 120 100 110 120 100 110 120 99 109 119 99 109 119 99 109 119 99 109 119 100 110 120 100 110 120 101 111 121 101 111 121 101 111 121 102 112 122 102 112 122 102 112 122 101 111 121 101 111 121 101 111 121 100 110 120 100 110 120 100 110 120 100 110 120 99 109 119 99 109 119 99 109 119 99 109 119 99 109 119 98 108 118 98 108 118 97 107 117 97 107 117 97 107 117 97 107 117 98 108 118 98 108 118 99 109 119 99 109 119 100 110 120 100 110 120 100 110 120 100 110 120 99 109 119 99 109 119 99 109 119 98 108 118 98 108 118 98 108 118 98 108 118 98 108 118 98 108 118 98 108 118 98 108 118 98 108 118 98 108 118 97 107 117 97 107 117 98 108 118 98 108 118 99 109 119 99 109 119 100 110 120 101 111 121 102 112 122 102 112 122 102 112 122 103 113 123 103 113 123 103 113 123 103 113 123 103 113 123 103 113 123 103 113 123 103 113 123 103 113 123 222 232 242 100 110 120 99 109 119 99 109 119 99 109 119 99 109 119 98 108 118 98 108 118 97 107 117 97 107 117 97 107 117 97 107 117 98 108 118 98 108 118 99 109 119 99 109 119 100 110 120 100 110 120 100 110 120 100 110 120 100 110 120 99 109 119 99 109 119 99 109 119 99 109 119 99 109 119 99 109 119 99 109 119 99 109 119 99 109 119 99 109 119 98 108 118 98 108 118 98 108 118 98 108 118 98 108 118 98 108 118 99 109 119 100 110 120 101 111 121 101 111 121 102 112 122 103 113 123 103 113 123 103 113 123 103 113 123 103 113 123 103 113 123 103 113 123 103 113 123 103 113 123 103 113 123 222 232 242 222 232 242 222 232 242 222 232 242 222 232 242 222 232 242 103 113 123 103 113 123 103 113 123 222 232 242 223 233 243 224 234 244 225 235 245 226 236 246 227 237 247 228 238 248 229 239 249 229 239 249 229 239 249 228 238 248 228 238 248 227 237 247 227 237 247 226 236 246 226 236 246 226 236 246 226 236 246 225 235 245 225 235 245 224 234 244 223 233 243 222 232 242 103 113 123 103 113 123 103 113 123 103 113 123 103 113 123 103 113 123 222 232 242 222 232 242 223 233 243 223 233 243 222 232 242 222 232 242 103 113 123 102 112 122 102 112 122 101 111 121 100 110 120 100 110 120 100 110 120 99 109 119 99 109 119 98 108 118 98 108 118 97 107 117 97 107 117 96 106 116 95 105 115 95 105 115 95 105 115 95 105 115 95 105 115 95 105 115 96 106 116 96 106 116 96 106 116 96 106 116 96 106 116 95 105 115 95 105 115 94 104 114 94 104 114 94 104 114 93 103 113 93 103 113 93 103 113 93 103 113 93 103 113 93 103 113 92 102 112 92 102 112 92 102 112 91 101 111 91 101 111 91 101 111 92 102 112 92 102 112 93 103 113 94 104 114 94 104 114 95 105 115 95 105 115 96 106 116 96 106 116 95 105 115 95 105 115 95 105 115 95 105 115 95 105 115 95 105 115 96 106 116 96 106 116 96 106 116 96 106 116 96 106 116 96 106 116 96 106 116 96 106 116 96 106 116 96 106 116 96 106 116 97 107 117 98 108 118 99 109 119 100 110 120 100 110 120 101 111 121 101 111 121 101 111 121 101 111 121 101 111 121 101 111 121 100 110 120 100 110 120 100 110 120 100 110 120 100 110 120 100 110 120 100 110 120 100 110 120 100 110 120 100 110 120 99 109 119 99 109 119 99 109 119 99 109 119 99 109 119 100 110 120 101 111 121 101 111 121 102 112 122 102 112 122 102 112 122 102 112 122 102 112 122 101 111 121 101 111 121 100 110 120 100 110 120 100 110 120 100 110 120 99 109 119 99 109 119 99 109 119 99 109 119 98 108 118 98 108 118 98 108 118 97 107 117 97 107 117 97 107 117 97 107 117 98 108 118 98 108 118 99 109 119 99 109 119 100 110 120 100 110 120 100 110 120 100 110 120 100 110 120 99 109 119 99 109 119 99 109 119 99 109 119 99 109 119 99 109 119 99 109 119 99 109 119 99 109 119 99 109 119 98 108 118 98 108 118 98 108 118 98 108 118 98 108 118 99 109 119 99 109 119 100 110 120 101 111 121 102 112 122 102 112 122 103 113 123 103 113 123 103 113 123 103 113 123 103 113 123 103 113 123 103 113 123 103 113 123 103 113 123 103 113 123 222 232 242 222 232 242 100 110 120 99 109 119 99 109 119 99 109 119 99 109 119 98 108 118 98 108 118 97 107 117 97 107 117 97 107 117 97 107 117 98 108 118 98 108 118 99 109 119 99 109 119 100 110 120 100 110 120 100 110 120 100 110 120 100 110 120 99 109 119 99 109 119 99 109 119 99 109 119 99 109 119 99 109 119 99 109 119 99 109 119 99 109 119 99 109 119 99 109 119 99 109 119 99 109 119 99 109 119 99 109 119 99 109 119 100 110 120 100 110 120 101 111 121 102 112 122 103 113 123 103 113 123 222 232 242 222 232 242 222 232 242 222 232 242 222 232 242 103 113 123 103 113 123 103 113 123 222 232 242 222 232 242 222 232 242 222 232 242 222 232 242 222 232 242 222 232 242 103 113 123 103 113 123 103 113 123 222 232 242 222 232 242 223 233 243 225 235 245 226 236 246 227 237 247 228 238 248 228 238 248 229 239 249 228 238 248 228 238 248 227 237 247 227 237 247 226 236 246 226 236 246 226 236 246 226 236 246 226 236 246 225 235 245 225 235 245 224 234 244 223 233 243 223 233 243 222 232 242 103 113 123 103 113 123 103 113 123 103 113 123 222 232 242 222 232 242 223 233 243 223 233 243 223 233 243 223 233 243 222 232 242 103 113 123 102 112 122 102 112 122 101 111 121 101 111 121 100 110 120 100 110 120 99 109 119 99 109 119 98 108 118 98 108 118 97 107 117 96 106 116 96 106 116 95 105 115 95 105 115 95 105 115 95 105 115 95 105 115 95 105 115 96 106 116 96 106 116 96 106 116 96 106 116 96 106 116 95 105 115 95 105 115 94 104 114 94 104 114 93 103 113 93 103 113 93 103 113 93 103 113 93 103 113 93 103 113 93 103 113 92 102 112 92 102 112 92 102 112 92 102 112 91 101 111 92 102 112 92 102 112 93 103 113 93 103 113 94 104 114 95 105 115 95 105 115 95 105 115 96 106 116 96 106 116 95 105 115 95 105 115 95 105 115 95 105 115 95 105 115 95 105 115 95 105 115 95 105 115 96 106 116 96 106 116 96 106 116 95 105 115 95 105 115 95 105 115 95 105 115 95 105 115 96 106 116 97 107 117 97 107 117 98 108 118 99 109 119 100 110 120 100 110 120 100 110 120 100 110 120 100 110 120 100 110 120 100 110 120 100 110 120 100 110 120 100 110 120 100 110 120 100 110 120 100 110 120 100 110 120 100 110 120 100 110 120 99 109 119 99 109 119 99 109 119 99 109 119 99 109 119 100 110 120 100 110 120 101 111 121 101 111 121 102 112 122 102 112 122 102 112 122 102 112 122 102 112 122 101 111 121 101 111 121 100 110 120 100 110 120 100 110 120 100 110 120 99 109 119 99 109 119 99 109 119 99 109 119 98 108 118 98 108 118 98 108 118 97 107 117 97 107 117 97 107 117 97 107 117 98 108 118 98 108 118 99 109 119 99 109 119 100 110 120 100 110 120 100 110 120 100 110 120 100 110 120 99 109 119 99 109 119 99 109 119 99 109 119 99 109 119 99 109 119 99 109 119 99 109 119 99 109 119 99 109 119 99 109 119 99 109 119 99 109 119 99 109 119 99 109 119 99 109 119 100 110 120 101 111 121 101 111 121 102 112 122 103 113 123 103 113 123 222 232 242 222 232 242 222 232 242 222 232 242 103 113 123 103 113 123 103 113 123 103 113 123 222 232 242 222 232 242 222 232 242 100 110 120 99 109 119 99 109 119 99 109 119 98 108 118 98 108 118 98 108 118 97 107 117 97 107 117 97 107 117 97 107 117 98 108 118 98 108 118 99 109 119 99 109 119 99 109 119 100 110 120 100 110 120 100 110 120 100 110 120 100 110 120 99 109 119 99 109 119 99 109 119 99 109 119 99 109 119 99 109 119 100 110 120 100 110 120 100 110 120 99 109 119 99 109 119 99 109 119 99 109 119 100 110 120 100 110 120 101 111 121 101 111 121 102 112 122 103 113 123 103 113 123 222 232 242 222 232 242 223 233 243 223 233 243 223 233 243 222 232 242 222 232 242 222 232 242 222 232 242 222 232 242 222 232 242 222 232 242 222 232 242 222 232 242 222 232 242 222 232 242 222 232 242 103 113 123 222 232 242 222 232 242 223 233 243 223 233 243 224 234 244 225 235 245 226 236 246 227 237 247 228 238 248 228 238 248 228 238 248 228 238 248 227 237 247 227 237 247 226 236 246 226 236 246 226 236 246 226 236 246 225 235 245 225 235 245 225 235 245 224 234 244 224 234 244 223 233 243 222 232 242 222 232 242 222 232 242 222 232 242 222 232 242 222 232 242 223 233 243 223 233 243 223 233 243 223 233 243 223 233 243 222 232 242 103 113 123 103 113 123 102 112 122 101 111 121 101 111 121 100 110 120 100 110 120 99 109 119 99 109 119 98 108 118 98 108 118 97 107 117 96 106 116 96 106 116 95 105 115 95 105 115 95 105 115 95 105 115 95 105 115 95 105 115 95 105 115 95 105 115 95 105 115 95 105 115 95 105 115 95 105 115 95 105 115 94 104 114 94 104 114 94 104 114 93 103 113 93 103 113 93 103 113 93 103 113 93 103 113 93 103 113 92 102 112 92 102 112 92 102 112 92 102 112 92 102 112 92 102 112 92 102 112 93 103 113 93 103 113 94 104 114 95 105 115 95 105 115 95 105 115 95 105 115 96 106 116 95 105 115 95 105 115 95 105 115 95 105 115 95 105 115 95 105 115 95 105 115 95 105 115 95 105 115 95 105 115 95 105 115 95 105 115 95 105 115 95 105 115 95 105 115 95 105 115 96 106 116 96 106 116 97 107 117 97 107 117 98 108 118 99 109 119 99 109 119 99 109 119 100 110 120 100 110 120 100 110 120 100 110 120 99 109 119 99 109 119 100 110 120 100 110 120 100 110 120 100 110 120 100 110 120 100 110 120 99 109 119 99 109 119 99 109 119 99 109 119 99 109 119 99 109 119 100 110 120 100 110 120 101 111 121 101 111 121 101 111 121 102 112 122 102 112 122 102 112 122 102 112 122 101 111 121 101 111 121 100 110 120 100 110 120 100 110 120 100 110 120 99 109 119 99 109 119 99 109 119 99 109 119 98 108 118 98 108 118 98 108 118 97 107 117 97 107 117 97 107 117 97 107 117 98 108 118 98 108 118 99 109 119 99 109 119 100 110 120 100 110 120 100 110 120 100 110 120 100 110 120 100 110 120 99 109 119 99 109 119 99 109 119 99 109 119 99 109 119 99 109 119 100 110 120 100 110 120 100 110 120 99 109 119 99 109 119 99 109 119 99 109 119 100 110 120 100 110 120 101 111 121 101 111 121 102 112 122 103 113 123 103 113 123 222 232 242 222 232 242 223 233 243 223 233 243 223 233 243 222 232 242 222 232 242 222 232 242 222 232 242 222 232 242 222 232 242 222 232 242 100 110 120 99 109 119 99 109 119 99 109 119 98 108 118 98 108 118 98 108 118 98 108 118 97 107 117 97 107 117 98 108 118 98 108 118 98 108 118 98 108 118 99 109 119 99 109 119 99 109 119 100 110 120 100 110 120 100 110 120 100 110 120 100 110 120 100 110 120 100 110 120 100 110 120 100 110 120 100 110 120 100 110 120 100 110 120 100 110 120 100 110 120 100 110 120 100 110 120 100 110 120 101 111 121 101 111 121 101 111 121 102 112 122 102 112 122 103 113 123 222 232 242 222 232 242 223 233 243 223 233 243 223 233 243 223 233 243 223 233 243 223 233 243 223 233 243 223 233 243 223 233 243 223 233 243 223 233 243 222 232 242 222 232 242 222 232 242 222 232 242 222 232 242 222 232 242 222 232 242 222 232 242 223 233 243 223 233 243 224 234 244 225 235 245 226 236 246 226 236 246 227 237 247 227 237 247 227 237 247 227 237 247 227 237 247 227 237 247 226 236 246 226 236 246 226 236 246 226 236 246 225 235 245 225 235 245 225 235 245 224 234 244 224 234 244 223 233 243 223 233 243 223 233 243 222 232 242 222 232 242 223 233 243 223 233 243 223 233 243 223 233 243 223 233 243 223 233 243 222 232 242 222 232 242 103 113 123 103 113 123 102 112 122 102 112 122 101 111 121 100 110 120 100 110 120 99 109 119 99 109 119 98 108 118 97 107 117 97 107 117 96 106 116 96 106 116 95 105 115 95 105 115 95 105 115 95 105 115 95 105 115 95 105 115 95 105 115 95 105 115 95 105 115 95 105 115 95 105 115 95 105 115 94 104 114 94 104 114 94 104 114 94 104 114 93 103 113 93 103 113 93 103 113 93 103 113 93 103 113 93 103 113 93 103 113 92 102 112 92 102 112 92 102 112 92 102 112 93 103 113 93 103 113 93 103 113 94 104 114 94 104 114 95 105 115 95 105 115 95 105 115 95 105 115 95 105 115 95 105 115 95 105 115 95 105 115 95 105 115 95 105 115 95 105 115 95 105 115 95 105 115 95 105 115 95 105 115 95 105 115 94 104 114 94 104 114 94 104 114 95 105 115 95 105 115 95 105 115 96 106 116 96 106 116 97 107 117 97 107 117 98 108 118 98 108 118 98 108 118 99 109 119 99 109 119 99 109 119 99 109 119 99 109 119 99 109 119 99 109 119 99 109 119 99 109 119 99 109 119 99 109 119 99 109 119 99 109 119 99 109 119 99 109 119 99 109 119 99 109 119 100 110 120 100 110 120 100 110 120 101 111 121 101 111 121 101 111 121 101 111 121 102 112 122 102 112 122 101 111 121 101 111 121 101 111 121 101 111 121 100 110 120 100 110 120 100 110 120 99 109 119 99 109 119 99 109 119 98 108 118 98 108 118 98 108 118 98 108 118 97 107 117 97 107 117 97 107 117 98 108 118 98 108 118 98 108 118 99 109 119 99 109 119 99 109 119 99 109 119 100 110 120 100 110 120 100 110 120 100 110 120 100 110 120 100 110 120 100 110 120 100 110 120 100 110 120 100 110 120 100 110 120 100 110 120 100 110 120 100 110 120 100 110 120 100 110 120 100 110 120 101 111 121 101 111 121 102 112 122 102 112 122 103 113 123 103 113 123 222 232 242 222 232 242 223 233 243 223 233 243 223 233 243 223 233 243 223 233 243 223 233 243 223 233 243 223 233 243 223 233 243 223 233 243 222 232 242 100 110 120 99 109 119 99 109 119 98 108 118 98 108 118 98 108 118 98 108 118 98 108 118 98 108 118 98 108 118 98 108 118 98 108 118 98 108 118 98 108 118 99 109 119 99 109 119 99 109 119 99 109 119 100 110 120 100 110 120 100 110 120 100 110 120 100 110 120 100 110 120 100 110 120 100 110 120 100 110 120 100 110 120 100 110 120 100 110 120 101 111 121 101 111 121 101 111 121 101 111 121 102 112 122 102 112 122 102 112 122 103 113 123 103 113 123 103 113 123 222 232 242 223 233 243 223 233 243 223 233 243 224 234 244 224 234 244 224 234 244 224 234 244 224 234 244 224 234 244 223 233 243 223 233 243 223 233 243 222 232 242 222 232 242 222 232 242 222 232 242 222 232 242 222 232 242 222 232 242 223 233 243 223 233 243 224 234 244 224 234 244 224 234 244 225 235 245 225 235 245 226 236 246 226 236 246 226 236 246 226 236 246 227 237 247 227 237 247 226 236 246 226 236 246 226 236 246 226 236 246 225 235 245 225 235 245 224 234 244 224 234 244 224 234 244 224 234 244 224 234 244 224 234 244 223 233 243 223 233 243 223 233 243 223 233 243 223 233 243 223 233 243 223 233 243 222 232 242 222 232 242 103 113 123 103 113 123 103 113 123 102 112 122 102 112 122 101 111 121 100 110 120 100 110 120 99 109 119 98 108 118 98 108 118 97 107 117 97 107 117 96 106 116 96 106 116 95 105 115 95 105 115 95 105 115 95 105 115 95 105 115 95 105 115 94 104 114 94 104 114 94 104 114 94 104 114 94 104 114 94 104 114 94 104 114 94 104 114 94 104 114 94 104 114 94 104 114 93 103 113 93 103 113 93 103 113 93 103 113 93 103 113 93 103 113 93 103 113 93 103 113 93 103 113 93 103 113 93 103 113 93 103 113 94 104 114 94 104 114 94 104 114 94 104 114 95 105 115 95 105 115 95 105 115 95 105 115 95 105 115 95 105 115 95 105 115 95 105 115 95 105 115 95 105 115 95 105 115 94 104 114 94 104 114 94 104 114 94 104 114 94 104 114 94 104 114 94 104 114 94 104 114 95 105 115 95 105 115 95 105 115 96 106 116 96 106 116 96 106 116 97 107 117 97 107 117 97 107 117 98 108 118 98 108 118 98 108 118 99 109 119 99 109 119 99 109 119 99 109 119 99 109 119 99 109 119 99 109 119 99 109 119 99 109 119 99 109 119 99 109 119 99 109 119 100 110 120 100 110 120 100 110 120 100 110 120 100 110 120 101 111 121 101 111 121 101 111 121 101 111 121 101 111 121 101 111 121 101 111 121 101 111 121 101 111 121 101 111 121 101 111 121 100 110 120 100 110 120 99 109 119 99 109 119 99 109 119 98 108 118 98 108 118 98 108 118 98 108 118 98 108 118 98 108 118 98 108 118 98 108 118 98 108 118 98 108 118 98 108 118 99 109 119 99 109 119 99 109 119 99 109 119 100 110 120 100 110 120 100 110 120 100 110 120 100 110 120 100 110 120 100 110 120 100 110 120 100 110 120 100 110 120 100 110 120 100 110 120 101 111 121 101 111 121 101 111 121 101 111 121 102 112 122 102 112 122 103 113 123 103 113 123 103 113 123 222 232 242 222 232 242 223 233 243 223 233 243 224 234 244 224 234 244 224 234 244 224 234 244 224 234 244 224 234 244 224 234 244 223 233 243 223 233 243 223 233 243 100 110 120 99 109 119 99 109 119 98 108 118 98 108 118 98 108 118 98 108 118 98 108 118 98 108 118 98 108 118 98 108 118 98 108 118 98 108 118 98 108 118 98 108 118 99 109 119 99 109 119 99 109 119 99 109 119 100 110 120 100 110 120 100 110 120 101 111 121 101 111 121 101 111 121 101 111 121 101 111 121 101 111 121 101 111 121 101 111 121 101 111 121 101 111 121 102 112 122 102 112 122 103 113 123 103 113 123 103 113 123 222 232 242 222 232 242 222 232 242 223 233 243 223 233 243 223 233 243 224 234 244 224 234 244 225 235 245 225 235 245 225 235 245 225 235 245 224 234 244 224 234 244 223 233 243 223 233 243 222 232 242 222 232 242 222 232 242 222 232 242 222 232 242 223 233 243 223 233 243 223 233 243 224 234 244 224 234 244 224 234 244 224 234 244 224 234 244 224 234 244 224 234 244 225 235 245 225 235 245 226 236 246 226 236 246 226 236 246 226 236 246 226 236 246 226 236 246 225 235 245 225 235 245 224 234 244 224 234 244 224 234 244 224 234 244 224 234 244 224 234 244 224 234 244 224 234 244 224 234 244 224 234 244 224 234 244 223 233 243 223 233 243 222 232 242 222 232 242 103 113 123 103 113 123 103 113 123 103 113 123 102 112 122 102 112 122 101 111 121 101 111 121 100 110 120 99 109 119 98 108 118 98 108 118 97 107 117 96 106 116 96 106 116 96 106 116 96 106 116 95 105 115 95 105 115 95 105 115 95 105 115 94 104 114 94 104 114 94 104 114 94 104 114 94 104 114 94 104 114 94 104 114 94 104 114 94 104 114 94 104 114 94 104 114 94 104 114 93 103 113 93 103 113 93 103 113 93 103 113 93 103 113 93 103 113 93 103 113 93 103 113 93 103 113 94 104 114 94 104 114 94 104 114 94 104 114 94 104 114 94 104 114 94 104 114 94 104 114 95 105 115 95 105 115 95 105 115 95 105 115 95 105 115 95 105 115 95 105 115 95 105 115 95 105 115 94 104 114 94 104 114 94 104 114 94 104 114 94 104 114 94 104 114 94 104 114 94 104 114 94 104 114 95 105 115 95 105 115 95 105 115 95 105 115 95 105 115 95 105 115 96 106 116 96 106 116 96 106 116 97 107 117 97 107 117 98 108 118 98 108 118 98 108 118 98 108 118 98 108 118 98 108 118 98 108 118 98 108 118 98 108 118 99 109 119 99 109 119 99 109 119 99 109 119 100 110 120 100 110 120 100 110 120 101 111 121 101 111 121 101 111 121 101 111 121 101 111 121 101 111 121 101 111 121 101 111 121 101 111 121 101 111 121 101 111 121 101 111 121 101 111 121 100 110 120 100 110 120 99 109 119 99 109 119 98 108 118 98 108 118 98 108 118 98 108 118 98 108 118 98 108 118 98 108 118 98 108 118 98 108 118 98 108 118 98 108 118 98 108 118 98 108 118 99 109 119 99 109 119 99 109 119 99 109 119 100 110 120 100 110 120 100 110 120 101 111 121 101 111 121 101 111 121 101 111 121 101 111 121 101 111 121 101 111 121 101 111 121 101 111 121 102 112 122 102 112 122 102 112 122 103 113 123 103 113 123 103 113 123 222 232 242 222 232 242 222 232 242 223 233 243 223 233 243 223 233 243 224 234 244 224 234 244 225 235 245 225 235 245 225 235 245 225 235 245 224 234 244 224 234 244 223 233 243 223 233 243 100 110 120 99 109 119 99 109 119 98 108 118 98 108 118 98 108 118 98 108 118 98 108 118 98 108 118 99 109 119 99 109 119 99 109 119 98 108 118 98 108 118 98 108 118 98 108 118 98 108 118 99 109 119 99 109 119 100 110 120 100 110 120 101 111 121 101 111 121 101 111 121 101 111 121 101 111 121 101 111 121 101 111 121 101 111 121 101 111 121 102 112 122 102 112 122 103 113 123 103 113 123 222 232 242 223 233 243 223 233 243 223 233 243 223 233 243 223 233 243 223 233 243 223 233 243 224 234 244 224 234 244 225 235 245 225 235 245 225 235 245 226 236 246 225 235 245 225 235 245 224 234 244 224 234 244 223 233 243 223 233 243 222 232 242 222 232 242 222 232 242 223 233 243 223 233 243 224 234 244 224 234 244 224 234 244 224 234 244 224 234 244 223 233 243 223 233 243 223 233 243 223 233 243 224 234 244 224 234 244 225 235 245 226 236 246 226 236 246 226 236 246 226 236 246 226 236 246 225 235 245 225 235 245 224 234 244 224 234 244 224 234 244 224 234 244 225 235 245 225 235 245 225 235 245 225 235 245 225 235 245 225 235 245 224 234 244 223 233 243 223 233 243 222 232 242 103 113 123 103 113 123 103 113 123 103 113 123 103 113 123 102 112 122 102 112 122 101 111 121 101 111 121 100 110 120 99 109 119 98 108 118 97 107 117 97 107 117 96 106 116 96 106 116 96 106 116 96 106 116 96 106 116 95 105 115 95 105 115 95 105 115 94 104 114 94 104 114 94 104 114 93 103 113 93 103 113 93 103 113 94 104 114 94 104 114 94 104 114 94 104 114 94 104 114 94 104 114 94 104 114 93 103 113 93 103 113 93 103 113 93 103 113 93 103 113 93 103 113 94 104 114 94 104 114 94 104 114 94 104 114 95 105 115 95 105 115 94 104 114 94 104 114 94 104 114 94 104 114 94 104 114 94 104 114 95 105 115 95 105 115 95 105 115 95 105 115 95 105 115 95 105 115 94 104 114 94 104 114 94 104 114 93 103 113 93 103 113 93 103 113 93 103 113 94 104 114 94 104 114 94 104 114 94 104 114 95 105 115 95 105 115 95 105 115 95 105 115 95 105 115 95 105 115 95 105 115 95 105 115 96 106 116 96 106 116 97 107 117 97 107 117 98 108 118 98 108 118 98 108 118 98 108 118 98 108 118 98 108 118 98 108 118 98 108 118 99 109 119 99 109 119 100 110 120 100 110 120 100 110 120 101 111 121 101 111 121 101 111 121 101 111 121 100 110 120 100 110 120 100 110 120 100 110 120 101 111 121 101 111 121 101 111 121 101 111 121 101 111 121 101 111 121 100 110 120 100 110 120 99 109 119 99 109 119 98 108 118 98 108 118 98 108 118 98 108 118 98 108 118 98 108 118 99 109 119 99 109 119 99 109 119 99 109 119 98 108 118 98 108 118 98 108 118 98 108 118 99 109 119 99 109 119 99 109 119 100 110 120 100 110 120 101 111 121 101 111 121 101 111 121 101 111 121 101 111 121 101 111 121 101 111 121 101 111 121 101 111 121 102 112 122 102 112 122 103 113 123 103 113 123 222 232 242 223 233 243 223 233 243 223 233 243 223 233 243 223 233 243 223 233 243 223 233 243 224 234 244 224 234 244 225 235 245 225 235 245 226 236 246 226 236 246 225 235 245 225 235 245 224 234 244 224 234 244 223 233 243 100 110 120 99 109 119 99 109 119 98 108 118 98 108 118 98 108 118 98 108 118 99 109 119 99 109 119 99 109 119 99 109 119 99 109 119 99 109 119 98 108 118 98 108 118 98 108 118 98 108 118 99 109 119 99 109 119 100 110 120 100 110 120 101 111 121 101 111 121 101 111 121 101 111 121 101 111 121 101 111 121 101 111 121 102 112 122 102 112 122 102 112 122 103 113 123 222 232 242 223 233 243 224 234 244 224 234 244 224 234 244 224 234 244 224 234 244 224 234 244 224 234 244 224 234 244 224 234 244 224 234 244 225 235 245 226 236 246 226 236 246 226 236 246 226 236 246 226 236 246 225 235 245 224 234 244 223 233 243 223 233 243 223 233 243 223 233 243 223 233 243 223 233 243 224 234 244 224 234 244 224 234 244 224 234 244 224 234 244 223 233 243 223 233 243 222 232 242 222 232 242 223 233 243 223 233 243 224 234 244 224 234 244 225 235 245 226 236 246 226 236 246 226 236 246 226 236 246 225 235 245 225 235 245 224 234 244 224 234 244 224 234 244 225 235 245 225 235 245 226 236 246 226 236 246 226 236 246 226 236 246 225 235 245 225 235 245 224 234 244 223 233 243 222 232 242 103 113 123 103 113 123 103 113 123 103 113 123 103 113 123 102 112 122 102 112 122 101 111 121 101 111 121 100 110 120 99 109 119 98 108 118 97 107 117 97 107 117 97 107 117 96 106 116 96 106 116 96 106 116 96 106 116 96 106 116 95 105 115 95 105 115 94 104 114 94 104 114 93 103 113 93 103 113 93 103 113 93 103 113 93 103 113 93 103 113 94 104 114 94 104 114 94 104 114 94 104 114 94 104 114 93 103 113 93 103 113 93 103 113 93 103 113 93 103 113 94 104 114 94 104 114 94 104 114 95 105 115 95 105 115 95 105 115 95 105 115 95 105 115 94 104 114 94 104 114 94 104 114 94 104 114 94 104 114 94 104 114 95 105 115 95 105 115 95 105 115 95 105 115 95 105 115 94 104 114 94 104 114 93 103 113 93 103 113 93 103 113 93 103 113 93 103 113 93 103 113 94 104 114 94 104 114 94 104 114 94 104 114 94 104 114 94 104 114 94 104 114 94 104 114 94 104 114 94 104 114 94 104 114 95 105 115 96 106 116 96 106 116 97 107 117 97 107 117 97 107 117 98 108 118 98 108 118 98 108 118 98 108 118 98 108 118 98 108 118 98 108 118 99 109 119 100 110 120 100 110 120 101 111 121 101 111 121 101 111 121 101 111 121 101 111 121 100 110 120 100 110 120 100 110 120 100 110 120 100 110 120 100 110 120 101 111 121 101 111 121 101 111 121 101 111 121 100 110 120 100 110 120 99 109 119 99 109 119 98 108 118 98 108 118 98 108 118 98 108 118 98 108 118 99 109 119 99 109 119 99 109 119 99 109 119 99 109 119 99 109 119 98 108 118 98 108 118 98 108 118 98 108 118 99 109 119 99 109 119 100 110 120 100 110 120 101 111 121 101 111 121 101 111 121 101 111 121 101 111 121 101 111 121 102 112 122 102 112 122 102 112 122 103 113 123 103 113 123 222 232 242 223 233 243 224 234 244 224 234 244 224 234 244 224 234 244 224 234 244 224 234 244 224 234 244 224 234 244 224 234 244 225 235 245 225 235 245 226 236 246 226 236 246 226 236 246 226 236 246 225 235 245 225 235 245 224 234 244 223 233 243 100 110 120 99 109 119 99 109 119 99 109 119 98 108 118 99 109 119 99 109 119 99 109 119 99 109 119 99 109 119 99 109 119 99 109 119 99 109 119 98 108 118 98 108 118 98 108 118 98 108 118 99 109 119 99 109 119 100 110 120 100 110 120 101 111 121 101 111 121 101 111 121 102 112 122 102 112 122 102 112 122 102 112 122 102 112 122 103 113 123 103 113 123 222 232 242 223 233 243 224 234 244 225 235 245 225 235 245 226 236 246 225 235 245 225 235 245 225 235 245 225 235 245 224 234 244 225 235 245 225 235 245 225 235 245 226 236 246 226 236 246 226 236 246 226 236 246 226 236 246 225 235 245 225 235 245 224 234 244 223 233 243 223 233 243 223 233 243 223 233 243 224 234 244 224 234 244 224 234 244 224 234 244 224 234 244 224 234 244 223 233 243 222 232 242 222 232 242 222 232 242 222 232 242 222 232 242 223 233 243 223 233 243 224 234 244 225 235 245 225 235 245 225 235 245 225 235 245 225 235 245 225 235 245 225 235 245 225 235 245 225 235 245 225 235 245 226 236 246 226 236 246 226 236 246 227 237 247 226 236 246 226 236 246 225 235 245 224 234 244 223 233 243 222 232 242 103 113 123 103 113 123 103 113 123 103 113 123 102 112 122 102 112 122 102 112 122 101 111 121 101 111 121 100 110 120 99 109 119 98 108 118 98 108 118 97 107 117 97 107 117 97 107 117 96 106 116 96 106 116 96 106 116 96 106 116 95 105 115 95 105 115 94 104 114 93 103 113 93 103 113 93 103 113 93 103 113 93 103 113 93 103 113 93 103 113 93 103 113 94 104 114 94 104 114 94 104 114 94 104 114 93 103 113 93 103 113 93 103 113 93 103 113 94 104 114 94 104 114 94 104 114 95 105 115 95 105 115 95 105 115 95 105 115 95 105 115 95 105 115 95 105 115 94 104 114 94 104 114 94 104 114 94 104 114 94 104 114 94 104 114 94 104 114 95 105 115 95 105 115 94 104 114 94 104 114 94 104 114 93 103 113 93 103 113 93 103 113 93 103 113 93 103 113 93 103 113 93 103 113 94 104 114 94 104 114 94 104 114 94 104 114 94 104 114 93 103 113 93 103 113 93 103 113 93 103 113 94 104 114 94 104 114 95 105 115 95 105 115 96 106 116 96 106 116 97 107 117 97 107 117 97 107 117 97 107 117 97 107 117 98 108 118 98 108 118 98 108 118 99 109 119 100 110 120 100 110 120 101 111 121 101 111 121 101 111 121 101 111 121 100 110 120 100 110 120 100 110 120 100 110 120 100 110 120 100 110 120 100 110 120 100 110 120 101 111 121 101 111 121 100 110 120 100 110 120 100 110 120 99 109 119 99 109 119 99 109 119 98 108 118 98 108 118 99 109 119 99 109 119 99 109 119 99 109 119 99 109 119 99 109 119 99 109 119 99 109 119 98 108 118 98 108 118 98 108 118 98 108 118 99 109 119 99 109 119 100 110 120 100 110 120 101 111 121 101 111 121 102 112 122 102 112 122 102 112 122 102 112 122 102 112 122 102 112 122 103 113 123 103 113 123 222 232 242 224 234 244 224 234 244 225 235 245 226 236 246 226 236 246 225 235 245 225 235 245 225 235 245 224 234 244 224 234 244 225 235 245 225 235 245 225 235 245 226 236 246 226 236 246 226 236 246 226 236 246 226 236 246 225 235 245 224 234 244 224 234 244 100 110 120 99 109 119 99 109 119 99 109 119 99 109 119 99 109 119 99 109 119 99 109 119 99 109 119 99 109 119 99 109 119 99 109 119 99 109 119 99 109 119 98 108 118 98 108 118 98 108 118 99 109 119 99 109 119 100 110 120 100 110 120 101 111 121 101 111 121 102 112 122 102 112 122 102 112 122 102 112 122 103 113 123 103 113 123 222 232 242 223 233 243 224 234 244 225 235 245 226 236 246 226 236 246 227 237 247 227 237 247 227 237 247 226 236 246 226 236 246 225 235 245 225 235 245 225 235 245 225 235 245 226 236 246 226 236 246 226 236 246 226 236 246 226 236 246 226 236 246 226 236 246 225 235 245 225 235 245 224 234 244 224 234 244 224 234 244 224 234 244 224 234 244 224 234 244 224 234 244 224 234 244 224 234 244 223 233 243 223 233 243 222 232 242 222 232 242 103 113 123 103 113 123 222 232 242 222 232 242 223 233 243 223 233 243 224 234 244 224 234 244 225 235 245 225 235 245 225 235 245 225 235 245 225 235 245 225 235 245 225 235 245 226 236 246 226 236 246 227 237 247 227 237 247 227 237 247 226 236 246 226 236 246 225 235 245 224 234 244 223 233 243 222 232 242 103 113 123 103 113 123 103 113 123 102 112 122 102 112 122 102 112 122 101 111 121 101 111 121 100 110 120 100 110 120 99 109 119 98 108 118 98 108 118 97 107 117 97 107 117 97 107 117 97 107 117 96 106 116 96 106 116 96 106 116 95 105 115 95 105 115 94 104 114 93 103 113 93 103 113 93 103 113 92 102 112 92 102 112 93 103 113 93 103 113 93 103 113 93 103 113 94 104 114 94 104 114 94 104 114 94 104 114 94 104 114 94 104 114 94 104 114 94 104 114 95 105 115 95 105 115 95 105 115 95 105 115 96 106 116 96 106 116 95 105 115 95 105 115 95 105 115 94 104 114 94 104 114 94 104 114 94 104 114 94 104 114 94 104 114 94 104 114 94 104 114 94 104 114 94 104 114 94 104 114 93 103 113 93 103 113 93 103 113 93 103 113 93 103 113 93 103 113 93 103 113 93 103 113 93 103 113 93 103 113 93 103 113 93 103 113 93 103 113 93 103 113 93 103 113 93 103 113 93 103 113 93 103 113 93 103 113 94 104 114 94 104 114 95 105 115 96 106 116 96 106 116 96 106 116 97 107 117 97 107 117 97 107 117 98 108 118 98 108 118 99 109 119 99 109 119 100 110 120 100 110 120 100 110 120 101 111 121 101 111 121 101 111 121 100 110 120 100 110 120 100 110 120 100 110 120 100 110 120 100 110 120 100 110 120 100 110 120 100 110 120 100 110 120 100 110 120 100 110 120 100 110 120 99 109 119 99 109 119 99 109 119 99 109 119 99 109 119 99 109 119 99 109 119 99 109 119 99 109 119 99 109 119 99 109 119 99 109 119 99 109 119 98 108 118 98 108 118 98 108 118 98 108 118 99 109 119 99 109 119 100 110 120 100 110 120 101 111 121 101 111 121 102 112 122 102 112 122 102 112 122 103 113 123 103 113 123 103 113 123 222 232 242 223 233 243 224 234 244 225 235 245 226 236 246 226 236 246 227 237 247 227 237 247 226 236 246 226 236 246 226 236 246 225 235 245 225 235 245 225 235 245 225 235 245 226 236 246 226 236 246 226 236 246 226 236 246 226 236 246 226 236 246 225 235 245 225 235 245 224 234 244 100 110 120 99 109 119 99 109 119 99 109 119 99 109 119 99 109 119 99 109 119 99 109 119 99 109 119 99 109 119 99 109 119 99 109 119 99 109 119 99 109 119 99 109 119 99 109 119 99 109 119 99 109 119 99 109 119 100 110 120 100 110 120 101 111 121 101 111 121 102 112 122 102 112 122 103 113 123 103 113 123 103 113 123 222 232 242 223 233 243 224 234 244 225 235 245 226 236 246 227 237 247 227 237 247 227 237 247 228 238 248 227 237 247 227 237 247 227 237 247 226 236 246 226 236 246 226 236 246 226 236 246 226 236 246 226 236 246 226 236 246 226 236 246 226 236 246 226 236 246 226 236 246 225 235 245 225 235 245 225 235 245 225 235 245 225 235 245 225 235 245 225 235 245 225 235 245 224 234 244 224 234 244 224 234 244 223 233 243 223 233 243 222 232 242 222 232 242 103 113 123 103 113 123 103 113 123 103 113 123 222 232 242 222 232 242 223 233 243 223 233 243 224 234 244 224 234 244 225 235 245 225 235 245 225 235 245 226 236 246 226 236 246 226 236 246 227 237 247 227 237 247 227 237 247 227 237 247 226 236 246 226 236 246 225 235 245 224 234 244 223 233 243 222 232 242 103 113 123 103 113 123 102 112 122 102 112 122 102 112 122 101 111 121 101 111 121 101 111 121 100 110 120 100 110 120 99 109 119 99 109 119 98 108 118 98 108 118 97 107 117 97 107 117 97 107 117 96 106 116 96 106 116 96 106 116 95 105 115 94 104 114 94 104 114 93 103 113 93 103 113 93 103 113 92 102 112 92 102 112 92 102 112 93 103 113 93 103 113 93 103 113 93 103 113 93 103 113 94 104 114 94 104 114 94 104 114 94 104 114 94 104 114 95 105 115 95 105 115 95 105 115 96 106 116 96 106 116 96 106 116 96 106 116 95 105 115 95 105 115 95 105 115 94 104 114 94 104 114 94 104 114 94 104 114 94 104 114 94 104 114 94 104 114 94 104 114 94 104 114 93 103 113 93 103 113 93 103 113 93 103 113 93 103 113 93 103 113 93 103 113 93 103 113 93 103 113 93 103 113 93 103 113 93 103 113 93 103 113 93 103 113 92 102 112 92 102 112 92 102 112 92 102 112 92 102 112 92 102 112 93 103 113 93 103 113 94 104 114 94 104 114 95 105 115 95 105 115 96 106 116 96 106 116 97 107 117 97 107 117 98 108 118 98 108 118 99 109 119 99 109 119 100 110 120 100 110 120 100 110 120 100 110 120 100 110 120 100 110 120 100 110 120 100 110 120 100 110 120 100 110 120 100 110 120 100 110 120 100 110 120 100 110 120 100 110 120 100 110 120 100 110 120 100 110 120 100 110 120 99 109 119 99 109 119 99 109 119 99 109 119 99 109 119 99 109 119 99 109 119 99 109 119 99 109 119 99 109 119 99 109 119 99 109 119 99 109 119 99 109 119 99 109 119 99 109 119 99 109 119 99 109 119 99 109 119 100 110 120 100 110 120 101 111 121 101 111 121 102 112 122 102 112 122 103 113 123 103 113 123 222 232 242 223 233 243 224 234 244 224 234 244 225 235 245 226 236 246 227 237 247 227 237 247 227 237 247 227 237 247 227 237 247 227 237 247 227 237 247 226 236 246 226 236 246 226 236 246 226 236 246 226 236 246 226 236 246 226 236 246 226 236 246 226 236 246 226 236 246 226 236 246 225 235 245 225 235 245 100 110 120 100 110 120 100 110 120 100 110 120 100 110 120 100 110 120 100 110 120 100 110 120 99 109 119 99 109 119 99 109 119 99 109 119 99 109 119 99 109 119 99 109 119 99 109 119 99 109 119 99 109 119 99 109 119 100 110 120 100 110 120 100 110 120 101 111 121 102 112 122 102 112 122 103 113 123 222 232 242 223 233 243 224 234 244 225 235 245 226 236 246 227 237 247 227 237 247 228 238 248 228 238 248 228 238 248 228 238 248 228 238 248 228 238 248 228 238 248 228 238 248 227 237 247 227 237 247 227 237 247 226 236 246 226 236 246 226 236 246 226 236 246 226 236 246 226 236 246 226 236 246 226 236 246 226 236 246 226 236 246 226 236 246 226 236 246 225 235 245 225 235 245 225 235 245 224 234 244 224 234 244 223 233 243 223 233 243 222 232 242 222 232 242 103 113 123 103 113 123 103 113 123 103 113 123 103 113 123 103 113 123 103 113 123 222 232 242 222 232 242 223 233 243 224 234 244 224 234 244 225 235 245 226 236 246 226 236 246 227 237 247 227 237 247 227 237 247 227 237 247 227 237 247 227 237 247 226 236 246 226 236 246 225 235 245 224 234 244 223 233 243 222 232 242 103 113 123 103 113 123 102 112 122 102 112 122 101 111 121 101 111 121 101 111 121 100 110 120 100 110 120 100 110 120 99 109 119 99 109 119 99 109 119 98 108 118 98 108 118 97 107 117 97 107 117 96 106 116 96 106 116 95 105 115 95 105 115 94 104 114 94 104 114 93 103 113 93 103 113 93 103 113 93 103 113 92 102 112 92 102 112 92 102 112 92 102 112 93 103 113 93 103 113 93 103 113 94 104 114 94 104 114 94 104 114 95 105 115 95 105 115 95 105 115 96 106 116 96 106 116 96 106 116 96 106 116 96 106 116 96 106 116 95 105 115 95 105 115 95 105 115 95 105 115 94 104 114 94 104 114 94 104 114 94 104 114 93 103 113 93 103 113 93 103 113 93 103 113 93 103 113 93 103 113 93 103 113 93 103 113 93 103 113 93 103 113 93 103 113 93 103 113 93 103 113 93 103 113 92 102 112 92 102 112 92 102 112 92 102 112 92 102 112 92 102 112 92 102 112 92 102 112 92 102 112 92 102 112 92 102 112 92 102 112 93 103 113 93 103 113 94 104 114 94 104 114 95 105 115 96 106 116 96 106 116 97 107 117 98 108 118 98 108 118 99 109 119 99 109 119 99 109 119 100 110 120 100 110 120 100 110 120 100 110 120 100 110 120 100 110 120 100 110 120 100 110 120 100 110 120 100 110 120 99 109 119 99 109 119 99 109 119 99 109 119 99 109 119 99 109 119 99 109 119 99 109 119 100 110 120 100 110 120 100 110 120 100 110 120 100 110 120 100 110 120 100 110 120 100 110 120 99 109 119 99 109 119 99 109 119 99 109 119 99 109 119 99 109 119 99 109 119 99 109 119 99 109 119 99 109 119 99 109 119 100 110 120 100 110 120 101 111 121 101 111 121 102 112 122 102 112 122 103 113 123 222 232 242 223 233 243 224 234 244 225 235 245 226 236 246 227 237 247 227 237 247 228 238 248 228 238 248 228 238 248 228 238 248 228 238 248 228 238 248 228 238 248 227 237 247 227 237 247 227 237 247 227 237 247 226 236 246 226 236 246 226 236 246 226 236 246 226 236 246 226 236 246 226 236 246 226 236 246 226 236 246 100 110 120 100 110 120 100 110 120 100 110 120 100 110 120 100 110 120 100 110 120 100 110 120 100 110 120 99 109 119 99 109 119 99 109 119 99 109 119 99 109 119 99 109 119 99 109 119 99 109 119 99 109 119 100 110 120 100 110 120 100 110 120 100 110 120 101 111 121 102 112 122 102 112 122 103 113 123 223 233 243 224 234 244 225 235 245 226 236 246 227 237 247 228 238 248 228 238 248 229 239 249 229 239 249 229 239 249 229 239 249 229 239 249 229 239 249 229 239 249 229 239 249 228 238 248 228 238 248 227 237 247 227 237 247 226 236 246 226 236 246 226 236 246 226 236 246 226 236 246 226 236 246 226 236 246 227 237 247 227 237 247 227 237 247 226 236 246 226 236 246 225 235 245 225 235 245 224 234 244 223 233 243 223 233 243 222 232 242 222 232 242 222 232 242 222 232 242 103 113 123 103 113 123 103 113 123 103 113 123 103 113 123 103 113 123 103 113 123 222 232 242 222 232 242 223 233 243 224 234 244 225 235 245 226 236 246 227 237 247 227 237 247 227 237 247 227 237 247 227 237 247 227 237 247 226 236 246 226 236 246 225 235 245 225 235 245 224 234 244 223 233 243 223 233 243 222 232 242 103 113 123 102 112 122 102 112 122 101 111 121 101 111 121 100 110 120 100 110 120 100 110 120 100 110 120 99 109 119 99 109 119 99 109 119 99 109 119 98 108 118 98 108 118 97 107 117 96 106 116 96 106 116 95 105 115 95 105 115 94 104 114 94 104 114 94 104 114 93 103 113 93 103 113 93 103 113 92 102 112 92 102 112 92 102 112 92 102 112 92 102 112 93 103 113 93 103 113 94 104 114 94 104 114 95 105 115 95 105 115 96 106 116 96 106 116 96 106 116 96 106 116 96 106 116 96 106 116 96 106 116 96 106 116 95 105 115 95 105 115 95 105 115 95 105 115 95 105 115 94 104 114 94 104 114 93 103 113 93 103 113 93 103 113 93 103 113 93 103 113 93 103 113 93 103 113 93 103 113 93 103 113 93 103 113 93 103 113 93 103 113 93 103 113 93 103 113 92 102 112 92 102 112 92 102 112 92 102 112 91 101 111 91 101 111 91 101 111 91 101 111 91 101 111 91 101 111 91 101 111 92 102 112 92 102 112 92 102 112 92 102 112 93 103 113 94 104 114 94 104 114 95 105 115 96 106 116 97 107 117 98 108 118 98 108 118 99 109 119 99 109 119 99 109 119 100 110 120 100 110 120 100 110 120 100 110 120 100 110 120 100 110 120 100 110 120 100 110 120 100 110 120 100 110 120 99 109 119 99 109 119 99 109 119 99 109 119 99 109 119 99 109 119 99 109 119 99 109 119 100 110 120 100 110 120 100 110 120 100 110 120 100 110 120 100 110 120 100 110 120 100 110 120 99 109 119 99 109 119 99 109 119 99 109 119 99 109 119 99 109 119 99 109 119 99 109 119 99 109 119 99 109 119 100 110 120 100 110 120 100 110 120 101 111 121 101 111 121 102 112 122 103 113 123 222 232 242 223 233 243 224 234 244 226 236 246 227 237 247 227 237 247 228 238 248 228 238 248 229 239 249 229 239 249 229 239 249 229 239 249 229 239 249 229 239 249 229 239 249 229 239 249 228 238 248 228 238 248 227 237 247 227 237 247 226 236 246 226 236 246 226 236 246 226 236 246 226 236 246 226 236 246 226 236 246 227 237 247 100 110 120 100 110 120 100 110 120 100 110 120 101 111 121 100 110 120 100 110 120 100 110 120 100 110 120 99 109 119 99 109 119 99 109 119 99 109 119 99 109 119 99 109 119 100 110 120 100 110 120 100 110 120 100 110 120 100 110 120 100 110 120 101 111 121 101 111 121 102 112 122 103 113 123 222 232 242 224 234 244 225 235 245 227 237 247 228 238 248 229 239 249 229 239 249 229 239 249 229 239 249 229 239 249 229 239 249 229 239 249 230 240 250 230 240 250 230 240 250 230 240 250 229 239 249 229 239 249 228 238 248 227 237 247 227 237 247 226 236 246 226 236 246 226 236 246 226 236 246 226 236 246 227 237 247 227 237 247 227 237 247 227 237 247 227 237 247 227 237 247 226 236 246 225 235 245 224 234 244 223 233 243 223 233 243 222 232 242 222 232 242 222 232 242 222 232 242 103 113 123 103 113 123 103 113 123 103 113 123 103 113 123 103 113 123 103 113 123 103 113 123 222 232 242 223 233 243 224 234 244 225 235 245 226 236 246 227 237 247 227 237 247 228 238 248 227 237 247 227 237 247 226 236 246 226 236 246 225 235 245 225 235 245 224 234 244 224 234 244 223 233 243 223 233 243 222 232 242 103 113 123 102 112 122 102 112 122 101 111 121 100 110 120 100 110 120 100 110 120 100 110 120 100 110 120 99 109 119 99 109 119 99 109 119 99 109 119 98 108 118 98 108 118 97 107 117 96 106 116 96 106 116 95 105 115 95 105 115 94 104 114 94 104 114 94 104 114 93 103 113 93 103 113 93 103 113 93 103 113 92 102 112 92 102 112 92 102 112 92 102 112 92 102 112 93 103 113 94 104 114 94 104 114 95 105 115 96 106 116 96 106 116 96 106 116 96 106 116 96 106 116 96 106 116 96 106 116 96 106 116 96 106 116 95 105 115 95 105 115 95 105 115 95 105 115 95 105 115 94 104 114 94 104 114 93 103 113 93 103 113 93 103 113 92 102 112 92 102 112 92 102 112 92 102 112 93 103 113 93 103 113 93 103 113 93 103 113 93 103 113 93 103 113 92 102 112 92 102 112 92 102 112 91 101 111 91 101 111 91 101 111 91 101 111 91 101 111 91 101 111 91 101 111 91 101 111 91 101 111 91 101 111 91 101 111 91 101 111 92 102 112 92 102 112 93 103 113 94 104 114 95 105 115 96 106 116 97 107 117 97 107 117 98 108 118 99 109 119 99 109 119 99 109 119 99 109 119 99 109 119 99 109 119 99 109 119 100 110 120 100 110 120 100 110 120 100 110 120 100 110 120 100 110 120 99 109 119 99 109 119 99 109 119 99 109 119 98 108 118 99 109 119 99 109 119 99 109 119 100 110 120 100 110 120 100 110 120 100 110 120 100 110 120 100 110 120 100 110 120 100 110 120 100 110 120 99 109 119 99 109 119 99 109 119 99 109 119 99 109 119 100 110 120 100 110 120 100 110 120 100 110 120 100 110 120 100 110 120 100 110 120 101 111 121 101 111 121 102 112 122 103 113 123 222 232 242 224 234 244 226 236 246 227 237 247 228 238 248 229 239 249 229 239 249 229 239 249 229 239 249 229 239 249 229 239 249 229 239 249 230 240 250 230 240 250 230 240 250 230 240 250 229 239 249 229 239 249 228 238 248 227 237 247 227 237 247 226 236 246 226 236 246 226 236 246 226 236 246 227 237 247 227 237 247 227 237 247 100 110 120 100 110 120 100 110 120 101 111 121 101 111 121 101 111 121 100 110 120 100 110 120 100 110 120 99 109 119 99 109 119 99 109 119 99 109 119 100 110 120 100 110 120 100 110 120 100 110 120 100 110 120 100 110 120 100 110 120 100 110 120 101 111 121 101 111 121 102 112 122 103 113 123 222 232 242 224 234 244 226 236 246 228 238 248 229 239 249 230 240 250 230 240 250 230 240 250 230 240 250 230 240 250 230 240 250 230 240 250 230 240 250 230 240 250 230 240 250 230 240 250 230 240 250 230 240 250 229 239 249 228 238 248 227 237 247 226 236 246 226 236 246 226 236 246 226 236 246 227 237 247 227 237 247 228 238 248 228 238 248 228 238 248 228 238 248 227 237 247 226 236 246 225 235 245 224 234 244 223 233 243 223 233 243 222 232 242 222 232 242 222 232 242 222 232 242 103 113 123 103 113 123 103 113 123 103 113 123 102 112 122 102 112 122 102 112 122 103 113 123 103 113 123 222 232 242 224 234 244 225 235 245 226 236 246 227 237 247 228 238 248 228 238 248 227 237 247 227 237 247 226 236 246 226 236 246 225 235 245 225 235 245 224 234 244 224 234 244 223 233 243 223 233 243 222 232 242 103 113 123 102 112 122 102 112 122 101 111 121 100 110 120 100 110 120 100 110 120 99 109 119 99 109 119 100 110 120 100 110 120 99 109 119 99 109 119 99 109 119 98 108 118 97 107 117 96 106 116 96 106 116 95 105 115 95 105 115 94 104 114 94 104 114 94 104 114 94 104 114 93 103 113 93 103 113 93 103 113 92 102 112 92 102 112 92 102 112 92 102 112 92 102 112 93 103 113 94 104 114 95 105 115 95 105 115 96 106 116 96 106 116 97 107 117 97 107 117 96 106 116 96 106 116 96 106 116 96 106 116 96 106 116 95 105 115 95 105 115 95 105 115 95 105 115 95 105 115 94 104 114 94 104 114 93 103 113 93 103 113 92 102 112 92 102 112 92 102 112 92 102 112 92 102 112 92 102 112 93 103 113 93 103 113 93 103 113 93 103 113 93 103 113 92 102 112 92 102 112 91 101 111 91 101 111 91 101 111 90 100 110 90 100 110 90 100 110 91 101 111 91 101 111 91 101 111 91 101 111 91 101 111 91 101 111 91 101 111 91 101 111 91 101 111 92 102 112 93 103 113 94 104 114 95 105 115 96 106 116 97 107 117 98 108 118 98 108 118 99 109 119 99 109 119 99 109 119 99 109 119 99 109 119 99 109 119 99 109 119 99 109 119 100 110 120 100 110 120 100 110 120 99 109 119 99 109 119 99 109 119 99 109 119 98 108 118 98 108 118 98 108 118 99 109 119 99 109 119 100 110 120 100 110 120 101 111 121 101 111 121 101 111 121 101 111 121 100 110 120 100 110 120 100 110 120 99 109 119 99 109 119 99 109 119 99 109 119 100 110 120 100 110 120 100 110 120 100 110 120 100 110 120 100 110 120 100 110 120 100 110 120 101 111 121 101 111 121 102 112 122 103 113 123 223 233 243 225 235 245 227 237 247 228 238 248 229 239 249 230 240 250 230 240 250 230 240 250 230 240 250 230 240 250 230 240 250 230 240 250 230 240 250 230 240 250 230 240 250 230 240 250 230 240 250 229 239 249 229 239 249 228 238 248 227 237 247 226 236 246 226 236 246 226 236 246 226 236 246 227 237 247 227 237 247 228 238 248 100 110 120 100 110 120 100 110 120 101 111 121 101 111 121 101 111 121 101 111 121 100 110 120 100 110 120 100 110 120 100 110 120 100 110 120 100 110 120 100 110 120 100 110 120 100 110 120 100 110 120 100 110 120 101 111 121 101 111 121 101 111 121 101 111 121 102 112 122 102 112 122 103 113 123 223 233 243 225 235 245 227 237 247 228 238 248 230 240 250 230 240 250 231 241 251 231 241 251 231 241 251 231 241 251 231 241 251 231 241 251 231 241 251 231 241 251 231 241 251 231 241 251 231 241 251 230 240 250 229 239 249 228 238 248 228 238 248 227 237 247 226 236 246 226 236 246 227 237 247 227 237 247 228 238 248 228 238 248 228 238 248 228 238 248 228 238 248 227 237 247 226 236 246 225 235 245 224 234 244 223 233 243 223 233 243 222 232 242 222 232 242 222 232 242 222 232 242 103 113 123 103 113 123 103 113 123 103 113 123 102 112 122 102 112 122 102 112 122 103 113 123 103 113 123 222 232 242 223 233 243 225 235 245 226 236 246 227 237 247 227 237 247 227 237 247 227 237 247 227 237 247 226 236 246 225 235 245 225 235 245 224 234 244 224 234 244 224 234 244 223 233 243 223 233 243 222 232 242 103 113 123 102 112 122 101 111 121 101 111 121 100 110 120 100 110 120 99 109 119 99 109 119 99 109 119 100 110 120 100 110 120 99 109 119 99 109 119 99 109 119 98 108 118 97 107 117 97 107 117 96 106 116 95 105 115 95 105 115 94 104 114 94 104 114 94 104 114 94 104 114 94 104 114 93 103 113 93 103 113 92 102 112 92 102 112 92 102 112 92 102 112 93 103 113 93 103 113 94 104 114 95 105 115 95 105 115 96 106 116 96 106 116 97 107 117 97 107 117 97 107 117 96 106 116 96 106 116 96 106 116 96 106 116 95 105 115 95 105 115 95 105 115 95 105 115 95 105 115 94 104 114 94 104 114 93 103 113 93 103 113 92 102 112 92 102 112 92 102 112 92 102 112 92 102 112 92 102 112 92 102 112 93 103 113 93 103 113 93 103 113 92 102 112 92 102 112 91 101 111 91 101 111 90 100 110 90 100 110 90 100 110 90 100 110 90 100 110 90 100 110 90 100 110 90 100 110 90 100 110 90 100 110 90 100 110 90 100 110 91 101 111 91 101 111 92 102 112 93 103 113 94 104 114 95 105 115 96 106 116 97 107 117 98 108 118 98 108 118 98 108 118 98 108 118 98 108 118 99 109 119 99 109 119 99 109 119 99 109 119 99 109 119 99 109 119 99 109 119 99 109 119 99 109 119 99 109 119 99 109 119 98 108 118 98 108 118 98 108 118 98 108 118 99 109 119 99 109 119 100 110 120 100 110 120 101 111 121 101 111 121 101 111 121 101 111 121 100 110 120 100 110 120 100 110 120 100 110 120 100 110 120 100 110 120 100 110 120 100 110 120 100 110 120 100 110 120 100 110 120 100 110 120 101 111 121 101 111 121 101 111 121 101 111 121 102 112 122 103 113 123 222 232 242 224 234 244 226 236 246 227 237 247 229 239 249 230 240 250 231 241 251 231 241 251 231 241 251 231 241 251 231 241 251 231 241 251 231 241 251 231 241 251 231 241 251 231 241 251 231 241 251 231 241 251 230 240 250 229 239 249 228 238 248 227 237 247 227 237 247 226 236 246 226 236 246 227 237 247 227 237 247 228 238 248 228 238 248 100 110 120 100 110 120 100 110 120 101 111 121 101 111 121 101 111 121 101 111 121 100 110 120 100 110 120 100 110 120 100 110 120 100 110 120 100 110 120 100 110 120 100 110 120 101 111 121 101 111 121 101 111 121 101 111 121 101 111 121 101 111 121 102 112 122 102 112 122 103 113 123 222 232 242 224 234 244 226 236 246 227 237 247 229 239 249 230 240 250 231 241 251 231 241 251 231 241 251 232 242 252 231 241 251 231 241 251 231 241 251 232 242 252 232 242 252 232 242 252 232 242 252 231 241 251 231 241 251 230 240 250 229 239 249 228 238 248 228 238 248 227 237 247 227 237 247 227 237 247 227 237 247 228 238 248 228 238 248 228 238 248 228 238 248 228 238 248 227 237 247 226 236 246 225 235 245 224 234 244 223 233 243 223 233 243 222 232 242 222 232 242 222 232 242 103 113 123 103 113 123 103 113 123 103 113 123 103 113 123 102 112 122 102 112 122 102 112 122 103 113 123 103 113 123 222 232 242 223 233 243 224 234 244 225 235 245 226 236 246 227 237 247 227 237 247 227 237 247 226 236 246 226 236 246 225 235 245 225 235 245 224 234 244 224 234 244 223 233 243 223 233 243 222 232 242 103 113 123 103 113 123 102 112 122 101 111 121 101 111 121 100 110 120 100 110 120 100 110 120 99 109 119 99 109 119 100 110 120 100 110 120 99 109 119 99 109 119 99 109 119 98 108 118 97 107 117 97 107 117 96 106 116 95 105 115 95 105 115 95 105 115 94 104 114 94 104 114 94 104 114 94 104 114 93 103 113 93 103 113 93 103 113 92 102 112 92 102 112 93 103 113 93 103 113 93 103 113 94 104 114 95 105 115 95 105 115 96 106 116 96 106 116 97 107 117 97 107 117 97 107 117 96 106 116 96 106 116 96 106 116 96 106 116 96 106 116 95 105 115 95 105 115 95 105 115 95 105 115 94 104 114 94 104 114 93 103 113 93 103 113 92 102 112 92 102 112 92 102 112 92 102 112 92 102 112 92 102 112 92 102 112 92 102 112 92 102 112 92 102 112 92 102 112 92 102 112 91 101 111 91 101 111 90 100 110 90 100 110 90 100 110 90 100 110 90 100 110 90 100 110 90 100 110 90 100 110 90 100 110 90 100 110 90 100 110 90 100 110 90 100 110 91 101 111 91 101 111 92 102 112 93 103 113 94 104 114 95 105 115 96 106 116 97 107 117 98 108 118 98 108 118 98 108 118 98 108 118 98 108 118 98 108 118 98 108 118 99 109 119 99 109 119 99 109 119 99 109 119 99 109 119 99 109 119 99 109 119 99 109 119 98 108 118 98 108 118 98 108 118 98 108 118 99 109 119 99 109 119 100 110 120 100 110 120 101 111 121 101 111 121 101 111 121 101 111 121 101 111 121 100 110 120 100 110 120 100 110 120 100 110 120 100 110 120 100 110 120 100 110 120 100 110 120 101 111 121 101 111 121 101 111 121 101 111 121 101 111 121 101 111 121 102 112 122 102 112 122 103 113 123 223 233 243 224 234 244 226 236 246 228 238 248 229 239 249 230 240 250 231 241 251 231 241 251 232 242 252 231 241 251 231 241 251 231 241 251 232 242 252 232 242 252 232 242 252 232 242 252 231 241 251 231 241 251 230 240 250 230 240 250 229 239 249 228 238 248 227 237 247 227 237 247 227 237 247 227 237 247 228 238 248 228 238 248 228 238 248 100 110 120 100 110 120 100 110 120 101 111 121 101 111 121 101 111 121 101 111 121 101 111 121 100 110 120 100 110 120 100 110 120 100 110 120 100 110 120 100 110 120 101 111 121 101 111 121 101 111 121 101 111 121 101 111 121 102 112 122 102 112 122 102 112 122 103 113 123 222 232 242 223 233 243 225 235 245 226 236 246 228 238 248 229 239 249 230 240 250 231 241 251 232 242 252 232 242 252 232 242 252 232 242 252 232 242 252 232 242 252 232 242 252 232 242 252 232 242 252 232 242 252 231 241 251 231 241 251 230 240 250 230 240 250 229 239 249 228 238 248 228 238 248 228 238 248 228 238 248 228 238 248 228 238 248 228 238 248 228 238 248 228 238 248 228 238 248 227 237 247 226 236 246 225 235 245 225 235 245 224 234 244 223 233 243 222 232 242 222 232 242 222 232 242 103 113 123 103 113 123 103 113 123 103 113 123 103 113 123 102 112 122 102 112 122 103 113 123 103 113 123 103 113 123 222 232 242 223 233 243 224 234 244 225 235 245 226 236 246 226 236 246 226 236 246 226 236 246 226 236 246 225 235 245 225 235 245 225 235 245 224 234 244 224 234 244 223 233 243 222 232 242 222 232 242 103 113 123 103 113 123 102 112 122 101 111 121 101 111 121 100 110 120 100 110 120 100 110 120 100 110 120 100 110 120 99 109 119 99 109 119 99 109 119 99 109 119 98 108 118 98 108 118 97 107 117 97 107 117 96 106 116 96 106 116 95 105 115 95 105 115 95 105 115 94 104 114 94 104 114 94 104 114 93 103 113 93 103 113 93 103 113 93 103 113 93 103 113 93 103 113 93 103 113 94 104 114 94 104 114 95 105 115 95 105 115 96 106 116 96 106 116 97 107 117 97 107 117 97 107 117 96 106 116 96 106 116 96 106 116 96 106 116 96 106 116 95 105 115 95 105 115 95 105 115 94 104 114 94 104 114 94 104 114 93 103 113 93 103 113 92 102 112 92 102 112 92 102 112 92 102 112 92 102 112 92 102 112 92 102 112 92 102 112 92 102 112 92 102 112 91 101 111 91 101 111 91 101 111 90 100 110 90 100 110 90 100 110 90 100 110 89 99 109 89 99 109 89 99 109 89 99 109 89 99 109 89 99 109 89 99 109 90 100 110 90 100 110 90 100 110 91 101 111 91 101 111 92 102 112 93 103 113 94 104 114 95 105 115 96 106 116 96 106 116 97 107 117 97 107 117 98 108 118 98 108 118 98 108 118 98 108 118 98 108 118 98 108 118 99 109 119 99 109 119 99 109 119 99 109 119 99 109 119 99 109 119 98 108 118 98 108 118 98 108 118 98 108 118 99 109 119 99 109 119 99 109 119 100 110 120 100 110 120 100 110 120 101 111 121 101 111 121 101 111 121 101 111 121 101 111 121 100 110 120 100 110 120 100 110 120 100 110 120 100 110 120 101 111 121 101 111 121 101 111 121 101 111 121 101 111 121 101 111 121 102 112 122 102 112 122 102 112 122 103 113 123 222 232 242 224 234 244 225 235 245 227 237 247 228 238 248 230 240 250 231 241 251 231 241 251 232 242 252 232 242 252 232 242 252 232 242 252 232 242 252 232 242 252 232 242 252 232 242 252 232 242 252 232 242 252 231 241 251 231 241 251 230 240 250 229 239 249 229 239 249 228 238 248 228 238 248 228 238 248 228 238 248 228 238 248 228 238 248 228 238 248 100 110 120 100 110 120 100 110 120 100 110 120 100 110 120 101 111 121 101 111 121 101 111 121 101 111 121 101 111 121 101 111 121 101 111 121 101 111 121 101 111 121 101 111 121 101 111 121 101 111 121 101 111 121 102 112 122 102 112 122 103 113 123 103 113 123 222 232 242 223 233 243 224 234 244 226 236 246 227 237 247 228 238 248 229 239 249 230 240 250 231 241 251 232 242 252 232 242 252 233 243 253 233 243 253 233 243 253 233 243 253 233 243 253 233 243 253 232 242 252 232 242 252 232 242 252 231 241 251 231 241 251 230 240 250 230 240 250 229 239 249 229 239 249 229 239 249 229 239 249 228 238 248 228 238 248 228 238 248 228 238 248 228 238 248 227 237 247 227 237 247 226 236 246 226 236 246 225 235 245 224 234 244 223 233 243 223 233 243 222 232 242 222 232 242 103 113 123 103 113 123 103 113 123 103 113 123 103 113 123 103 113 123 103 113 123 103 113 123 103 113 123 103 113 123 222 232 242 223 233 243 223 233 243 224 234 244 225 235 245 225 235 245 225 235 245 225 235 245 225 235 245 225 235 245 225 235 245 224 234 244 224 234 244 223 233 243 223 233 243 222 232 242 103 113 123 103 113 123 102 112 122 102 112 122 101 111 121 101 111 121 101 111 121 100 110 120 100 110 120 100 110 120 100 110 120 99 109 119 99 109 119 99 109 119 99 109 119 98 108 118 98 108 118 97 107 117 97 107 117 96 106 116 96 106 116 96 106 116 95 105 115 95 105 115 94 104 114 94 104 114 94 104 114 94 104 114 93 103 113 93 103 113 93 103 113 93 103 113 94 104 114 94 104 114 94 104 114 95 105 115 95 105 115 95 105 115 96 106 116 96 106 116 96 106 116 96 106 116 96 106 116 96 106 116 96 106 116 96 106 116 96 106 116 96 106 116 95 105 115 95 105 115 95 105 115 94 104 114 94 104 114 93 103 113 93 103 113 93 103 113 92 102 112 92 102 112 92 102 112 92 102 112 92 102 112 92 102 112 91 101 111 91 101 111 91 101 111 91 101 111 91 101 111 91 101 111 90 100 110 90 100 110 90 100 110 90 100 110 89 99 109 89 99 109 89 99 109 89 99 109 89 99 109 89 99 109 89 99 109 89 99 109 89 99 109 90 100 110 90 100 110 91 101 111 91 101 111 92 102 112 93 103 113 93 103 113 94 104 114 95 105 115 96 106 116 96 106 116 97 107 117 97 107 117 97 107 117 98 108 118 98 108 118 98 108 118 98 108 118 98 108 118 98 108 118 98 108 118 98 108 118 98 108 118 98 108 118 98 108 118 98 108 118 98 108 118 99 109 119 99 109 119 99 109 119 99 109 119 100 110 120 100 110 120 100 110 120 100 110 120 100 110 120 101 111 121 101 111 121 101 111 121 101 111 121 101 111 121 101 111 121 101 111 121 101 111 121 101 111 121 101 111 121 101 111 121 101 111 121 102 112 122 102 112 122 102 112 122 103 113 123 103 113 123 222 232 242 223 233 243 225 235 245 226 236 246 227 237 247 228 238 248 230 240 250 231 241 251 231 241 251 232 242 252 233 243 253 233 243 253 233 243 253 233 243 253 233 243 253 233 243 253 233 243 253 232 242 252 232 242 252 231 241 251 231 241 251 231 241 251 230 240 250 230 240 250 229 239 249 229 239 249 229 239 249 229 239 249 228 238 248 228 238 248 228 238 248 100 110 120 100 110 120 100 110 120 100 110 120 100 110 120 100 110 120 101 111 121 101 111 121 101 111 121 101 111 121 101 111 121 101 111 121 101 111 121 101 111 121 101 111 121 101 111 121 102 112 122 102 112 122 102 112 122 103 113 123 103 113 123 222 232 242 223 233 243 224 234 244 225 235 245 226 236 246 227 237 247 228 238 248 229 239 249 230 240 250 231 241 251 232 242 252 233 243 253 233 243 253 234 244 254 234 244 254 234 244 254 234 244 254 233 243 253 233 243 253 232 242 252 232 242 252 231 241 251 231 241 251 231 241 251 231 241 251 230 240 250 230 240 250 230 240 250 229 239 249 229 239 249 229 239 249 228 238 248 228 238 248 227 237 247 227 237 247 226 236 246 226 236 246 226 236 246 225 235 245 225 235 245 224 234 244 223 233 243 222 232 242 222 232 242 103 113 123 103 113 123 103 113 123 103 113 123 103 113 123 103 113 123 103 113 123 103 113 123 103 113 123 222 232 242 222 232 242 222 232 242 223 233 243 223 233 243 223 233 243 224 234 244 224 234 244 225 235 245 225 235 245 225 235 245 225 235 245 224 234 244 224 234 244 223 233 243 222 232 242 103 113 123 103 113 123 103 113 123 102 112 122 102 112 122 101 111 121 101 111 121 101 111 121 101 111 121 100 110 120 100 110 120 100 110 120 99 109 119 99 109 119 99 109 119 98 108 118 98 108 118 98 108 118 97 107 117 97 107 117 97 107 117 96 106 116 96 106 116 95 105 115 95 105 115 95 105 115 94 104 114 94 104 114 94 104 114 94 104 114 94 104 114 94 104 114 94 104 114 94 104 114 94 104 114 95 105 115 95 105 115 95 105 115 95 105 115 95 105 115 96 106 116 96 106 116 96 106 116 96 106 116 96 106 116 96 106 116 96 106 116 96 106 116 96 106 116 95 105 115 95 105 115 94 104 114 94 104 114 94 104 114 93 103 113 93 103 113 93 103 113 93 103 113 92 102 112 92 102 112 92 102 112 92 102 112 91 101 111 91 101 111 91 101 111 91 101 111 91 101 111 90 100 110 90 100 110 90 100 110 90 100 110 90 100 110 90 100 110 89 99 109 89 99 109 89 99 109 89 99 109 88 98 108 88 98 108 89 99 109 89 99 109 89 99 109 90 100 110 90 100 110 91 101 111 91 101 111 92 102 112 92 102 112 93 103 113 93 103 113 94 104 114 95 105 115 95 105 115 96 106 116 96 106 116 97 107 117 97 107 117 98 108 118 98 108 118 98 108 118 98 108 118 98 108 118 98 108 118 98 108 118 98 108 118 98 108 118 98 108 118 98 108 118 99 109 119 99 109 119 99 109 119 99 109 119 99 109 119 100 110 120 100 110 120 100 110 120 100 110 120 100 110 120 100 110 120 101 111 121 101 111 121 101 111 121 101 111 121 101 111 121 101 111 121 101 111 121 101 111 121 101 111 121 101 111 121 102 112 122 102 112 122 102 112 122 103 113 123 103 113 123 223 233 243 224 234 244 225 235 245 226 236 246 227 237 247 228 238 248 229 239 249 229 239 249 230 240 250 231 241 251 232 242 252 233 243 253 233 243 253 234 244 254 234 244 254 234 244 254 233 243 253 233 243 253 233 243 253 232 242 252 232 242 252 231 241 251 231 241 251 231 241 251 231 241 251 230 240 250 230 240 250 230 240 250 229 239 249 229 239 249 228 238 248 228 238 248 100 110 120 99 109 119 100 110 120 100 110 120 100 110 120 100 110 120 101 111 121 101 111 121 101 111 121 101 111 121 102 112 122 102 112 122 102 112 122 102 112 122 102 112 122 102 112 122 102 112 122 102 112 122 103 113 123 103 113 123 223 233 243 224 234 244 225 235 245 226 236 246 226 236 246 227 237 247 228 238 248 228 238 248 229 239 249 230 240 250 231 241 251 232 242 252 233 243 253 234 244 254 234 244 254 234 244 254 234 244 254 234 244 254 233 243 253 233 243 253 232 242 252 232 242 252 232 242 252 232 242 252 231 241 251 231 241 251 231 241 251 231 241 251 231 241 251 230 240 250 230 240 250 229 239 249 228 238 248 227 237 247 227 237 247 226 236 246 226 236 246 226 236 246 226 236 246 225 235 245 225 235 245 224 234 244 223 233 243 223 233 243 222 232 242 103 113 123 103 113 123 103 113 123 103 113 123 103 113 123 103 113 123 103 113 123 222 232 242 222 232 242 222 232 242 222 232 242 222 232 242 222 232 242 222 232 242 222 232 242 223 233 243 223 233 243 224 234 244 224 234 244 224 234 244 224 234 244 224 234 244 223 233 243 223 233 243 222 232 242 103 113 123 103 113 123 102 112 122 102 112 122 102 112 122 102 112 122 101 111 121 101 111 121 101 111 121 101 111 121 100 110 120 100 110 120 99 109 119 99 109 119 98 108 118 98 108 118 98 108 118 98 108 118 97 107 117 97 107 117 97 107 117 97 107 117 96 106 116 96 106 116 95 105 115 95 105 115 94 104 114 94 104 114 94 104 114 94 104 114 94 104 114 94 104 114 95 105 115 95 105 115 95 105 115 95 105 115 95 105 115 95 105 115 95 105 115 95 105 115 95 105 115 96 106 116 96 106 116 96 106 116 96 106 116 96 106 116 96 106 116 96 106 116 96 106 116 95 105 115 95 105 115 94 104 114 94 104 114 93 103 113 93 103 113 93 103 113 93 103 113 93 103 113 93 103 113 92 102 112 92 102 112 92 102 112 91 101 111 91 101 111 90 100 110 90 100 110 90 100 110 90 100 110 90 100 110 90 100 110 90 100 110 90 100 110 89 99 109 89 99 109 89 99 109 89 99 109 88 98 108 88 98 108 88 98 108 88 98 108 89 99 109 89 99 109 90 100 110 90 100 110 91 101 111 91 101 111 92 102 112 92 102 112 92 102 112 93 103 113 93 103 113 94 104 114 94 104 114 95 105 115 96 106 116 96 106 116 97 107 117 97 107 117 97 107 117 97 107 117 97 107 117 97 107 117 97 107 117 97 107 117 98 108 118 98 108 118 98 108 118 99 109 119 99 109 119 99 109 119 99 109 119 99 109 119 100 110 120 99 109 119 100 110 120 100 110 120 100 110 120 100 110 120 100 110 120 101 111 121 101 111 121 101 111 121 102 112 122 102 112 122 102 112 122 102 112 122 102 112 122 102 112 122 102 112 122 102 112 122 102 112 122 103 113 123 222 232 242 223 233 243 224 234 244 225 235 245 226 236 246 227 237 247 227 237 247 228 238 248 229 239 249 229 239 249 230 240 250 231 241 251 232 242 252 233 243 253 234 244 254 234 244 254 234 244 254 234 244 254 234 244 254 233 243 253 233 243 253 232 242 252 232 242 252 232 242 252 231 241 251 231 241 251 231 241 251 231 241 251 231 241 251 231 241 251 230 240 250 229 239 249 228 238 248 228 238 248 100 110 120 99 109 119 99 109 119 99 109 119 100 110 120 100 110 120 100 110 120 101 111 121 101 111 121 102 112 122 102 112 122 102 112 122 102 112 122 102 112 122 102 112 122 102 112 122 102 112 122 103 113 123 103 113 123 223 233 243 224 234 244 225 235 245 226 236 246 227 237 247 227 237 247 228 238 248 228 238 248 229 239 249 229 239 249 230 240 250 231 241 251 232 242 252 233 243 253 234 244 254 234 244 254 235 245 255 235 245 255 234 244 254 234 244 254 233 243 253 233 243 253 232 242 252 232 242 252 232 242 252 232 242 252 232 242 252 232 242 252 232 242 252 232 242 252 231 241 251 230 240 250 229 239 249 228 238 248 227 237 247 226 236 246 226 236 246 226 236 246 226 236 246 226 236 246 226 236 246 225 235 245 225 235 245 224 234 244 223 233 243 222 232 242 103 113 123 103 113 123 103 113 123 103 113 123 103 113 123 103 113 123 222 232 242 222 232 242 222 232 242 222 232 242 222 232 242 222 232 242 222 232 242 103 113 123 103 113 123 222 232 242 222 232 242 223 233 243 223 233 243 223 233 243 224 234 244 223 233 243 223 233 243 222 232 242 103 113 123 103 113 123 102 112 122 102 112 122 102 112 122 102 112 122 102 112 122 102 112 122 101 111 121 101 111 121 101 111 121 100 110 120 100 110 120 99 109 119 98 108 118 98 108 118 98 108 118 97 107 117 97 107 117 97 107 117 97 107 117 97 107 117 97 107 117 97 107 117 96 106 116 96 106 116 95 105 115 95 105 115 94 104 114 94 104 114 94 104 114 95 105 115 95 105 115 95 105 115 95 105 115 96 106 116 96 106 116 95 105 115 95 105 115 95 105 115 95 105 115 95 105 115 95 105 115 95 105 115 96 106 116 96 106 116 96 106 116 96 106 116 96 106 116 96 106 116 95 105 115 95 105 115 94 104 114 94 104 114 93 103 113 93 103 113 93 103 113 93 103 113 93 103 113 93 103 113 93 103 113 92 102 112 92 102 112 91 101 111 90 100 110 90 100 110 90 100 110 89 99 109 89 99 109 89 99 109 89 99 109 89 99 109 89 99 109 89 99 109 89 99 109 89 99 109 88 98 108 88 98 108 88 98 108 88 98 108 88 98 108 89 99 109 89 99 109 90 100 110 90 100 110 91 101 111 91 101 111 92 102 112 92 102 112 92 102 112 92 102 112 93 103 113 93 103 113 94 104 114 94 104 114 95 105 115 96 106 116 96 106 116 97 107 117 97 107 117 97 107 117 97 107 117 97 107 117 97 107 117 97 107 117 97 107 117 98 108 118 98 108 118 99 109 119 99 109 119 99 109 119 100 110 120 100 110 120 100 110 120 99 109 119 99 109 119 99 109 119 100 110 120 100 110 120 100 110 120 101 111 121 101 111 121 102 112 122 102 112 122 102 112 122 102 112 122 102 112 122 102 112 122 102 112 122 102 112 122 103 113 123 103 113 123 222 232 242 223 233 243 224 234 244 225 235 245 226 236 246 227 237 247 228 238 248 228 238 248 228 238 248 229 239 249 229 239 249 230 240 250 231 241 251 232 242 252 233 243 253 234 244 254 234 244 254 235 245 255 235 245 255 234 244 254 234 244 254 233 243 253 233 243 253 232 242 252 232 242 252 232 242 252 232 242 252 232 242 252 232 242 252 232 242 252 231 241 251 231 241 251 230 240 250 229 239 249 228 238 248 100 110 120 99 109 119 99 109 119 99 109 119 100 110 120 100 110 120 100 110 120 101 111 121 102 112 122 102 112 122 102 112 122 102 112 122 102 112 122 102 112 122 102 112 122 103 113 123 103 113 123 222 232 242 223 233 243 224 234 244 225 235 245 226 236 246 227 237 247 228 238 248 228 238 248 229 239 249 229 239 249 229 239 249 229 239 249 230 240 250 231 241 251 232 242 252 233 243 253 234 244 254 234 244 254 235 245 255 235 245 255 235 245 255 234 244 254 234 244 254 233 243 253 233 243 253 233 243 253 233 243 253 233 243 253 233 243 253 233 243 253 233 243 253 232 242 252 231 241 251 230 240 250 229 239 249 228 238 248 227 237 247 226 236 246 226 236 246 226 236 246 226 236 246 226 236 246 226 236 246 225 235 245 225 235 245 224 234 244 223 233 243 222 232 242 103 113 123 103 113 123 103 113 123 103 113 123 103 113 123 222 232 242 222 232 242 223 233 243 223 233 243 222 232 242 222 232 242 222 232 242 103 113 123 103 113 123 103 113 123 103 113 123 103 113 123 222 232 242 222 232 242 223 233 243 223 233 243 223 233 243 222 232 242 103 113 123 103 113 123 103 113 123 102 112 122 102 112 122 102 112 122 102 112 122 102 112 122 102 112 122 102 112 122 101 111 121 101 111 121 100 110 120 100 110 120 99 109 119 98 108 118 98 108 118 98 108 118 97 107 117 97 107 117 97 107 117 97 107 117 97 107 117 97 107 117 97 107 117 96 106 116 96 106 116 95 105 115 95 105 115 95 105 115 95 105 115 95 105 115 95 105 115 96 106 116 96 106 116 96 106 116 96 106 116 96 106 116 96 106 116 95 105 115 95 105 115 95 105 115 95 105 115 95 105 115 95 105 115 95 105 115 96 106 116 96 106 116 96 106 116 96 106 116 95 105 115 95 105 115 94 104 114 94 104 114 94 104 114 93 103 113 93 103 113 93 103 113 93 103 113 93 103 113 93 103 113 93 103 113 92 102 112 92 102 112 91 101 111 90 100 110 90 100 110 89 99 109 89 99 109 89 99 109 89 99 109 89 99 109 89 99 109 89 99 109 89 99 109 89 99 109 89 99 109 88 98 108 88 98 108 88 98 108 88 98 108 88 98 108 89 99 109 89 99 109 90 100 110 90 100 110 91 101 111 91 101 111 91 101 111 91 101 111 91 101 111 92 102 112 92 102 112 92 102 112 93 103 113 94 104 114 94 104 114 95 105 115 96 106 116 96 106 116 96 106 116 97 107 117 97 107 117 97 107 117 97 107 117 97 107 117 97 107 117 98 108 118 98 108 118 99 109 119 99 109 119 100 110 120 100 110 120 100 110 120 100 110 120 99 109 119 99 109 119 99 109 119 99 109 119 100 110 120 100 110 120 101 111 121 101 111 121 102 112 122 102 112 122 102 112 122 102 112 122 102 112 122 102 112 122 103 113 123 103 113 123 103 113 123 222 232 242 223 233 243 224 234 244 226 236 246 227 237 247 228 238 248 228 238 248 228 238 248 229 239 249 229 239 249 229 239 249 230 240 250 230 240 250 231 241 251 232 242 252 233 243 253 234 244 254 235 245 255 235 245 255 235 245 255 234 244 254 234 244 254 233 243 253 233 243 253 233 243 253 233 243 253 233 243 253 233 243 253 233 243 253 233 243 253 233 243 253 232 242 252 231 241 251 230 240 250 229 239 249 228 238 248 100 110 120 99 109 119 99 109 119 99 109 119 100 110 120 100 110 120 100 110 120 101 111 121 102 112 122 102 112 122 102 112 122 103 113 123 103 113 123 103 113 123 103 113 123 103 113 123 222 232 242 223 233 243 224 234 244 225 235 245 226 236 246 227 237 247 228 238 248 229 239 249 229 239 249 229 239 249 229 239 249 229 239 249 230 240 250 230 240 250 231 241 251 232 242 252 233 243 253 233 243 253 234 244 254 235 245 255 235 245 255 235 245 255 234 244 254 234 244 254 234 244 254 233 243 253 233 243 253 233 243 253 233 243 253 234 244 254 234 244 254 233 243 253 233 243 253 232 242 252 231 241 251 229 239 249 228 238 248 227 237 247 226 236 246 226 236 246 226 236 246 226 236 246 225 235 245 225 235 245 225 235 245 225 235 245 224 234 244 223 233 243 223 233 243 222 232 242 222 232 242 103 113 123 222 232 242 222 232 242 222 232 242 223 233 243 223 233 243 223 233 243 222 232 242 222 232 242 103 113 123 103 113 123 103 113 123 103 113 123 103 113 123 103 113 123 103 113 123 103 113 123 103 113 123 222 232 242 222 232 242 103 113 123 103 113 123 103 113 123 102 112 122 102 112 122 102 112 122 102 112 122 102 112 122 102 112 122 102 112 122 102 112 122 101 111 121 101 111 121 100 110 120 100 110 120 99 109 119 98 108 118 98 108 118 98 108 118 97 107 117 97 107 117 97 107 117 97 107 117 97 107 117 97 107 117 97 107 117 97 107 117 96 106 116 96 106 116 96 106 116 95 105 115 95 105 115 96 106 116 96 106 116 96 106 116 96 106 116 96 106 116 96 106 116 96 106 116 96 106 116 95 105 115 95 105 115 95 105 115 95 105 115 95 105 115 95 105 115 95 105 115 95 105 115 95 105 115 96 106 116 95 105 115 95 105 115 95 105 115 94 104 114 94 104 114 94 104 114 93 103 113 93 103 113 93 103 113 93 103 113 93 103 113 93 103 113 93 103 113 92 102 112 91 101 111 91 101 111 90 100 110 89 99 109 89 99 109 89 99 109 89 99 109 89 99 109 89 99 109 89 99 109 89 99 109 89 99 109 89 99 109 88 98 108 88 98 108 88 98 108 88 98 108 88 98 108 88 98 108 89 99 109 89 99 109 90 100 110 90 100 110 91 101 111 91 101 111 91 101 111 91 101 111 91 101 111 91 101 111 91 101 111 92 102 112 92 102 112 93 103 113 94 104 114 94 104 114 95 105 115 95 105 115 96 106 116 96 106 116 96 106 116 96 106 116 96 106 116 97 107 117 97 107 117 98 108 118 98 108 118 99 109 119 99 109 119 99 109 119 100 110 120 100 110 120 100 110 120 99 109 119 99 109 119 99 109 119 99 109 119 100 110 120 100 110 120 101 111 121 101 111 121 102 112 122 102 112 122 102 112 122 103 113 123 103 113 123 103 113 123 103 113 123 103 113 123 222 232 242 223 233 243 224 234 244 226 236 246 227 237 247 228 238 248 228 238 248 229 239 249 229 239 249 229 239 249 229 239 249 229 239 249 230 240 250 230 240 250 231 241 251 232 242 252 233 243 253 234 244 254 234 244 254 235 245 255 235 245 255 234 244 254 234 244 254 234 244 254 233 243 253 233 243 253 233 243 253 233 243 253 234 244 254 234 244 254 233 243 253 233 243 253 232 242 252 231 241 251 230 240 250 229 239 249 228 238 248 100 110 120 99 109 119 99 109 119 100 110 120 100 110 120 100 110 120 100 110 120 101 111 121 102 112 122 102 112 122 102 112 122 103 113 123 103 113 123 103 113 123 222 232 242 223 233 243 223 233 243 224 234 244 225 235 245 226 236 246 228 238 248 228 238 248 229 239 249 230 240 250 230 240 250 230 240 250 230 240 250 230 240 250 230 240 250 231 241 251 231 241 251 232 242 252 232 242 252 233 243 253 234 244 254 234 244 254 234 244 254 234 244 254 234 244 254 234 244 254 234 244 254 234 244 254 234 244 254 234 244 254 234 244 254 234 244 254 234 244 254 233 243 253 233 243 253 232 242 252 231 241 251 230 240 250 229 239 249 228 238 248 227 237 247 226 236 246 226 236 246 225 235 245 225 235 245 225 235 245 225 235 245 224 234 244 224 234 244 224 234 244 223 233 243 223 233 243 222 232 242 222 232 242 222 232 242 223 233 243 223 233 243 223 233 243 223 233 243 223 233 243 222 232 242 222 232 242 103 113 123 103 113 123 103 113 123 102 112 122 102 112 122 102 112 122 102 112 122 103 113 123 103 113 123 103 113 123 103 113 123 103 113 123 103 113 123 102 112 122 102 112 122 102 112 122 102 112 122 102 112 122 102 112 122 102 112 122 102 112 122 102 112 122 101 111 121 101 111 121 100 110 120 100 110 120 99 109 119 99 109 119 98 108 118 98 108 118 97 107 117 97 107 117 97 107 117 97 107 117 97 107 117 97 107 117 97 107 117 97 107 117 97 107 117 96 106 116 96 106 116 96 106 116 96 106 116 96 106 116 96 106 116 97 107 117 97 107 117 97 107 117 97 107 117 96 106 116 96 106 116 96 106 116 95 105 115 95 105 115 95 105 115 95 105 115 95 105 115 95 105 115 95 105 115 95 105 115 95 105 115 95 105 115 95 105 115 95 105 115 94 104 114 94 104 114 94 104 114 94 104 114 93 103 113 93 103 113 93 103 113 93 103 113 93 103 113 92 102 112 92 102 112 91 101 111 91 101 111 90 100 110 89 99 109 89 99 109 89 99 109 88 98 108 88 98 108 88 98 108 88 98 108 88 98 108 88 98 108 88 98 108 88 98 108 88 98 108 88 98 108 88 98 108 88 98 108 89 99 109 89 99 109 89 99 109 90 100 110 90 100 110 90 100 110 91 101 111 91 101 111 91 101 111 91 101 111 91 101 111 91 101 111 91 101 111 92 102 112 92 102 112 93 103 113 93 103 113 94 104 114 95 105 115 95 105 115 95 105 115 96 106 116 96 106 116 96 106 116 97 107 117 97 107 117 98 108 118 98 108 118 99 109 119 99 109 119 99 109 119 100 110 120 100 110 120 100 110 120 99 109 119 99 109 119 99 109 119 100 110 120 100 110 120 100 110 120 101 111 121 101 111 121 102 112 122 102 112 122 103 113 123 103 113 123 103 113 123 222 232 242 222 232 242 223 233 243 224 234 244 225 235 245 226 236 246 227 237 247 228 238 248 229 239 249 229 239 249 230 240 250 230 240 250 230 240 250 230 240 250 230 240 250 230 240 250 231 241 251 231 241 251 232 242 252 233 243 253 233 243 253 234 244 254 234 244 254 234 244 254 234 244 254 234 244 254 234 244 254 234 244 254 234 244 254 234 244 254 234 244 254 234 244 254 234 244 254 234 244 254 233 243 253 233 243 253 232 242 252 230 240 250 229 239 249 228 238 248 100 110 120 100 110 120 100 110 120 100 110 120 100 110 120 100 110 120 101 111 121 101 111 121 101 111 121 102 112 122 102 112 122 103 113 123 103 113 123 222 232 242 223 233 243 224 234 244 225 235 245 226 236 246 227 237 247 228 238 248 229 239 249 229 239 249 230 240 250 230 240 250 230 240 250 230 240 250 231 241 251 231 241 251 231 241 251 231 241 251 231 241 251 232 242 252 232 242 252 233 243 253 233 243 253 234 244 254 234 244 254 234 244 254 234 244 254 235 245 255 235 245 255 235 245 255 235 245 255 235 245 255 235 245 255 234 244 254 234 244 254 234 244 254 233 243 253 232 242 252 231 241 251 230 240 250 229 239 249 228 238 248 227 237 247 226 236 246 226 236 246 225 235 245 225 235 245 225 235 245 224 234 244 224 234 244 224 234 244 224 234 244 224 234 244 223 233 243 223 233 243 223 233 243 223 233 243 223 233 243 223 233 243 223 233 243 223 233 243 222 232 242 222 232 242 103 113 123 103 113 123 103 113 123 103 113 123 102 112 122 102 112 122 102 112 122 102 112 122 102 112 122 102 112 122 102 112 122 102 112 122 102 112 122 102 112 122 102 112 122 102 112 122 102 112 122 102 112 122 102 112 122 102 112 122 102 112 122 102 112 122 101 111 121 101 111 121 101 111 121 100 110 120 100 110 120 99 109 119 99 109 119 98 108 118 98 108 118 98 108 118 97 107 117 97 107 117 97 107 117 97 107 117 97 107 117 97 107 117 97 107 117 97 107 117 97 107 117 97 107 117 97 107 117 97 107 117 97 107 117 97 107 117 97 107 117 97 107 117 97 107 117 97 107 117 96 106 116 96 106 116 96 106 116 95 105 115 95 105 115 95 105 115 95 105 115 95 105 115 95 105 115 94 104 114 94 104 114 94 104 114 94 104 114 94 104 114 94 104 114 94 104 114 94 104 114 94 104 114 94 104 114 94 104 114 93 103 113 93 103 113 93 103 113 93 103 113 92 102 112 92 102 112 91 101 111 90 100 110 90 100 110 89 99 109 89 99 109 89 99 109 88 98 108 88 98 108 88 98 108 88 98 108 88 98 108 88 98 108 88 98 108 88 98 108 88 98 108 88 98 108 88 98 108 89 99 109 89 99 109 89 99 109 89 99 109 90 100 110 90 100 110 90 100 110 90 100 110 90 100 110 90 100 110 90 100 110 91 101 111 91 101 111 91 101 111 91 101 111 92 102 112 92 102 112 93 103 113 93 103 113 94 104 114 94 104 114 95 105 115 95 105 115 96 106 116 96 106 116 97 107 117 97 107 117 98 108 118 98 108 118 99 109 119 99 109 119 99 109 119 99 109 119 99 109 119 99 109 119 100 110 120 100 110 120 100 110 120 100 110 120 100 110 120 100 110 120 101 111 121 101 111 121 102 112 122 102 112 122 103 113 123 103 113 123 222 232 242 223 233 243 223 233 243 224 234 244 225 235 245 226 236 246 227 237 247 228 238 248 229 239 249 229 239 249 230 240 250 230 240 250 230 240 250 230 240 250 231 241 251 231 241 251 231 241 251 231 241 251 231 241 251 232 242 252 232 242 252 233 243 253 233 243 253 234 244 254 234 244 254 234 244 254 235 245 255 235 245 255 235 245 255 235 245 255 235 245 255 235 245 255 235 245 255 234 244 254 234 244 254 233 243 253 233 243 253 232 242 252 231 241 251 230 240 250 229 239 249 100 110 120 100 110 120 100 110 120 100 110 120 100 110 120 100 110 120 101 111 121 101 111 121 101 111 121 102 112 122 102 112 122 103 113 123 222 232 242 223 233 243 224 234 244 226 236 246 227 237 247 228 238 248 228 238 248 229 239 249 229 239 249 230 240 250 230 240 250 230 240 250 231 241 251 231 241 251 231 241 251 231 241 251 232 242 252 232 242 252 232 242 252 232 242 252 232 242 252 232 242 252 233 243 253 233 243 253 233 243 253 234 244 254 235 245 255 235 245 255 235 245 255 236 246 256 236 246 256 235 245 255 235 245 255 235 245 255 234 244 254 233 243 253 233 243 253 232 242 252 231 241 251 230 240 250 229 239 249 229 239 249 228 238 248 227 237 247 226 236 246 225 235 245 225 235 245 224 234 244 224 234 244 224 234 244 224 234 244 224 234 244 224 234 244 224 234 244 224 234 244 224 234 244 224 234 244 224 234 244 224 234 244 223 233 243 223 233 243 222 232 242 222 232 242 103 113 123 103 113 123 103 113 123 102 112 122 102 112 122 102 112 122 102 112 122 102 112 122 101 111 121 101 111 121 101 111 121 101 111 121 101 111 121 102 112 122 102 112 122 102 112 122 102 112 122 102 112 122 102 112 122 102 112 122 102 112 122 101 111 121 101 111 121 101 111 121 100 110 120 100 110 120 100 110 120 99 109 119 99 109 119 98 108 118 98 108 118 98 108 118 97 107 117 97 107 117 97 107 117 97 107 117 97 107 117 97 107 117 97 107 117 97 107 117 97 107 117 98 108 118 98 108 118 98 108 118 98 108 118 98 108 118 97 107 117 97 107 117 97 107 117 97 107 117 96 106 116 96 106 116 96 106 116 96 106 116 95 105 115 95 105 115 95 105 115 94 104 114 94 104 114 94 104 114 94 104 114 94 104 114 94 104 114 94 104 114 94 104 114 94 104 114 94 104 114 94 104 114 94 104 114 94 104 114 93 103 113 93 103 113 93 103 113 92 102 112 92 102 112 91 101 111 91 101 111 90 100 110 90 100 110 89 99 109 89 99 109 89 99 109 88 98 108 88 98 108 88 98 108 87 97 107 87 97 107 87 97 107 88 98 108 88 98 108 88 98 108 88 98 108 89 99 109 89 99 109 89 99 109 89 99 109 90 100 110 90 100 110 90 100 110 90 100 110 90 100 110 90 100 110 90 100 110 90 100 110 90 100 110 90 100 110 91 101 111 91 101 111 91 101 111 91 101 111 92 102 112 92 102 112 93 103 113 93 103 113 94 104 114 95 105 115 95 105 115 96 106 116 97 107 117 97 107 117 98 108 118 98 108 118 98 108 118 99 109 119 99 109 119 99 109 119 99 109 119 99 109 119 100 110 120 100 110 120 100 110 120 100 110 120 100 110 120 101 111 121 101 111 121 101 111 121 102 112 122 102 112 122 103 113 123 103 113 123 222 232 242 224 234 244 225 235 245 226 236 246 227 237 247 228 238 248 228 238 248 229 239 249 230 240 250 230 240 250 230 240 250 231 241 251 231 241 251 231 241 251 231 241 251 231 241 251 232 242 252 232 242 252 232 242 252 232 242 252 232 242 252 232 242 252 233 243 253 233 243 253 234 244 254 234 244 254 235 245 255 235 245 255 235 245 255 236 246 256 236 246 256 235 245 255 235 245 255 235 245 255 234 244 254 233 243 253 232 242 252 232 242 252 231 241 251 230 240 250 229 239 249 100 110 120 100 110 120 100 110 120 100 110 120 101 111 121 101 111 121 101 111 121 101 111 121 101 111 121 102 112 122 103 113 123 103 113 123 223 233 243 224 234 244 226 236 246 227 237 247 228 238 248 229 239 249 230 240 250 230 240 250 230 240 250 230 240 250 231 241 251 231 241 251 231 241 251 231 241 251 232 242 252 232 242 252 232 242 252 232 242 252 232 242 252 232 242 252 232 242 252 232 242 252 232 242 252 232 242 252 233 243 253 234 244 254 235 245 255 235 245 255 236 246 256 236 246 256 236 246 256 236 246 256 236 246 256 235 245 255 234 244 254 233 243 253 233 243 253 232 242 252 231 241 251 231 241 251 230 240 250 229 239 249 228 238 248 227 237 247 226 236 246 226 236 246 225 235 245 224 234 244 224 234 244 224 234 244 224 234 244 224 234 244 225 235 245 225 235 245 225 235 245 225 235 245 225 235 245 225 235 245 224 234 244 223 233 243 222 232 242 222 232 242 103 113 123 103 113 123 103 113 123 103 113 123 102 112 122 102 112 122 102 112 122 101 111 121 101 111 121 101 111 121 101 111 121 101 111 121 101 111 121 101 111 121 101 111 121 102 112 122 102 112 122 102 112 122 102 112 122 102 112 122 102 112 122 102 112 122 101 111 121 101 111 121 101 111 121 100 110 120 100 110 120 100 110 120 99 109 119 99 109 119 99 109 119 98 108 118 98 108 118 98 108 118 97 107 117 97 107 117 97 107 117 97 107 117 97 107 117 97 107 117 98 108 118 98 108 118 98 108 118 98 108 118 98 108 118 98 108 118 98 108 118 98 108 118 97 107 117 97 107 117 97 107 117 97 107 117 96 106 116 96 106 116 96 106 116 96 106 116 95 105 115 95 105 115 94 104 114 94 104 114 94 104 114 93 103 113 93 103 113 93 103 113 93 103 113 94 104 114 94 104 114 94 104 114 94 104 114 94 104 114 94 104 114 93 103 113 93 103 113 93 103 113 92 102 112 91 101 111 91 101 111 91 101 111 90 100 110 90 100 110 89 99 109 89 99 109 89 99 109 88 98 108 88 98 108 87 97 107 87 97 107 87 97 107 87 97 107 87 97 107 88 98 108 88 98 108 89 99 109 89 99 109 89 99 109 90 100 110 90 100 110 90 100 110 89 99 109 89 99 109 89 99 109 89 99 109 90 100 110 90 100 110 90 100 110 90 100 110 90 100 110 90 100 110 90 100 110 91 101 111 91 101 111 91 101 111 91 101 111 92 102 112 93 103 113 93 103 113 94 104 114 95 105 115 96 106 116 97 107 117 97 107 117 98 108 118 98 108 118 98 108 118 98 108 118 99 109 119 99 109 119 99 109 119 99 109 119 100 110 120 100 110 120 100 110 120 100 110 120 101 111 121 101 111 121 101 111 121 101 111 121 102 112 122 102 112 122 103 113 123 222 232 242 223 233 243 225 235 245 226 236 246 227 237 247 228 238 248 229 239 249 230 240 250 230 240 250 230 240 250 230 240 250 231 241 251 231 241 251 231 241 251 232 242 252 232 242 252 232 242 252 232 242 252 232 242 252 232 242 252 232 242 252 232 242 252 232 242 252 232 242 252 233 243 253 233 243 253 234 244 254 235 245 255 235 245 255 236 246 256 236 246 256 236 246 256 236 246 256 235 245 255 235 245 255 234 244 254 233 243 253 232 242 252 232 242 252 231 241 251 230 240 250 230 240 250 100 110 120 100 110 120 100 110 120 101 111 121 101 111 121 101 111 121 101 111 121 101 111 121 102 112 122 102 112 122 103 113 123 222 232 242 223 233 243 225 235 245 227 237 247 228 238 248 229 239 249 230 240 250 231 241 251 231 241 251 231 241 251 231 241 251 231 241 251 231 241 251 232 242 252 232 242 252 232 242 252 233 243 253 233 243 253 233 243 253 232 242 252 232 242 252 232 242 252 232 242 252 232 242 252 232 242 252 233 243 253 234 244 254 234 244 254 235 245 255 236 246 256 237 247 257 237 247 257 236 246 256 236 246 256 235 245 255 234 244 254 233 243 253 232 242 252 232 242 252 231 241 251 231 241 251 230 240 250 230 240 250 229 239 249 228 238 248 227 237 247 226 236 246 225 235 245 224 234 244 224 234 244 224 234 244 224 234 244 225 235 245 225 235 245 226 236 246 226 236 246 226 236 246 226 236 246 225 235 245 224 234 244 223 233 243 222 232 242 222 232 242 103 113 123 103 113 123 103 113 123 103 113 123 102 112 122 102 112 122 102 112 122 101 111 121 101 111 121 100 110 120 100 110 120 100 110 120 100 110 120 100 110 120 101 111 121 101 111 121 102 112 122 102 112 122 102 112 122 102 112 122 102 112 122 102 112 122 101 111 121 101 111 121 100 110 120 100 110 120 100 110 120 100 110 120 99 109 119 99 109 119 99 109 119 99 109 119 98 108 118 98 108 118 97 107 117 97 107 117 97 107 117 97 107 117 97 107 117 98 108 118 98 108 118 98 108 118 99 109 119 99 109 119 99 109 119 99 109 119 99 109 119 98 108 118 98 108 118 97 107 117 97 107 117 97 107 117 96 106 116 96 106 116 96 106 116 96 106 116 95 105 115 95 105 115 94 104 114 94 104 114 93 103 113 93 103 113 93 103 113 93 103 113 93 103 113 93 103 113 94 104 114 94 104 114 94 104 114 94 104 114 94 104 114 93 103 113 93 103 113 92 102 112 92 102 112 91 101 111 91 101 111 90 100 110 90 100 110 90 100 110 89 99 109 89 99 109 89 99 109 88 98 108 88 98 108 87 97 107 87 97 107 87 97 107 87 97 107 87 97 107 88 98 108 88 98 108 89 99 109 89 99 109 90 100 110 90 100 110 90 100 110 90 100 110 89 99 109 89 99 109 89 99 109 89 99 109 89 99 109 89 99 109 90 100 110 90 100 110 90 100 110 90 100 110 90 100 110 90 100 110 90 100 110 90 100 110 91 101 111 91 101 111 92 102 112 93 103 113 94 104 114 95 105 115 96 106 116 96 106 116 97 107 117 98 108 118 98 108 118 98 108 118 98 108 118 98 108 118 98 108 118 99 109 119 99 109 119 100 110 120 100 110 120 100 110 120 101 111 121 101 111 121 101 111 121 101 111 121 101 111 121 102 112 122 102 112 122 103 113 123 222 232 242 224 234 244 226 236 246 227 237 247 229 239 249 230 240 250 230 240 250 231 241 251 231 241 251 231 241 251 231 241 251 231 241 251 231 241 251 232 242 252 232 242 252 232 242 252 233 243 253 233 243 253 233 243 253 232 242 252 232 242 252 232 242 252 232 242 252 232 242 252 232 242 252 233 243 253 234 244 254 235 245 255 236 246 256 236 246 256 237 247 257 237 247 257 236 246 256 236 246 256 235 245 255 234 244 254 233 243 253 232 242 252 232 242 252 231 241 251 231 241 251 230 240 250 100 110 120 100 110 120 100 110 120 101 111 121 101 111 121 101 111 121 101 111 121 102 112 122 102 112 122 102 112 122 103 113 123 222 232 242 224 234 244 226 236 246 228 238 248 229 239 249 230 240 250 231 241 251 232 242 252 232 242 252 232 242 252 232 242 252 232 242 252 232 242 252 232 242 252 232 242 252 233 243 253 233 243 253 233 243 253 233 243 253 233 243 253 232 242 252 232 242 252 232 242 252 232 242 252 232 242 252 233 243 253 233 243 253 234 244 254 235 245 255 236 246 256 237 247 257 237 247 257 236 246 256 236 246 256 235 245 255 234 244 254 233 243 253 232 242 252 232 242 252 231 241 251 231 241 251 231 241 251 230 240 250 229 239 249 228 238 248 227 237 247 226 236 246 225 235 245 224 234 244 224 234 244 224 234 244 225 235 245 225 235 245 226 236 246 226 236 246 227 237 247 226 236 246 226 236 246 225 235 245 224 234 244 223 233 243 222 232 242 103 113 123 103 113 123 103 113 123 103 113 123 102 112 122 102 112 122 102 112 122 101 111 121 101 111 121 100 110 120 100 110 120 100 110 120 99 109 119 100 110 120 100 110 120 100 110 120 101 111 121 101 111 121 102 112 122 102 112 122 102 112 122 102 112 122 101 111 121 101 111 121 100 110 120 100 110 120 100 110 120 100 110 120 100 110 120 99 109 119 99 109 119 99 109 119 99 109 119 98 108 118 98 108 118 98 108 118 97 107 117 97 107 117 97 107 117 97 107 117 98 108 118 98 108 118 99 109 119 99 109 119 100 110 120 100 110 120 99 109 119 99 109 119 98 108 118 98 108 118 97 107 117 97 107 117 97 107 117 97 107 117 96 106 116 96 106 116 96 106 116 95 105 115 95 105 115 94 104 114 94 104 114 93 103 113 93 103 113 93 103 113 93 103 113 93 103 113 93 103 113 94 104 114 94 104 114 94 104 114 94 104 114 94 104 114 93 103 113 93 103 113 92 102 112 91 101 111 91 101 111 91 101 111 90 100 110 90 100 110 90 100 110 89 99 109 89 99 109 89 99 109 88 98 108 88 98 108 87 97 107 87 97 107 87 97 107 87 97 107 87 97 107 88 98 108 88 98 108 89 99 109 89 99 109 90 100 110 90 100 110 90 100 110 90 100 110 89 99 109 89 99 109 89 99 109 89 99 109 89 99 109 89 99 109 89 99 109 89 99 109 90 100 110 90 100 110 90 100 110 90 100 110 90 100 110 90 100 110 90 100 110 91 101 111 91 101 111 92 102 112 93 103 113 94 104 114 95 105 115 96 106 116 97 107 117 97 107 117 98 108 118 98 108 118 98 108 118 98 108 118 98 108 118 99 109 119 99 109 119 100 110 120 100 110 120 101 111 121 101 111 121 101 111 121 101 111 121 101 111 121 102 112 122 102 112 122 103 113 123 103 113 123 223 233 243 225 235 245 226 236 246 228 238 248 230 240 250 231 241 251 231 241 251 232 242 252 232 242 252 232 242 252 232 242 252 232 242 252 232 242 252 232 242 252 233 243 253 233 243 253 233 243 253 233 243 253 233 243 253 233 243 253 232 242 252 232 242 252 232 242 252 232 242 252 232 242 252 233 243 253 234 244 254 235 245 255 236 246 256 236 246 256 237 247 257 237 247 257 236 246 256 236 246 256 235 245 255 234 244 254 233 243 253 232 242 252 232 242 252 231 241 251 231 241 251 230 240 250 100 110 120 100 110 120 101 111 121 101 111 121 101 111 121 101 111 121 102 112 122 102 112 122 102 112 122 103 113 123 222 232 242 223 233 243 225 235 245 227 237 247 228 238 248 230 240 250 231 241 251 232 242 252 232 242 252 233 243 253 232 242 252 232 242 252 232 242 252 232 242 252 233 243 253 233 243 253 233 243 253 233 243 253 233 243 253 233 243 253 233 243 253 232 242 252 232 242 252 232 242 252 232 242 252 232 242 252 233 243 253 233 243 253 234 244 254 235 245 255 236 246 256 237 247 257 237 247 257 236 246 256 236 246 256 235 245 255 234 244 254 233 243 253 233 243 253 232 242 252 232 242 252 231 241 251 231 241 251 230 240 250 229 239 249 229 239 249 228 238 248 227 237 247 226 236 246 225 235 245 225 235 245 225 235 245 225 235 245 226 236 246 226 236 246 227 237 247 227 237 247 227 237 247 226 236 246 225 235 245 225 235 245 223 233 243 222 232 242 222 232 242 103 113 123 103 113 123 102 112 122 102 112 122 102 112 122 102 112 122 101 111 121 101 111 121 100 110 120 100 110 120 99 109 119 99 109 119 99 109 119 99 109 119 100 110 120 100 110 120 101 111 121 101 111 121 101 111 121 101 111 121 101 111 121 101 111 121 101 111 121 100 110 120 100 110 120 100 110 120 100 110 120 100 110 120 99 109 119 99 109 119 99 109 119 99 109 119 99 109 119 98 108 118 98 108 118 98 108 118 97 107 117 98 108 118 98 108 118 98 108 118 99 109 119 99 109 119 100 110 120 100 110 120 100 110 120 100 110 120 99 109 119 99 109 119 98 108 118 98 108 118 97 107 117 97 107 117 97 107 117 96 106 116 96 106 116 96 106 116 95 105 115 95 105 115 94 104 114 94 104 114 93 103 113 93 103 113 92 102 112 92 102 112 93 103 113 93 103 113 93 103 113 94 104 114 94 104 114 94 104 114 93 103 113 93 103 113 92 102 112 92 102 112 91 101 111 91 101 111 90 100 110 90 100 110 90 100 110 90 100 110 89 99 109 89 99 109 89 99 109 88 98 108 88 98 108 87 97 107 87 97 107 87 97 107 87 97 107 87 97 107 88 98 108 88 98 108 89 99 109 89 99 109 90 100 110 90 100 110 90 100 110 89 99 109 89 99 109 89 99 109 89 99 109 89 99 109 89 99 109 89 99 109 89 99 109 89 99 109 89 99 109 89 99 109 89 99 109 89 99 109 89 99 109 89 99 109 90 100 110 90 100 110 91 101 111 92 102 112 93 103 113 94 104 114 95 105 115 96 106 116 96 106 116 97 107 117 97 107 117 97 107 117 98 108 118 98 108 118 98 108 118 99 109 119 99 109 119 100 110 120 100 110 120 101 111 121 101 111 121 101 111 121 102 112 122 102 112 122 102 112 122 102 112 122 103 113 123 222 232 242 224 234 244 225 235 245 227 237 247 229 239 249 230 240 250 231 241 251 232 242 252 232 242 252 233 243 253 232 242 252 232 242 252 232 242 252 233 243 253 233 243 253 233 243 253 233 243 253 233 243 253 233 243 253 233 243 253 233 243 253 232 242 252 232 242 252 232 242 252 232 242 252 232 242 252 233 243 253 234 244 254 235 245 255 236 246 256 236 246 256 237 247 257 237 247 257 236 246 256 236 246 256 235 245 255 234 244 254 233 243 253 232 242 252 232 242 252 231 241 251 231 241 251 231 241 251 100 110 120 100 110 120 101 111 121 101 111 121 101 111 121 102 112 122 102 112 122 102 112 122 103 113 123 103 113 123 223 233 243 224 234 244 226 236 246 227 237 247 229 239 249 230 240 250 232 242 252 232 242 252 233 243 253 233 243 253 233 243 253 233 243 253 233 243 253 233 243 253 233 243 253 233 243 253 234 244 254 234 244 254 234 244 254 233 243 253 233 243 253 233 243 253 232 242 252 232 242 252 232 242 252 232 242 252 233 243 253 233 243 253 234 244 254 235 245 255 236 246 256 236 246 256 236 246 256 236 246 256 236 246 256 235 245 255 234 244 254 233 243 253 233 243 253 232 242 252 232 242 252 231 241 251 231 241 251 230 240 250 230 240 250 229 239 249 228 238 248 227 237 247 226 236 246 226 236 246 225 235 245 225 235 245 226 236 246 226 236 246 226 236 246 227 237 247 227 237 247 227 237 247 226 236 246 225 235 245 225 235 245 224 234 244 223 233 243 222 232 242 103 113 123 103 113 123 102 112 122 102 112 122 102 112 122 101 111 121 101 111 121 100 110 120 100 110 120 99 109 119 99 109 119 99 109 119 99 109 119 99 109 119 100 110 120 100 110 120 100 110 120 101 111 121 101 111 121 101 111 121 101 111 121 101 111 121 100 110 120 100 110 120 100 110 120 100 110 120 100 110 120 100 110 120 99 109 119 99 109 119 99 109 119 99 109 119 99 109 119 98 108 118 98 108 118 98 108 118 98 108 118 98 108 118 98 108 118 99 109 119 99 109 119 100 110 120 100 110 120 100 110 120 100 110 120 100 110 120 99 109 119 99 109 119 99 109 119 98 108 118 98 108 118 97 107 117 97 107 117 97 107 117 96 106 116 96 106 116 95 105 115 95 105 115 94 104 114 94 104 114 93 103 113 93 103 113 93 103 113 92 102 112 93 103 113 93 103 113 93 103 113 93 103 113 93 103 113 93 103 113 93 103 113 93 103 113 92 102 112 92 102 112 91 101 111 91 101 111 90 100 110 90 100 110 90 100 110 90 100 110 89 99 109 89 99 109 89 99 109 88 98 108 88 98 108 87 97 107 87 97 107 87 97 107 87 97 107 88 98 108 88 98 108 88 98 108 89 99 109 89 99 109 89 99 109 89 99 109 89 99 109 89 99 109 89 99 109 89 99 109 89 99 109 89 99 109 89 99 109 89 99 109 89 99 109 89 99 109 89 99 109 89 99 109 89 99 109 89 99 109 89 99 109 89 99 109 89 99 109 90 100 110 91 101 111 91 101 111 92 102 112 93 103 113 94 104 114 95 105 115 96 106 116 96 106 116 97 107 117 97 107 117 97 107 117 98 108 118 98 108 118 99 109 119 99 109 119 100 110 120 100 110 120 101 111 121 101 111 121 101 111 121 102 112 122 102 112 122 102 112 122 103 113 123 222 232 242 223 233 243 225 235 245 226 236 246 228 238 248 230 240 250 231 241 251 232 242 252 233 243 253 233 243 253 233 243 253 233 243 253 233 243 253 233 243 253 233 243 253 233 243 253 234 244 254 234 244 254 234 244 254 234 244 254 233 243 253 233 243 253 233 243 253 232 242 252 232 242 252 232 242 252 232 242 252 233 243 253 234 244 254 235 245 255 235 245 255 236 246 256 236 246 256 236 246 256 236 246 256 235 245 255 235 245 255 234 244 254 233 243 253 233 243 253 232 242 252 232 242 252 231 241 251 231 241 251 100 110 120 100 110 120 100 110 120 101 111 121 101 111 121 102 112 122 102 112 122 103 113 123 103 113 123 222 232 242 224 234 244 225 235 245 227 237 247 228 238 248 229 239 249 231 241 251 232 242 252 233 243 253 233 243 253 234 244 254 234 244 254 234 244 254 234 244 254 234 244 254 234 244 254 234 244 254 234 244 254 234 244 254 234 244 254 233 243 253 233 243 253 233 243 253 233 243 253 233 243 253 233 243 253 233 243 253 233 243 253 234 244 254 234 244 254 235 245 255 235 245 255 235 245 255 235 245 255 235 245 255 235 245 255 235 245 255 234 244 254 234 244 254 233 243 253 233 243 253 232 242 252 231 241 251 231 241 251 230 240 250 230 240 250 229 239 249 228 238 248 228 238 248 227 237 247 227 237 247 226 236 246 226 236 246 226 236 246 227 237 247 227 237 247 227 237 247 227 237 247 226 236 246 226 236 246 225 235 245 225 235 245 224 234 244 223 233 243 222 232 242 103 113 123 103 113 123 102 112 122 102 112 122 101 111 121 101 111 121 100 110 120 100 110 120 100 110 120 99 109 119 99 109 119 99 109 119 99 109 119 99 109 119 99 109 119 100 110 120 100 110 120 100 110 120 100 110 120 100 110 120 100 110 120 100 110 120 100 110 120 100 110 120 100 110 120 100 110 120 100 110 120 100 110 120 99 109 119 99 109 119 99 109 119 99 109 119 99 109 119 99 109 119 99 109 119 99 109 119 99 109 119 99 109 119 99 109 119 99 109 119 99 109 119 100 110 120 100 110 120 100 110 120 100 110 120 100 110 120 100 110 120 99 109 119 99 109 119 98 108 118 98 108 118 97 107 117 97 107 117 97 107 117 96 106 116 96 106 116 95 105 115 95 105 115 94 104 114 94 104 114 93 103 113 93 103 113 93 103 113 93 103 113 93 103 113 93 103 113 93 103 113 93 103 113 93 103 113 93 103 113 92 102 112 92 102 112 92 102 112 91 101 111 91 101 111 91 101 111 90 100 110 90 100 110 90 100 110 89 99 109 89 99 109 89 99 109 88 98 108 88 98 108 88 98 108 88 98 108 88 98 108 88 98 108 88 98 108 88 98 108 88 98 108 88 98 108 89 99 109 89 99 109 89 99 109 89 99 109 89 99 109 89 99 109 89 99 109 89 99 109 89 99 109 89 99 109 88 98 108 88 98 108 88 98 108 88 98 108 88 98 108 88 98 108 88 98 108 88 98 108 89 99 109 89 99 109 89 99 109 90 100 110 90 100 110 91 101 111 92 102 112 93 103 113 94 104 114 94 104 114 95 105 115 96 106 116 96 106 116 97 107 117 97 107 117 98 108 118 98 108 118 99 109 119 99 109 119 100 110 120 100 110 120 101 111 121 101 111 121 102 112 122 102 112 122 102 112 122 103 113 123 222 232 242 223 233 243 224 234 244 226 236 246 227 237 247 229 239 249 230 240 250 231 241 251 232 242 252 233 243 253 233 243 253 234 244 254 234 244 254 234 244 254 234 244 254 234 244 254 234 244 254 234 244 254 234 244 254 234 244 254 234 244 254 233 243 253 233 243 253 233 243 253 233 243 253 233 243 253 233 243 253 233 243 253 233 243 253 234 244 254 234 244 254 235 245 255 235 245 255 235 245 255 235 245 255 235 245 255 235 245 255 235 245 255 234 244 254 234 244 254 233 243 253 232 242 252 232 242 252 231 241 251 231 241 251 100 110 120 100 110 120 100 110 120 101 111 121 101 111 121 102 112 122 103 113 123 103 113 123 223 233 243 224 234 244 225 235 245 226 236 246 228 238 248 229 239 249 230 240 250 231 241 251 232 242 252 233 243 253 233 243 253 234 244 254 234 244 254 235 245 255 235 245 255 235 245 255 235 245 255 234 244 254 234 244 254 234 244 254 234 244 254 233 243 253 233 243 253 233 243 253 233 243 253 233 243 253 233 243 253 233 243 253 234 244 254 234 244 254 234 244 254 234 244 254 234 244 254 235 245 255 235 245 255 235 245 255 235 245 255 235 245 255 234 244 254 234 244 254 233 243 253 233 243 253 232 242 252 232 242 252 231 241 251 230 240 250 230 240 250 229 239 249 229 239 249 228 238 248 228 238 248 228 238 248 228 238 248 227 237 247 227 237 247 227 237 247 227 237 247 227 237 247 226 236 246 226 236 246 226 236 246 225 235 245 225 235 245 224 234 244 223 233 243 222 232 242 103 113 123 103 113 123 102 112 122 102 112 122 101 111 121 101 111 121 100 110 120 100 110 120 99 109 119 99 109 119 99 109 119 99 109 119 99 109 119 99 109 119 99 109 119 99 109 119 99 109 119 99 109 119 100 110 120 100 110 120 100 110 120 100 110 120 100 110 120 100 110 120 100 110 120 100 110 120 100 110 120 100 110 120 99 109 119 99 109 119 99 109 119 99 109 119 99 109 119 99 109 119 99 109 119 99 109 119 99 109 119 99 109 119 100 110 120 100 110 120 100 110 120 100 110 120 100 110 120 100 110 120 100 110 120 100 110 120 100 110 120 99 109 119 99 109 119 99 109 119 98 108 118 98 108 118 97 107 117 97 107 117 96 106 116 95 105 115 95 105 115 94 104 114 94 104 114 94 104 114 93 103 113 93 103 113 93 103 113 93 103 113 93 103 113 92 102 112 92 102 112 92 102 112 92 102 112 92 102 112 92 102 112 92 102 112 92 102 112 91 101 111 91 101 111 91 101 111 90 100 110 90 100 110 90 100 110 89 99 109 89 99 109 89 99 109 88 98 108 88 98 108 88 98 108 88 98 108 88 98 108 88 98 108 88 98 108 88 98 108 88 98 108 88 98 108 88 98 108 89 99 109 89 99 109 89 99 109 89 99 109 89 99 109 89 99 109 89 99 109 89 99 109 89 99 109 88 98 108 88 98 108 88 98 108 88 98 108 88 98 108 88 98 108 88 98 108 88 98 108 89 99 109 89 99 109 89 99 109 90 100 110 90 100 110 91 101 111 92 102 112 92 102 112 93 103 113 94 104 114 94 104 114 95 105 115 96 106 116 96 106 116 97 107 117 98 108 118 98 108 118 99 109 119 99 109 119 100 110 120 100 110 120 101 111 121 101 111 121 102 112 122 102 112 122 103 113 123 222 232 242 223 233 243 224 234 244 225 235 245 227 237 247 228 238 248 229 239 249 230 240 250 231 241 251 232 242 252 233 243 253 234 244 254 234 244 254 234 244 254 235 245 255 235 245 255 235 245 255 235 245 255 234 244 254 234 244 254 234 244 254 233 243 253 233 243 253 233 243 253 233 243 253 233 243 253 233 243 253 233 243 253 233 243 253 234 244 254 234 244 254 234 244 254 234 244 254 234 244 254 235 245 255 235 245 255 235 245 255 235 245 255 234 244 254 234 244 254 234 244 254 233 243 253 233 243 253 232 242 252 231 241 251 231 241 251 100 110 120 100 110 120 100 110 120 101 111 121 102 112 122 102 112 122 103 113 123 222 232 242 224 234 244 225 235 245 226 236 246 227 237 247 228 238 248 229 239 249 230 240 250 231 241 251 232 242 252 233 243 253 233 243 253 234 244 254 235 245 255 235 245 255 235 245 255 235 245 255 235 245 255 235 245 255 234 244 254 234 244 254 234 244 254 233 243 253 233 243 253 233 243 253 234 244 254 234 244 254 234 244 254 234 244 254 234 244 254 234 244 254 234 244 254 234 244 254 234 244 254 234 244 254 234 244 254 234 244 254 234 244 254 234 244 254 234 244 254 234 244 254 234 244 254 233 243 253 232 242 252 232 242 252 231 241 251 230 240 250 230 240 250 229 239 249 229 239 249 229 239 249 229 239 249 229 239 249 229 239 249 228 238 248 228 238 248 228 238 248 227 237 247 226 236 246 226 236 246 226 236 246 225 235 245 225 235 245 224 234 244 224 234 244 223 233 243 222 232 242 103 113 123 103 113 123 102 112 122 101 111 121 101 111 121 100 110 120 100 110 120 100 110 120 99 109 119 99 109 119 99 109 119 99 109 119 99 109 119 99 109 119 99 109 119 99 109 119 99 109 119 99 109 119 99 109 119 99 109 119 99 109 119 99 109 119 100 110 120 100 110 120 100 110 120 100 110 120 100 110 120 100 110 120 99 109 119 99 109 119 99 109 119 99 109 119 99 109 119 99 109 119 100 110 120 100 110 120 100 110 120 100 110 120 100 110 120 100 110 120 100 110 120 100 110 120 100 110 120 100 110 120 100 110 120 100 110 120 100 110 120 100 110 120 99 109 119 99 109 119 99 109 119 98 108 118 97 107 117 97 107 117 96 106 116 95 105 115 95 105 115 94 104 114 94 104 114 94 104 114 94 104 114 93 103 113 93 103 113 93 103 113 93 103 113 92 102 112 92 102 112 92 102 112 91 101 111 91 101 111 91 101 111 91 101 111 91 101 111 91 101 111 91 101 111 91 101 111 90 100 110 90 100 110 90 100 110 89 99 109 89 99 109 88 98 108 88 98 108 88 98 108 88 98 108 88 98 108 88 98 108 89 99 109 89 99 109 89 99 109 88 98 108 88 98 108 88 98 108 88 98 108 88 98 108 88 98 108 89 99 109 89 99 109 89 99 109 89 99 109 89 99 109 89 99 109 88 98 108 88 98 108 88 98 108 88 98 108 88 98 108 88 98 108 88 98 108 88 98 108 88 98 108 89 99 109 89 99 109 90 100 110 90 100 110 91 101 111 91 101 111 92 102 112 92 102 112 93 103 113 94 104 114 94 104 114 95 105 115 96 106 116 97 107 117 98 108 118 98 108 118 99 109 119 99 109 119 100 110 120 100 110 120 101 111 121 101 111 121 102 112 122 103 113 123 103 113 123 223 233 243 224 234 244 226 236 246 227 237 247 228 238 248 229 239 249 229 239 249 230 240 250 231 241 251 232 242 252 233 243 253 234 244 254 234 244 254 235 245 255 235 245 255 235 245 255 235 245 255 235 245 255 235 245 255 234 244 254 234 244 254 233 243 253 233 243 253 233 243 253 233 243 253 234 244 254 234 244 254 234 244 254 234 244 254 234 244 254 234 244 254 234 244 254 234 244 254 234 244 254 234 244 254 234 244 254 234 244 254 234 244 254 234 244 254 234 244 254 234 244 254 234 244 254 233 243 253 232 242 252 231 241 251 231 241 251 100 110 120 100 110 120 100 110 120 101 111 121 102 112 122 103 113 123 222 232 242 223 233 243 225 235 245 226 236 246 228 238 248 228 238 248 229 239 249 230 240 250 230 240 250 231 241 251 232 242 252 232 242 252 233 243 253 234 244 254 235 245 255 236 246 256 236 246 256 236 246 256 236 246 256 235 245 255 235 245 255 234 244 254 234 244 254 233 243 253 234 244 254 234 244 254 234 244 254 234 244 254 235 245 255 235 245 255 234 244 254 234 244 254 234 244 254 233 243 253 233 243 253 233 243 253 233 243 253 233 243 253 234 244 254 234 244 254 234 244 254 234 244 254 234 244 254 233 243 253 233 243 253 232 242 252 231 241 251 230 240 250 230 240 250 230 240 250 230 240 250 230 240 250 230 240 250 230 240 250 230 240 250 229 239 249 229 239 249 228 238 248 227 237 247 226 236 246 226 236 246 225 235 245 225 235 245 224 234 244 224 234 244 224 234 244 223 233 243 222 232 242 103 113 123 103 113 123 102 112 122 101 111 121 101 111 121 100 110 120 100 110 120 99 109 119 99 109 119 99 109 119 99 109 119 99 109 119 99 109 119 99 109 119 99 109 119 98 108 118 98 108 118 98 108 118 98 108 118 98 108 118 99 109 119 99 109 119 99 109 119 100 110 120 100 110 120 100 110 120 100 110 120 100 110 120 99 109 119 99 109 119 99 109 119 99 109 119 99 109 119 100 110 120 100 110 120 100 110 120 101 111 121 101 111 121 101 111 121 101 111 121 100 110 120 100 110 120 100 110 120 100 110 120 100 110 120 100 110 120 100 110 120 100 110 120 99 109 119 99 109 119 99 109 119 98 108 118 98 108 118 97 107 117 96 106 116 95 105 115 95 105 115 94 104 114 94 104 114 94 104 114 94 104 114 94 104 114 93 103 113 93 103 113 93 103 113 92 102 112 92 102 112 91 101 111 91 101 111 91 101 111 91 101 111 91 101 111 91 101 111 91 101 111 91 101 111 91 101 111 90 100 110 90 100 110 89 99 109 89 99 109 89 99 109 88 98 108 88 98 108 88 98 108 89 99 109 89 99 109 89 99 109 89 99 109 89 99 109 89 99 109 89 99 109 88 98 108 88 98 108 88 98 108 88 98 108 88 98 108 88 98 108 88 98 108 89 99 109 89 99 109 89 99 109 88 98 108 88 98 108 88 98 108 88 98 108 87 97 107 87 97 107 87 97 107 88 98 108 88 98 108 88 98 108 89 99 109 89 99 109 90 100 110 90 100 110 91 101 111 91 101 111 91 101 111 92 102 112 92 102 112 93 103 113 94 104 114 95 105 115 96 106 116 97 107 117 97 107 117 98 108 118 99 109 119 99 109 119 100 110 120 100 110 120 101 111 121 101 111 121 102 112 122 103 113 123 222 232 242 224 234 244 225 235 245 227 237 247 228 238 248 229 239 249 229 239 249 230 240 250 230 240 250 231 241 251 232 242 252 233 243 253 234 244 254 235 245 255 235 245 255 236 246 256 236 246 256 236 246 256 236 246 256 235 245 255 234 244 254 234 244 254 234 244 254 233 243 253 234 244 254 234 244 254 234 244 254 234 244 254 235 245 255 235 245 255 234 244 254 234 244 254 234 244 254 233 243 253 233 243 253 233 243 253 233 243 253 233 243 253 234 244 254 234 244 254 234 244 254 234 244 254 234 244 254 233 243 253 232 242 252 232 242 252 231 241 251 100 110 120 100 110 120 101 111 121 101 111 121 102 112 122 103 113 123 222 232 242 224 234 244 226 236 246 227 237 247 229 239 249 229 239 249 230 240 250 230 240 250 231 241 251 231 241 251 232 242 252 232 242 252 233 243 253 234 244 254 235 245 255 236 246 256 236 246 256 236 246 256 236 246 256 235 245 255 235 245 255 234 244 254 234 244 254 234 244 254 234 244 254 234 244 254 235 245 255 235 245 255 235 245 255 235 245 255 235 245 255 234 244 254 234 244 254 233 243 253 233 243 253 232 242 252 232 242 252 233 243 253 233 243 253 233 243 253 234 244 254 234 244 254 234 244 254 233 243 253 233 243 253 232 242 252 231 241 251 231 241 251 230 240 250 230 240 250 230 240 250 231 241 251 231 241 251 231 241 251 231 241 251 230 240 250 229 239 249 228 238 248 227 237 247 226 236 246 225 235 245 225 235 245 224 234 244 224 234 244 224 234 244 224 234 244 223 233 243 222 232 242 103 113 123 103 113 123 102 112 122 101 111 121 100 110 120 100 110 120 100 110 120 99 109 119 99 109 119 99 109 119 99 109 119 99 109 119 99 109 119 99 109 119 99 109 119 98 108 118 98 108 118 98 108 118 98 108 118 98 108 118 98 108 118 99 109 119 99 109 119 99 109 119 100 110 120 100 110 120 100 110 120 100 110 120 99 109 119 99 109 119 99 109 119 99 109 119 100 110 120 100 110 120 101 111 121 101 111 121 101 111 121 101 111 121 101 111 121 101 111 121 101 111 121 100 110 120 100 110 120 100 110 120 100 110 120 100 110 120 100 110 120 100 110 120 100 110 120 99 109 119 99 109 119 98 108 118 98 108 118 97 107 117 96 106 116 95 105 115 95 105 115 94 104 114 94 104 114 94 104 114 94 104 114 94 104 114 94 104 114 93 103 113 93 103 113 92 102 112 91 101 111 91 101 111 90 100 110 90 100 110 90 100 110 90 100 110 90 100 110 90 100 110 90 100 110 90 100 110 90 100 110 90 100 110 89 99 109 89 99 109 89 99 109 88 98 108 88 98 108 89 99 109 89 99 109 89 99 109 89 99 109 89 99 109 89 99 109 89 99 109 89 99 109 88 98 108 88 98 108 88 98 108 88 98 108 88 98 108 88 98 108 88 98 108 88 98 108 88 98 108 88 98 108 88 98 108 88 98 108 88 98 108 87 97 107 87 97 107 87 97 107 87 97 107 87 97 107 88 98 108 88 98 108 89 99 109 89 99 109 90 100 110 90 100 110 90 100 110 91 101 111 91 101 111 91 101 111 92 102 112 92 102 112 93 103 113 94 104 114 95 105 115 96 106 116 97 107 117 98 108 118 99 109 119 99 109 119 100 110 120 100 110 120 101 111 121 101 111 121 102 112 122 103 113 123 223 233 243 225 235 245 226 236 246 228 238 248 229 239 249 230 240 250 230 240 250 230 240 250 231 241 251 231 241 251 232 242 252 233 243 253 234 244 254 235 245 255 235 245 255 236 246 256 236 246 256 236 246 256 236 246 256 235 245 255 235 245 255 234 244 254 234 244 254 234 244 254 234 244 254 234 244 254 235 245 255 235 245 255 235 245 255 235 245 255 235 245 255 234 244 254 233 243 253 233 243 253 232 242 252 232 242 252 232 242 252 233 243 253 233 243 253 233 243 253 234 244 254 234 244 254 234 244 254 233 243 253 232 242 252 232 242 252 231 241 251 100 110 120 100 110 120 101 111 121 102 112 122 102 112 122 103 113 123 223 233 243 225 235 245 227 237 247 228 238 248 229 239 249 230 240 250 230 240 250 231 241 251 231 241 251 231 241 251 232 242 252 233 243 253 233 243 253 234 244 254 235 245 255 236 246 256 236 246 256 236 246 256 236 246 256 236 246 256 235 245 255 235 245 255 234 244 254 234 244 254 234 244 254 235 245 255 235 245 255 235 245 255 235 245 255 235 245 255 235 245 255 234 244 254 234 244 254 233 243 253 232 242 252 232 242 252 232 242 252 232 242 252 232 242 252 233 243 253 233 243 253 233 243 253 233 243 253 233 243 253 233 243 253 232 242 252 232 242 252 231 241 251 231 241 251 231 241 251 231 241 251 231 241 251 232 242 252 232 242 252 231 241 251 231 241 251 230 240 250 229 239 249 228 238 248 226 236 246 225 235 245 225 235 245 224 234 244 224 234 244 224 234 244 223 233 243 223 233 243 222 232 242 103 113 123 103 113 123 102 112 122 101 111 121 101 111 121 100 110 120 100 110 120 100 110 120 99 109 119 99 109 119 99 109 119 99 109 119 99 109 119 99 109 119 98 108 118 98 108 118 98 108 118 97 107 117 97 107 117 97 107 117 98 108 118 98 108 118 99 109 119 99 109 119 99 109 119 99 109 119 100 110 120 100 110 120 99 109 119 99 109 119 100 110 120 100 110 120 100 110 120 101 111 121 101 111 121 101 111 121 102 112 122 102 112 122 102 112 122 101 111 121 101 111 121 101 111 121 100 110 120 100 110 120 100 110 120 100 110 120 100 110 120 100 110 120 99 109 119 99 109 119 99 109 119 98 108 118 98 108 118 97 107 117 96 106 116 96 106 116 95 105 115 95 105 115 94 104 114 94 104 114 94 104 114 94 104 114 94 104 114 93 103 113 93 103 113 92 102 112 91 101 111 91 101 111 90 100 110 90 100 110 90 100 110 90 100 110 90 100 110 90 100 110 90 100 110 90 100 110 90 100 110 90 100 110 89 99 109 89 99 109 89 99 109 89 99 109 89 99 109 89 99 109 89 99 109 89 99 109 90 100 110 90 100 110 90 100 110 89 99 109 89 99 109 88 98 108 88 98 108 88 98 108 88 98 108 88 98 108 88 98 108 88 98 108 88 98 108 88 98 108 88 98 108 88 98 108 88 98 108 88 98 108 87 97 107 87 97 107 87 97 107 87 97 107 87 97 107 88 98 108 88 98 108 89 99 109 89 99 109 90 100 110 90 100 110 90 100 110 90 100 110 90 100 110 91 101 111 91 101 111 92 102 112 93 103 113 94 104 114 95 105 115 96 106 116 97 107 117 98 108 118 98 108 118 99 109 119 100 110 120 100 110 120 101 111 121 102 112 122 103 113 123 222 232 242 224 234 244 226 236 246 227 237 247 229 239 249 230 240 250 230 240 250 231 241 251 231 241 251 231 241 251 231 241 251 232 242 252 233 243 253 234 244 254 235 245 255 235 245 255 236 246 256 236 246 256 236 246 256 236 246 256 236 246 256 235 245 255 235 245 255 234 244 254 234 244 254 235 245 255 235 245 255 235 245 255 235 245 255 235 245 255 235 245 255 235 245 255 234 244 254 233 243 253 233 243 253 232 242 252 232 242 252 232 242 252 232 242 252 232 242 252 233 243 253 233 243 253 233 243 253 233 243 253 233 243 253 232 242 252 232 242 252 231 241 251 100 110 120 100 110 120 101 111 121 102 112 122 103 113 123 222 232 242 224 234 244 226 236 246 227 237 247 229 239 249 230 240 250 230 240 250 231 241 251 231 241 251 231 241 251 232 242 252 232 242 252 233 243 253 233 243 253 234 244 254 235 245 255 236 246 256 236 246 256 236 246 256 236 246 256 236 246 256 236 246 256 235 245 255 235 245 255 235 245 255 235 245 255 235 245 255 236 246 256 236 246 256 236 246 256 235 245 255 235 245 255 234 244 254 233 243 253 233 243 253 232 242 252 232 242 252 231 241 251 232 242 252 232 242 252 232 242 252 233 243 253 233 243 253 233 243 253 233 243 253 233 243 253 232 242 252 232 242 252 232 242 252 232 242 252 232 242 252 232 242 252 232 242 252 232 242 252 232 242 252 232 242 252 231 241 251 230 240 250 229 239 249 228 238 248 227 237 247 226 236 246 225 235 245 224 234 244 224 234 244 223 233 243 223 233 243 222 232 242 103 113 123 103 113 123 102 112 122 102 112 122 101 111 121 101 111 121 100 110 120 100 110 120 100 110 120 100 110 120 100 110 120 99 109 119 99 109 119 99 109 119 99 109 119 98 108 118 98 108 118 97 107 117 97 107 117 97 107 117 97 107 117 97 107 117 98 108 118 98 108 118 99 109 119 99 109 119 99 109 119 99 109 119 99 109 119 100 110 120 100 110 120 100 110 120 100 110 120 101 111 121 101 111 121 101 111 121 102 112 122 102 112 122 102 112 122 102 112 122 102 112 122 101 111 121 101 111 121 100 110 120 100 110 120 100 110 120 100 110 120 99 109 119 99 109 119 99 109 119 99 109 119 99 109 119 98 108 118 98 108 118 97 107 117 96 106 116 96 106 116 95 105 115 95 105 115 95 105 115 95 105 115 94 104 114 94 104 114 94 104 114 93 103 113 92 102 112 92 102 112 91 101 111 90 100 110 90 100 110 90 100 110 89 99 109 89 99 109 89 99 109 90 100 110 90 100 110 90 100 110 90 100 110 89 99 109 89 99 109 89 99 109 89 99 109 89 99 109 89 99 109 89 99 109 89 99 109 90 100 110 90 100 110 90 100 110 90 100 110 89 99 109 89 99 109 89 99 109 88 98 108 88 98 108 88 98 108 87 97 107 87 97 107 88 98 108 88 98 108 88 98 108 88 98 108 88 98 108 88 98 108 87 97 107 87 97 107 87 97 107 87 97 107 87 97 107 88 98 108 88 98 108 88 98 108 89 99 109 89 99 109 90 100 110 90 100 110 90 100 110 90 100 110 90 100 110 90 100 110 91 101 111 92 102 112 92 102 112 93 103 113 94 104 114 95 105 115 96 106 116 97 107 117 98 108 118 99 109 119 100 110 120 100 110 120 101 111 121 102 112 122 103 113 123 223 233 243 225 235 245 226 236 246 228 238 248 229 239 249 230 240 250 231 241 251 231 241 251 231 241 251 232 242 252 232 242 252 232 242 252 233 243 253 234 244 254 234 244 254 235 245 255 236 246 256 236 246 256 236 246 256 236 246 256 236 246 256 235 245 255 235 245 255 235 245 255 235 245 255 235 245 255 235 245 255 236 246 256 236 246 256 236 246 256 235 245 255 235 245 255 234 244 254 233 243 253 232 242 252 232 242 252 232 242 252 231 241 251 232 242 252 232 242 252 232 242 252 233 243 253 233 243 253 233 243 253 233 243 253 232 242 252 232 242 252 232 242 252 100 110 120 100 110 120 101 111 121 102 112 122 103 113 123 223 233 243 225 235 245 226 236 246 228 238 248 229 239 249 230 240 250 231 241 251 231 241 251 232 242 252 232 242 252 232 242 252 233 243 253 233 243 253 234 244 254 234 244 254 235 245 255 235 245 255 236 246 256 236 246 256 236 246 256 236 246 256 236 246 256 236 246 256 236 246 256 236 246 256 236 246 256 236 246 256 236 246 256 236 246 256 236 246 256 235 245 255 235 245 255 234 244 254 233 243 253 233 243 253 232 242 252 232 242 252 231 241 251 231 241 251 231 241 251 232 242 252 232 242 252 232 242 252 232 242 252 232 242 252 232 242 252 232 242 252 232 242 252 232 242 252 232 242 252 233 243 253 233 243 253 233 243 253 233 243 253 232 242 252 232 242 252 231 241 251 230 240 250 229 239 249 228 238 248 227 237 247 226 236 246 225 235 245 224 234 244 223 233 243 223 233 243 222 232 242 222 232 242 103 113 123 103 113 123 102 112 122 102 112 122 101 111 121 101 111 121 100 110 120 100 110 120 100 110 120 100 110 120 100 110 120 99 109 119 99 109 119 99 109 119 98 108 118 98 108 118 98 108 118 97 107 117 97 107 117 97 107 117 97 107 117 97 107 117 97 107 117 98 108 118 98 108 118 98 108 118 99 109 119 99 109 119 99 109 119 100 110 120 100 110 120 100 110 120 101 111 121 101 111 121 101 111 121 102 112 122 102 112 122 102 112 122 102 112 122 102 112 122 102 112 122 101 111 121 101 111 121 101 111 121 100 110 120 100 110 120 100 110 120 99 109 119 99 109 119 99 109 119 99 109 119 98 108 118 98 108 118 98 108 118 97 107 117 97 107 117 96 106 116 96 106 116 95 105 115 95 105 115 95 105 115 94 104 114 94 104 114 93 103 113 93 103 113 92 102 112 92 102 112 91 101 111 90 100 110 90 100 110 89 99 109 89 99 109 89 99 109 89 99 109 89 99 109 89 99 109 89 99 109 89 99 109 89 99 109 89 99 109 89 99 109 89 99 109 89 99 109 89 99 109 90 100 110 90 100 110 90 100 110 90 100 110 90 100 110 90 100 110 89 99 109 89 99 109 89 99 109 88 98 108 88 98 108 88 98 108 87 97 107 87 97 107 87 97 107 87 97 107 87 97 107 87 97 107 87 97 107 87 97 107 87 97 107 87 97 107 87 97 107 87 97 107 88 98 108 88 98 108 88 98 108 88 98 108 89 99 109 89 99 109 89 99 109 89 99 109 90 100 110 90 100 110 90 100 110 90 100 110 91 101 111 91 101 111 92 102 112 93 103 113 94 104 114 95 105 115 96 106 116 97 107 117 98 108 118 99 109 119 100 110 120 101 111 121 102 112 122 103 113 123 222 232 242 224 234 244 225 235 245 227 237 247 228 238 248 229 239 249 230 240 250 231 241 251 231 241 251 232 242 252 232 242 252 232 242 252 233 243 253 233 243 253 234 244 254 234 244 254 235 245 255 235 245 255 236 246 256 236 246 256 236 246 256 236 246 256 236 246 256 236 246 256 236 246 256 236 246 256 236 246 256 236 246 256 236 246 256 236 246 256 235 245 255 235 245 255 234 244 254 234 244 254 233 243 253 232 242 252 232 242 252 231 241 251 231 241 251 231 241 251 231 241 251 232 242 252 232 242 252 232 242 252 232 242 252 232 242 252 232 242 252 232 242 252 232 242 252 100 110 120 101 111 121 102 112 122 103 113 123 222 232 242 224 234 244 225 235 245 227 237 247 228 238 248 229 239 249 230 240 250 231 241 251 231 241 251 232 242 252 232 242 252 233 243 253 233 243 253 233 243 253 234 244 254 234 244 254 234 244 254 235 245 255 235 245 255 235 245 255 236 246 256 236 246 256 236 246 256 236 246 256 237 247 257 237 247 257 237 247 257 236 246 256 236 246 256 236 246 256 235 245 255 235 245 255 234 244 254 234 244 254 233 243 253 233 243 253 232 242 252 232 242 252 231 241 251 231 241 251 231 241 251 231 241 251 231 241 251 231 241 251 232 242 252 232 242 252 232 242 252 233 243 253 233 243 253 233 243 253 233 243 253 233 243 253 233 243 253 233 243 253 233 243 253 232 242 252 232 242 252 231 241 251 230 240 250 229 239 249 228 238 248 227 237 247 226 236 246 225 235 245 224 234 244 223 233 243 222 232 242 222 232 242 103 113 123 103 113 123 102 112 122 102 112 122 102 112 122 101 111 121 101 111 121 101 111 121 101 111 121 100 110 120 100 110 120 100 110 120 99 109 119 99 109 119 98 108 118 98 108 118 98 108 118 97 107 117 97 107 117 97 107 117 97 107 117 97 107 117 97 107 117 97 107 117 97 107 117 98 108 118 98 108 118 98 108 118 99 109 119 99 109 119 100 110 120 100 110 120 101 111 121 101 111 121 102 112 122 102 112 122 102 112 122 102 112 122 102 112 122 102 112 122 102 112 122 102 112 122 102 112 122 101 111 121 101 111 121 100 110 120 100 110 120 100 110 120 99 109 119 99 109 119 99 109 119 98 108 118 98 108 118 98 108 118 98 108 118 97 107 117 97 107 117 97 107 117 96 106 116 96 106 116 95 105 115 95 105 115 94 104 114 94 104 114 93 103 113 93 103 113 92 102 112 91 101 111 91 101 111 90 100 110 90 100 110 89 99 109 89 99 109 89 99 109 89 99 109 89 99 109 89 99 109 89 99 109 89 99 109 89 99 109 89 99 109 89 99 109 90 100 110 90 100 110 90 100 110 90 100 110 90 100 110 90 100 110 90 100 110 90 100 110 90 100 110 89 99 109 89 99 109 89 99 109 88 98 108 88 98 108 88 98 108 87 97 107 87 97 107 87 97 107 87 97 107 87 97 107 87 97 107 87 97 107 87 97 107 87 97 107 87 97 107 87 97 107 88 98 108 88 98 108 88 98 108 88 98 108 88 98 108 89 99 109 89 99 109 89 99 109 89 99 109 89 99 109 90 100 110 90 100 110 90 100 110 91 101 111 91 101 111 92 102 112 93 103 113 94 104 114 94 104 114 95 105 115 96 106 116 98 108 118 99 109 119 100 110 120 101 111 121 102 112 122 103 113 123 223 233 243 224 234 244 226 236 246 227 237 247 228 238 248 229 239 249 230 240 250 231 241 251 232 242 252 232 242 252 233 243 253 233 243 253 233 243 253 233 243 253 234 244 254 234 244 254 234 244 254 235 245 255 235 245 255 235 245 255 236 246 256 236 246 256 236 246 256 236 246 256 237 247 257 237 247 257 236 246 256 236 246 256 236 246 256 236 246 256 235 245 255 235 245 255 234 244 254 234 244 254 233 243 253 232 242 252 232 242 252 232 242 252 231 241 251 231 241 251 231 241 251 231 241 251 231 241 251 231 241 251 232 242 252 232 242 252 232 242 252 233 243 253 233 243 253 100 110 120 101 111 121 102 112 122 103 113 123 223 233 243 225 235 245 226 236 246 227 237 247 228 238 248 229 239 249 230 240 250 231 241 251 232 242 252 232 242 252 233 243 253 233 243 253 234 244 254 234 244 254 234 244 254 234 244 254 234 244 254 234 244 254 235 245 255 235 245 255 235 245 255 236 246 256 237 247 257 237 247 257 237 247 257 237 247 257 237 247 257 237 247 257 236 246 256 236 246 256 235 245 255 235 245 255 234 244 254 234 244 254 233 243 253 233 243 253 232 242 252 232 242 252 231 241 251 231 241 251 231 241 251 231 241 251 230 240 250 231 241 251 231 241 251 231 241 251 232 242 252 233 243 253 233 243 253 234 244 254 234 244 254 234 244 254 234 244 254 234 244 254 233 243 253 233 243 253 232 242 252 231 241 251 230 240 250 229 239 249 229 239 249 228 238 248 227 237 247 226 236 246 224 234 244 223 233 243 222 232 242 103 113 123 103 113 123 102 112 122 102 112 122 102 112 122 102 112 122 102 112 122 101 111 121 101 111 121 101 111 121 100 110 120 100 110 120 100 110 120 99 109 119 99 109 119 98 108 118 98 108 118 98 108 118 97 107 117 97 107 117 97 107 117 97 107 117 97 107 117 97 107 117 97 107 117 97 107 117 97 107 117 97 107 117 98 108 118 99 109 119 99 109 119 100 110 120 101 111 121 101 111 121 102 112 122 102 112 122 102 112 122 102 112 122 102 112 122 102 112 122 102 112 122 102 112 122 102 112 122 102 112 122 101 111 121 101 111 121 101 111 121 100 110 120 100 110 120 99 109 119 99 109 119 98 108 118 98 108 118 98 108 118 98 108 118 97 107 117 97 107 117 97 107 117 97 107 117 97 107 117 96 106 116 96 106 116 95 105 115 94 104 114 94 104 114 93 103 113 92 102 112 92 102 112 91 101 111 91 101 111 90 100 110 90 100 110 89 99 109 89 99 109 89 99 109 88 98 108 88 98 108 88 98 108 88 98 108 89 99 109 89 99 109 89 99 109 90 100 110 90 100 110 90 100 110 90 100 110 90 100 110 90 100 110 90 100 110 90 100 110 90 100 110 89 99 109 89 99 109 89 99 109 89 99 109 89 99 109 88 98 108 88 98 108 88 98 108 87 97 107 87 97 107 87 97 107 86 96 106 86 96 106 87 97 107 87 97 107 87 97 107 87 97 107 88 98 108 88 98 108 88 98 108 88 98 108 88 98 108 88 98 108 88 98 108 89 99 109 89 99 109 89 99 109 89 99 109 89 99 109 90 100 110 90 100 110 91 101 111 91 101 111 92 102 112 92 102 112 93 103 113 94 104 114 95 105 115 96 106 116 97 107 117 99 109 119 100 110 120 101 111 121 102 112 122 222 232 242 223 233 243 225 235 245 226 236 246 227 237 247 229 239 249 229 239 249 230 240 250 231 241 251 232 242 252 232 242 252 233 243 253 233 243 253 234 244 254 234 244 254 234 244 254 234 244 254 234 244 254 234 244 254 235 245 255 235 245 255 236 246 256 236 246 256 237 247 257 237 247 257 237 247 257 237 247 257 237 247 257 237 247 257 236 246 256 236 246 256 235 245 255 234 244 254 234 244 254 233 243 253 233 243 253 233 243 253 232 242 252 232 242 252 231 241 251 231 241 251 231 241 251 230 240 250 230 240 250 231 241 251 231 241 251 232 242 252 232 242 252 233 243 253 234 244 254 100 110 120 101 111 121 102 112 122 222 232 242 224 234 244 225 235 245 226 236 246 227 237 247 228 238 248 229 239 249 230 240 250 231 241 251 232 242 252 232 242 252 233 243 253 234 244 254 234 244 254 234 244 254 234 244 254 234 244 254 234 244 254 234 244 254 234 244 254 235 245 255 235 245 255 236 246 256 237 247 257 237 247 257 238 248 258 238 248 258 238 248 258 237 247 257 237 247 257 236 246 256 235 245 255 234 244 254 234 244 254 233 243 253 233 243 253 233 243 253 232 242 252 232 242 252 232 242 252 231 241 251 231 241 251 230 240 250 230 240 250 230 240 250 230 240 250 231 241 251 232 242 252 233 243 253 234 244 254 234 244 254 235 245 255 235 245 255 235 245 255 234 244 254 233 243 253 232 242 252 232 242 252 231 241 251 230 240 250 229 239 249 229 239 249 228 238 248 227 237 247 226 236 246 225 235 245 223 233 243 222 232 242 103 113 123 102 112 122 102 112 122 102 112 122 102 112 122 102 112 122 102 112 122 102 112 122 101 111 121 101 111 121 101 111 121 100 110 120 99 109 119 99 109 119 98 108 118 98 108 118 98 108 118 97 107 117 97 107 117 97 107 117 97 107 117 97 107 117 97 107 117 97 107 117 97 107 117 97 107 117 97 107 117 97 107 117 98 108 118 98 108 118 99 109 119 100 110 120 101 111 121 102 112 122 102 112 122 102 112 122 102 112 122 102 112 122 102 112 122 102 112 122 102 112 122 102 112 122 102 112 122 102 112 122 102 112 122 101 111 121 101 111 121 100 110 120 100 110 120 99 109 119 99 109 119 98 108 118 98 108 118 98 108 118 97 107 117 97 107 117 97 107 117 97 107 117 97 107 117 97 107 117 96 106 116 96 106 116 95 105 115 94 104 114 94 104 114 93 103 113 92 102 112 92 102 112 91 101 111 91 101 111 90 100 110 90 100 110 90 100 110 89 99 109 89 99 109 88 98 108 88 98 108 88 98 108 88 98 108 88 98 108 89 99 109 89 99 109 90 100 110 90 100 110 90 100 110 91 101 111 91 101 111 90 100 110 90 100 110 90 100 110 90 100 110 89 99 109 89 99 109 89 99 109 89 99 109 89 99 109 88 98 108 88 98 108 88 98 108 87 97 107 87 97 107 86 96 106 86 96 106 86 96 106 86 96 106 87 97 107 87 97 107 87 97 107 88 98 108 88 98 108 88 98 108 88 98 108 88 98 108 88 98 108 88 98 108 88 98 108 88 98 108 89 99 109 89 99 109 89 99 109 90 100 110 90 100 110 91 101 111 91 101 111 92 102 112 92 102 112 93 103 113 94 104 114 95 105 115 96 106 116 97 107 117 98 108 118 100 110 120 101 111 121 103 113 123 222 232 242 224 234 244 226 236 246 227 237 247 228 238 248 229 239 249 229 239 249 230 240 250 231 241 251 232 242 252 233 243 253 233 243 253 234 244 254 234 244 254 234 244 254 234 244 254 234 244 254 234 244 254 234 244 254 234 244 254 235 245 255 235 245 255 236 246 256 237 247 257 238 248 258 238 248 258 238 248 258 238 248 258 237 247 257 236 246 256 236 246 256 235 245 255 234 244 254 234 244 254 233 243 253 233 243 253 233 243 253 232 242 252 232 242 252 231 241 251 231 241 251 230 240 250 230 240 250 230 240 250 230 240 250 231 241 251 231 241 251 232 242 252 233 243 253 234 244 254 100 110 120 101 111 121 103 113 123 222 232 242 224 234 244 225 235 245 227 237 247 227 237 247 228 238 248 229 239 249 230 240 250 231 241 251 232 242 252 233 243 253 233 243 253 234 244 254 234 244 254 234 244 254 234 244 254 234 244 254 234 244 254 234 244 254 234 244 254 234 244 254 235 245 255 236 246 256 237 247 257 238 248 258 238 248 258 238 248 258 238 248 258 237 247 257 237 247 257 236 246 256 235 245 255 234 244 254 234 244 254 233 243 253 233 243 253 233 243 253 233 243 253 232 242 252 232 242 252 231 241 251 230 240 250 230 240 250 230 240 250 230 240 250 230 240 250 231 241 251 232 242 252 233 243 253 234 244 254 235 245 255 235 245 255 235 245 255 235 245 255 234 244 254 233 243 253 232 242 252 232 242 252 231 241 251 230 240 250 230 240 250 229 239 249 228 238 248 227 237 247 226 236 246 225 235 245 223 233 243 222 232 242 103 113 123 102 112 122 102 112 122 102 112 122 102 112 122 102 112 122 102 112 122 102 112 122 102 112 122 101 111 121 101 111 121 100 110 120 99 109 119 99 109 119 98 108 118 98 108 118 97 107 117 97 107 117 97 107 117 97 107 117 97 107 117 97 107 117 97 107 117 97 107 117 96 106 116 96 106 116 97 107 117 97 107 117 98 108 118 98 108 118 99 109 119 100 110 120 101 111 121 102 112 122 102 112 122 103 113 123 103 113 123 103 113 123 102 112 122 102 112 122 102 112 122 102 112 122 102 112 122 102 112 122 102 112 122 101 111 121 101 111 121 101 111 121 100 110 120 99 109 119 99 109 119 98 108 118 98 108 118 97 107 117 97 107 117 97 107 117 97 107 117 97 107 117 97 107 117 97 107 117 97 107 117 96 106 116 95 105 115 94 104 114 93 103 113 93 103 113 92 102 112 92 102 112 91 101 111 91 101 111 90 100 110 90 100 110 90 100 110 89 99 109 89 99 109 88 98 108 88 98 108 88 98 108 88 98 108 88 98 108 89 99 109 89 99 109 90 100 110 90 100 110 91 101 111 91 101 111 91 101 111 91 101 111 90 100 110 90 100 110 90 100 110 89 99 109 89 99 109 89 99 109 89 99 109 89 99 109 88 98 108 88 98 108 88 98 108 87 97 107 87 97 107 86 96 106 86 96 106 86 96 106 86 96 106 86 96 106 87 97 107 87 97 107 88 98 108 88 98 108 89 99 109 89 99 109 89 99 109 88 98 108 88 98 108 88 98 108 88 98 108 88 98 108 89 99 109 89 99 109 90 100 110 90 100 110 91 101 111 91 101 111 92 102 112 92 102 112 93 103 113 93 103 113 94 104 114 96 106 116 97 107 117 98 108 118 100 110 120 102 112 122 103 113 123 223 233 243 224 234 244 226 236 246 227 237 247 228 238 248 228 238 248 229 239 249 230 240 250 231 241 251 232 242 252 233 243 253 234 244 254 234 244 254 234 244 254 234 244 254 234 244 254 234 244 254 234 244 254 234 244 254 234 244 254 235 245 255 235 245 255 236 246 256 237 247 257 238 248 258 238 248 258 238 248 258 238 248 258 237 247 257 236 246 256 235 245 255 235 245 255 234 244 254 234 244 254 233 243 253 233 243 253 233 243 253 232 242 252 232 242 252 232 242 252 231 241 251 230 240 250 230 240 250 230 240 250 230 240 250 230 240 250 231 241 251 232 242 252 233 243 253 234 244 254 100 110 120 101 111 121 103 113 123 222 232 242 224 234 244 225 235 245 227 237 247 227 237 247 228 238 248 229 239 249 230 240 250 231 241 251 232 242 252 233 243 253 233 243 253 234 244 254 234 244 254 234 244 254 234 244 254 234 244 254 234 244 254 234 244 254 234 244 254 234 244 254 235 245 255 236 246 256 237 247 257 238 248 258 238 248 258 238 248 258 238 248 258 237 247 257 237 247 257 236 246 256 235 245 255 234 244 254 234 244 254 233 243 253 233 243 253 233 243 253 233 243 253 232 242 252 232 242 252 231 241 251 230 240 250 230 240 250 230 240 250 230 240 250 230 240 250 231 241 251 232 242 252 233 243 253 234 244 254 235 245 255 235 245 255 235 245 255 235 245 255 234 244 254 233 243 253 232 242 252 232 242 252 231 241 251 230 240 250 230 240 250 229 239 249 228 238 248 227 237 247 226 236 246 225 235 245 223 233 243 222 232 242 103 113 123 102 112 122 102 112 122 102 112 122 102 112 122 102 112 122 102 112 122 102 112 122 102 112 122 101 111 121 101 111 121 100 110 120 99 109 119 99 109 119 98 108 118 98 108 118 97 107 117 97 107 117 97 107 117 97 107 117 97 107 117 97 107 117 97 107 117 97 107 117 96 106 116 96 106 116 97 107 117 97 107 117 97 107 117 98 108 118 99 109 119 100 110 120 101 111 121 102 112 122 102 112 122 103 113 123 103 113 123 103 113 123 102 112 122 102 112 122 102 112 122 102 112 122 102 112 122 102 112 122 102 112 122 101 111 121 101 111 121 101 111 121 100 110 120 99 109 119 99 109 119 98 108 118 98 108 118 97 107 117 97 107 117 97 107 117 97 107 117 97 107 117 97 107 117 97 107 117 97 107 117 96 106 116 95 105 115 94 104 114 93 103 113 93 103 113 92 102 112 92 102 112 91 101 111 91 101 111 90 100 110 90 100 110 90 100 110 89 99 109 89 99 109 88 98 108 88 98 108 88 98 108 88 98 108 88 98 108 89 99 109 89 99 109 90 100 110 90 100 110 91 101 111 91 101 111 91 101 111 91 101 111 90 100 110 90 100 110 90 100 110 89 99 109 89 99 109 89 99 109 89 99 109 89 99 109 88 98 108 88 98 108 88 98 108 87 97 107 87 97 107 86 96 106 86 96 106 86 96 106 86 96 106 86 96 106 87 97 107 87 97 107 88 98 108 88 98 108 89 99 109 89 99 109 89 99 109 88 98 108 88 98 108 88 98 108 88 98 108 88 98 108 89 99 109 89 99 109 90 100 110 90 100 110 91 101 111 91 101 111 92 102 112 92 102 112 93 103 113 93 103 113 94 104 114 96 106 116 97 107 117 98 108 118 100 110 120 102 112 122 103 113 123 223 233 243 225 235 245 226 236 246 227 237 247 228 238 248 228 238 248 229 239 249 230 240 250 231 241 251 232 242 252 233 243 253 234 244 254 234 244 254 234 244 254 234 244 254 234 244 254 234 244 254 234 244 254 234 244 254 234 244 254 235 245 255 235 245 255 236 246 256 237 247 257 238 248 258 238 248 258 238 248 258 238 248 258 237 247 257 236 246 256 235 245 255 235 245 255 234 244 254 233 243 253 233 243 253 233 243 253 233 243 253 233 243 253 232 242 252 232 242 252 231 241 251 230 240 250 230 240 250 230 240 250 230 240 250 230 240 250 231 241 251 232 242 252 233 243 253 234 244 254 100 110 120 101 111 121 102 112 122 222 232 242 224 234 244 225 235 245 226 236 246 227 237 247 228 238 248 229 239 249 230 240 250 231 241 251 232 242 252 233 243 253 233 243 253 234 244 254 234 244 254 234 244 254 234 244 254 234 244 254 234 244 254 234 244 254 234 244 254 234 244 254 235 245 255 236 246 256 237 247 257 238 248 258 238 248 258 238 248 258 238 248 258 237 247 257 237 247 257 236 246 256 235 245 255 234 244 254 234 244 254 233 243 253 233 243 253 233 243 253 233 243 253 232 242 252 232 242 252 231 241 251 230 240 250 230 240 250 230 240 250 230 240 250 230 240 250 231 241 251 232 242 252 233 243 253 234 244 254 235 245 255 235 245 255 235 245 255 235 245 255 234 244 254 233 243 253 232 242 252 232 242 252 231 241 251 230 240 250 230 240 250 229 239 249 228 238 248 227 237 247 226 236 246 225 235 245 223 233 243 222 232 242 103 113 123 102 112 122 102 112 122 102 112 122 102 112 122 102 112 122 102 112 122 102 112 122 101 111 121 101 111 121 101 111 121 100 110 120 99 109 119 99 109 119 98 108 118 98 108 118 98 108 118 97 107 117 97 107 117 97 107 117 97 107 117 97 107 117 97 107 117 97 107 117 96 106 116 96 106 116 97 107 117 97 107 117 98 108 118 98 108 118 99 109 119 100 110 120 101 111 121 102 112 122 102 112 122 102 112 122 103 113 123 102 112 122 102 112 122 102 112 122 102 112 122 102 112 122 102 112 122 102 112 122 102 112 122 101 111 121 101 111 121 101 111 121 100 110 120 99 109 119 99 109 119 98 108 118 98 108 118 97 107 117 97 107 117 97 107 117 97 107 117 97 107 117 97 107 117 97 107 117 97 107 117 96 106 116 95 105 115 94 104 114 94 104 114 93 103 113 92 102 112 92 102 112 91 101 111 91 101 111 90 100 110 90 100 110 90 100 110 89 99 109 89 99 109 88 98 108 88 98 108 88 98 108 88 98 108 88 98 108 89 99 109 89 99 109 90 100 110 90 100 110 91 101 111 91 101 111 91 101 111 91 101 111 90 100 110 90 100 110 90 100 110 89 99 109 89 99 109 89 99 109 89 99 109 89 99 109 88 98 108 88 98 108 88 98 108 87 97 107 87 97 107 86 96 106 86 96 106 86 96 106 86 96 106 86 96 106 87 97 107 87 97 107 88 98 108 88 98 108 88 98 108 89 99 109 89 99 109 88 98 108 88 98 108 88 98 108 88 98 108 89 99 109 89 99 109 89 99 109 90 100 110 90 100 110 91 101 111 91 101 111 92 102 112 92 102 112 93 103 113 94 104 114 95 105 115 96 106 116 97 107 117 98 108 118 100 110 120 101 111 121 103 113 123 223 233 243 224 234 244 226 236 246 227 237 247 228 238 248 228 238 248 229 239 249 230 240 250 231 241 251 232 242 252 233 243 253 233 243 253 234 244 254 234 244 254 234 244 254 234 244 254 234 244 254 234 244 254 234 244 254 234 244 254 235 245 255 235 245 255 236 246 256 237 247 257 238 248 258 238 248 258 238 248 258 238 248 258 237 247 257 236 246 256 235 245 255 235 245 255 234 244 254 234 244 254 233 243 253 233 243 253 233 243 253 232 242 252 232 242 252 231 241 251 231 241 251 230 240 250 230 240 250 230 240 250 230 240 250 230 240 250 231 241 251 232 242 252 233 243 253 234 244 254 100 110 120 101 111 121 102 112 122 103 113 123 223 233 243 225 235 245 226 236 246 227 237 247 228 238 248 229 239 249 230 240 250 231 241 251 232 242 252 232 242 252 233 243 253 233 243 253 234 244 254 234 244 254 234 244 254 234 244 254 234 244 254 234 244 254 234 244 254 235 245 255 235 245 255 236 246 256 237 247 257 237 247 257 237 247 257 238 248 258 237 247 257 237 247 257 236 246 256 236 246 256 235 245 255 234 244 254 234 244 254 234 244 254 233 243 253 233 243 253 232 242 252 232 242 252 232 242 252 231 241 251 231 241 251 230 240 250 230 240 250 230 240 250 231 241 251 231 241 251 232 242 252 233 243 253 234 244 254 234 244 254 234 244 254 234 244 254 234 244 254 234 244 254 233 243 253 232 242 252 232 242 252 231 241 251 230 240 250 229 239 249 229 239 249 228 238 248 227 237 247 226 236 246 224 234 244 223 233 243 222 232 242 103 113 123 103 113 123 102 112 122 102 112 122 102 112 122 102 112 122 102 112 122 101 111 121 101 111 121 101 111 121 101 111 121 100 110 120 99 109 119 99 109 119 98 108 118 98 108 118 98 108 118 97 107 117 97 107 117 97 107 117 97 107 117 97 107 117 97 107 117 97 107 117 97 107 117 97 107 117 97 107 117 97 107 117 98 108 118 98 108 118 99 109 119 100 110 120 101 111 121 101 111 121 102 112 122 102 112 122 102 112 122 102 112 122 102 112 122 102 112 122 102 112 122 102 112 122 102 112 122 102 112 122 101 111 121 101 111 121 101 111 121 100 110 120 100 110 120 99 109 119 99 109 119 98 108 118 98 108 118 98 108 118 97 107 117 97 107 117 97 107 117 97 107 117 97 107 117 97 107 117 96 106 116 96 106 116 95 105 115 94 104 114 94 104 114 93 103 113 92 102 112 92 102 112 91 101 111 91 101 111 90 100 110 90 100 110 90 100 110 89 99 109 89 99 109 88 98 108 88 98 108 88 98 108 88 98 108 88 98 108 89 99 109 89 99 109 90 100 110 90 100 110 90 100 110 90 100 110 91 101 111 90 100 110 90 100 110 90 100 110 90 100 110 89 99 109 89 99 109 89 99 109 89 99 109 89 99 109 88 98 108 88 98 108 88 98 108 87 97 107 87 97 107 87 97 107 86 96 106 86 96 106 86 96 106 87 97 107 87 97 107 87 97 107 88 98 108 88 98 108 88 98 108 88 98 108 88 98 108 88 98 108 88 98 108 88 98 108 89 99 109 89 99 109 89 99 109 89 99 109 90 100 110 90 100 110 91 101 111 91 101 111 92 102 112 92 102 112 93 103 113 94 104 114 95 105 115 96 106 116 97 107 117 99 109 119 100 110 120 101 111 121 103 113 123 222 232 242 224 234 244 225 235 245 227 237 247 228 238 248 229 239 249 229 239 249 230 240 250 231 241 251 232 242 252 233 243 253 233 243 253 234 244 254 234 244 254 234 244 254 234 244 254 234 244 254 234 244 254 234 244 254 234 244 254 235 245 255 236 246 256 236 246 256 237 247 257 237 247 257 238 248 258 238 248 258 237 247 257 237 247 257 236 246 256 236 246 256 235 245 255 234 244 254 234 244 254 233 243 253 233 243 253 233 243 253 232 242 252 232 242 252 231 241 251 231 241 251 231 241 251 230 240 250 230 240 250 230 240 250 231 241 251 231 241 251 232 242 252 233 243 253 234 244 254 100 110 120 101 111 121 102 112 122 103 113 123 223 233 243 224 234 244 226 236 246 227 237 247 228 238 248 229 239 249 230 240 250 231 241 251 232 242 252 232 242 252 233 243 253 233 243 253 233 243 253 234 244 254 234 244 254 234 244 254 234 244 254 234 244 254 235 245 255 235 245 255 236 246 256 236 246 256 236 246 256 237 247 257 237 247 257 237 247 257 237 247 257 237 247 257 236 246 256 236 246 256 235 245 255 235 245 255 234 244 254 234 244 254 233 243 253 233 243 253 232 242 252 232 242 252 231 241 251 231 241 251 231 241 251 231 241 251 231 241 251 231 241 251 231 241 251 232 242 252 232 242 252 233 243 253 233 243 253 233 243 253 234 244 254 234 244 254 234 244 254 233 243 253 233 243 253 233 243 253 232 242 252 231 241 251 230 240 250 229 239 249 228 238 248 227 237 247 226 236 246 225 235 245 224 234 244 223 233 243 222 232 242 103 113 123 103 113 123 103 113 123 102 112 122 102 112 122 102 112 122 101 111 121 101 111 121 101 111 121 101 111 121 100 110 120 100 110 120 100 110 120 99 109 119 99 109 119 98 108 118 98 108 118 98 108 118 97 107 117 97 107 117 97 107 117 97 107 117 97 107 117 97 107 117 97 107 117 97 107 117 97 107 117 98 108 118 98 108 118 99 109 119 99 109 119 100 110 120 100 110 120 101 111 121 101 111 121 102 112 122 102 112 122 102 112 122 102 112 122 102 112 122 102 112 122 102 112 122 102 112 122 102 112 122 101 111 121 101 111 121 101 111 121 100 110 120 100 110 120 99 109 119 99 109 119 99 109 119 98 108 118 98 108 118 98 108 118 97 107 117 97 107 117 97 107 117 97 107 117 96 106 116 96 106 116 95 105 115 95 105 115 94 104 114 94 104 114 93 103 113 93 103 113 92 102 112 91 101 111 91 101 111 90 100 110 90 100 110 89 99 109 89 99 109 89 99 109 89 99 109 89 99 109 88 98 108 89 99 109 89 99 109 89 99 109 89 99 109 89 99 109 90 100 110 90 100 110 90 100 110 90 100 110 90 100 110 90 100 110 90 100 110 90 100 110 90 100 110 89 99 109 89 99 109 89 99 109 88 98 108 88 98 108 88 98 108 87 97 107 87 97 107 87 97 107 87 97 107 87 97 107 87 97 107 87 97 107 87 97 107 87 97 107 87 97 107 88 98 108 88 98 108 88 98 108 88 98 108 88 98 108 88 98 108 89 99 109 89 99 109 89 99 109 89 99 109 89 99 109 90 100 110 90 100 110 90 100 110 91 101 111 91 101 111 92 102 112 93 103 113 93 103 113 94 104 114 95 105 115 96 106 116 97 107 117 99 109 119 100 110 120 101 111 121 102 112 122 103 113 123 223 233 243 225 235 245 226 236 246 227 237 247 228 238 248 229 239 249 230 240 250 231 241 251 232 242 252 232 242 252 233 243 253 233 243 253 233 243 253 234 244 254 234 244 254 234 244 254 234 244 254 235 245 255 235 245 255 235 245 255 236 246 256 236 246 256 236 246 256 237 247 257 237 247 257 237 247 257 237 247 257 237 247 257 236 246 256 236 246 256 235 245 255 235 245 255 234 244 254 234 244 254 233 243 253 233 243 253 232 242 252 232 242 252 231 241 251 231 241 251 231 241 251 231 241 251 231 241 251 231 241 251 231 241 251 232 242 252 232 242 252 233 243 253 233 243 253 100 110 120 101 111 121 102 112 122 103 113 123 222 232 242 223 233 243 225 235 245 227 237 247 228 238 248 229 239 249 230 240 250 231 241 251 231 241 251 232 242 252 232 242 252 232 242 252 233 243 253 233 243 253 234 244 254 234 244 254 235 245 255 235 245 255 235 245 255 236 246 256 236 246 256 236 246 256 236 246 256 236 246 256 236 246 256 236 246 256 236 246 256 236 246 256 236 246 256 236 246 256 236 246 256 235 245 255 235 245 255 234 244 254 233 243 253 233 243 253 232 242 252 232 242 252 231 241 251 231 241 251 231 241 251 231 241 251 232 242 252 232 242 252 232 242 252 232 242 252 232 242 252 232 242 252 233 243 253 233 243 253 233 243 253 233 243 253 233 243 253 233 243 253 233 243 253 232 242 252 232 242 252 231 241 251 230 240 250 229 239 249 228 238 248 227 237 247 226 236 246 225 235 245 224 234 244 223 233 243 223 233 243 222 232 242 103 113 123 103 113 123 103 113 123 102 112 122 102 112 122 101 111 121 101 111 121 101 111 121 100 110 120 100 110 120 100 110 120 100 110 120 99 109 119 99 109 119 99 109 119 98 108 118 98 108 118 97 107 117 97 107 117 97 107 117 97 107 117 97 107 117 97 107 117 97 107 117 97 107 117 98 108 118 98 108 118 99 109 119 99 109 119 99 109 119 100 110 120 100 110 120 101 111 121 101 111 121 101 111 121 102 112 122 102 112 122 102 112 122 102 112 122 102 112 122 102 112 122 102 112 122 101 111 121 101 111 121 101 111 121 100 110 120 100 110 120 100 110 120 99 109 119 99 109 119 99 109 119 99 109 119 98 108 118 98 108 118 98 108 118 97 107 117 97 107 117 96 106 116 96 106 116 96 106 116 95 105 115 95 105 115 94 104 114 94 104 114 93 103 113 93 103 113 92 102 112 91 101 111 91 101 111 90 100 110 90 100 110 89 99 109 89 99 109 89 99 109 89 99 109 89 99 109 89 99 109 89 99 109 89 99 109 89 99 109 89 99 109 89 99 109 89 99 109 90 100 110 90 100 110 90 100 110 90 100 110 90 100 110 90 100 110 90 100 110 90 100 110 89 99 109 89 99 109 89 99 109 88 98 108 88 98 108 88 98 108 87 97 107 87 97 107 87 97 107 87 97 107 87 97 107 87 97 107 87 97 107 87 97 107 87 97 107 87 97 107 87 97 107 87 97 107 88 98 108 88 98 108 88 98 108 88 98 108 89 99 109 89 99 109 89 99 109 89 99 109 90 100 110 90 100 110 90 100 110 90 100 110 91 101 111 91 101 111 92 102 112 93 103 113 94 104 114 95 105 115 96 106 116 97 107 117 98 108 118 99 109 119 100 110 120 101 111 121 102 112 122 103 113 123 222 232 242 224 234 244 226 236 246 227 237 247 228 238 248 229 239 249 230 240 250 231 241 251 231 241 251 232 242 252 232 242 252 233 243 253 233 243 253 233 243 253 234 244 254 234 244 254 235 245 255 235 245 255 235 245 255 236 246 256 236 246 256 236 246 256 236 246 256 236 246 256 236 246 256 236 246 256 236 246 256 236 246 256 236 246 256 236 246 256 235 245 255 235 245 255 234 244 254 234 244 254 233 243 253 232 242 252 232 242 252 232 242 252 231 241 251 231 241 251 231 241 251 231 241 251 232 242 252 232 242 252 232 242 252 232 242 252 232 242 252 233 243 253 233 243 253 100 110 120 100 110 120 101 111 121 102 112 122 103 113 123 223 233 243 224 234 244 226 236 246 228 238 248 229 239 249 230 240 250 231 241 251 231 241 251 231 241 251 232 242 252 232 242 252 232 242 252 233 243 253 233 243 253 234 244 254 235 245 255 235 245 255 236 246 256 236 246 256 236 246 256 236 246 256 236 246 256 235 245 255 235 245 255 235 245 255 235 245 255 236 246 256 236 246 256 236 246 256 236 246 256 235 245 255 235 245 255 234 244 254 233 243 253 233 243 253 232 242 252 232 242 252 231 241 251 231 241 251 232 242 252 232 242 252 232 242 252 233 243 253 233 243 253 233 243 253 233 243 253 232 242 252 232 242 252 232 242 252 232 242 252 232 242 252 232 242 252 232 242 252 232 242 252 232 242 252 232 242 252 231 241 251 230 240 250 229 239 249 228 238 248 227 237 247 226 236 246 225 235 245 224 234 244 223 233 243 223 233 243 222 232 242 222 232 242 103 113 123 103 113 123 102 112 122 102 112 122 101 111 121 101 111 121 100 110 120 100 110 120 100 110 120 100 110 120 100 110 120 99 109 119 99 109 119 99 109 119 98 108 118 98 108 118 98 108 118 97 107 117 97 107 117 97 107 117 97 107 117 97 107 117 98 108 118 98 108 118 98 108 118 99 109 119 99 109 119 99 109 119 99 109 119 100 110 120 100 110 120 100 110 120 100 110 120 101 111 121 101 111 121 102 112 122 102 112 122 102 112 122 102 112 122 102 112 122 102 112 122 101 111 121 101 111 121 100 110 120 100 110 120 100 110 120 100 110 120 99 109 119 99 109 119 99 109 119 99 109 119 99 109 119 98 108 118 98 108 118 97 107 117 96 106 116 96 106 116 96 106 116 95 105 115 95 105 115 95 105 115 94 104 114 94 104 114 93 103 113 93 103 113 92 102 112 92 102 112 91 101 111 90 100 110 90 100 110 90 100 110 89 99 109 89 99 109 89 99 109 89 99 109 89 99 109 90 100 110 89 99 109 89 99 109 89 99 109 89 99 109 89 99 109 89 99 109 89 99 109 89 99 109 90 100 110 90 100 110 90 100 110 90 100 110 90 100 110 89 99 109 89 99 109 89 99 109 88 98 108 88 98 108 88 98 108 87 97 107 87 97 107 87 97 107 88 98 108 88 98 108 88 98 108 88 98 108 87 97 107 87 97 107 87 97 107 87 97 107 87 97 107 87 97 107 88 98 108 88 98 108 88 98 108 89 99 109 89 99 109 89 99 109 90 100 110 90 100 110 90 100 110 90 100 110 90 100 110 91 101 111 91 101 111 92 102 112 93 103 113 94 104 114 95 105 115 96 106 116 97 107 117 98 108 118 99 109 119 100 110 120 101 111 121 101 111 121 102 112 122 103 113 123 223 233 243 225 235 245 227 237 247 228 238 248 229 239 249 230 240 250 231 241 251 231 241 251 231 241 251 232 242 252 232 242 252 232 242 252 233 243 253 234 244 254 234 244 254 235 245 255 236 246 256 236 246 256 236 246 256 236 246 256 236 246 256 236 246 256 235 245 255 235 245 255 235 245 255 235 245 255 236 246 256 236 246 256 236 246 256 236 246 256 235 245 255 235 245 255 234 244 254 233 243 253 232 242 252 232 242 252 231 241 251 231 241 251 231 241 251 232 242 252 232 242 252 232 242 252 233 243 253 233 243 253 233 243 253 232 242 252 232 242 252 232 242 252 100 110 120 100 110 120 101 111 121 102 112 122 103 113 123 222 232 242 224 234 244 225 235 245 227 237 247 228 238 248 229 239 249 230 240 250 231 241 251 231 241 251 231 241 251 231 241 251 232 242 252 233 243 253 233 243 253 234 244 254 235 245 255 236 246 256 236 246 256 236 246 256 236 246 256 236 246 256 235 245 255 235 245 255 235 245 255 235 245 255 235 245 255 235 245 255 235 245 255 235 245 255 236 246 256 235 245 255 235 245 255 234 244 254 233 243 253 233 243 253 232 242 252 232 242 252 232 242 252 232 242 252 232 242 252 233 243 253 233 243 253 233 243 253 233 243 253 233 243 253 233 243 253 232 242 252 232 242 252 231 241 251 231 241 251 231 241 251 231 241 251 232 242 252 232 242 252 232 242 252 232 242 252 231 241 251 230 240 250 229 239 249 228 238 248 226 236 246 225 235 245 225 235 245 224 234 244 224 234 244 223 233 243 223 233 243 223 233 243 222 232 242 103 113 123 103 113 123 102 112 122 101 111 121 101 111 121 100 110 120 100 110 120 100 110 120 100 110 120 99 109 119 99 109 119 99 109 119 99 109 119 99 109 119 98 108 118 98 108 118 97 107 117 97 107 117 97 107 117 97 107 117 98 108 118 98 108 118 98 108 118 99 109 119 99 109 119 99 109 119 99 109 119 99 109 119 100 110 120 100 110 120 100 110 120 100 110 120 100 110 120 101 111 121 101 111 121 102 112 122 102 112 122 102 112 122 102 112 122 101 111 121 101 111 121 101 111 121 100 110 120 100 110 120 100 110 120 100 110 120 100 110 120 99 109 119 99 109 119 99 109 119 99 109 119 98 108 118 98 108 118 97 107 117 96 106 116 96 106 116 95 105 115 95 105 115 95 105 115 94 104 114 94 104 114 94 104 114 94 104 114 93 103 113 92 102 112 92 102 112 91 101 111 90 100 110 90 100 110 90 100 110 90 100 110 90 100 110 90 100 110 90 100 110 90 100 110 90 100 110 90 100 110 90 100 110 89 99 109 89 99 109 89 99 109 89 99 109 89 99 109 89 99 109 89 99 109 90 100 110 90 100 110 90 100 110 90 100 110 89 99 109 89 99 109 89 99 109 88 98 108 88 98 108 88 98 108 87 97 107 88 98 108 88 98 108 88 98 108 88 98 108 88 98 108 88 98 108 88 98 108 88 98 108 87 97 107 87 97 107 87 97 107 87 97 107 87 97 107 88 98 108 88 98 108 89 99 109 89 99 109 90 100 110 90 100 110 90 100 110 90 100 110 90 100 110 91 101 111 91 101 111 92 102 112 93 103 113 94 104 114 95 105 115 96 106 116 97 107 117 98 108 118 98 108 118 99 109 119 100 110 120 100 110 120 101 111 121 102 112 122 103 113 123 222 232 242 224 234 244 226 236 246 228 238 248 229 239 249 230 240 250 230 240 250 231 241 251 231 241 251 231 241 251 232 242 252 232 242 252 233 243 253 234 244 254 235 245 255 235 245 255 236 246 256 236 246 256 236 246 256 236 246 256 236 246 256 235 245 255 235 245 255 235 245 255 235 245 255 235 245 255 235 245 255 235 245 255 236 246 256 236 246 256 235 245 255 235 245 255 234 244 254 233 243 253 232 242 252 232 242 252 232 242 252 232 242 252 232 242 252 232 242 252 233 243 253 233 243 253 233 243 253 233 243 253 233 243 253 232 242 252 232 242 252 232 242 252 100 110 120 100 110 120 101 111 121 101 111 121 102 112 122 103 113 123 223 233 243 225 235 245 226 236 246 228 238 248 229 239 249 230 240 250 230 240 250 230 240 250 231 241 251 231 241 251 232 242 252 232 242 252 233 243 253 234 244 254 235 245 255 236 246 256 236 246 256 236 246 256 236 246 256 236 246 256 235 245 255 234 244 254 234 244 254 234 244 254 234 244 254 234 244 254 235 245 255 235 245 255 235 245 255 235 245 255 235 245 255 234 244 254 234 244 254 233 243 253 232 242 252 232 242 252 232 242 252 232 242 252 233 243 253 233 243 253 234 244 254 234 244 254 234 244 254 233 243 253 233 243 253 232 242 252 231 241 251 231 241 251 231 241 251 231 241 251 231 241 251 231 241 251 231 241 251 231 241 251 231 241 251 230 240 250 230 240 250 229 239 249 227 237 247 226 236 246 225 235 245 225 235 245 224 234 244 224 234 244 224 234 244 223 233 243 223 233 243 222 232 242 103 113 123 103 113 123 102 112 122 101 111 121 100 110 120 100 110 120 100 110 120 99 109 119 99 109 119 99 109 119 99 109 119 99 109 119 99 109 119 99 109 119 98 108 118 98 108 118 98 108 118 98 108 118 97 107 117 98 108 118 98 108 118 98 108 118 99 109 119 99 109 119 99 109 119 100 110 120 100 110 120 100 110 120 99 109 119 99 109 119 99 109 119 100 110 120 100 110 120 100 110 120 101 111 121 101 111 121 101 111 121 102 112 122 101 111 121 101 111 121 101 111 121 100 110 120 100 110 120 100 110 120 100 110 120 100 110 120 100 110 120 100 110 120 99 109 119 99 109 119 99 109 119 98 108 118 98 108 118 97 107 117 96 106 116 95 105 115 95 105 115 95 105 115 94 104 114 94 104 114 94 104 114 94 104 114 94 104 114 93 103 113 93 103 113 92 102 112 91 101 111 91 101 111 90 100 110 90 100 110 90 100 110 90 100 110 90 100 110 90 100 110 90 100 110 90 100 110 90 100 110 90 100 110 89 99 109 89 99 109 89 99 109 89 99 109 89 99 109 89 99 109 89 99 109 89 99 109 89 99 109 90 100 110 89 99 109 89 99 109 89 99 109 88 98 108 88 98 108 88 98 108 88 98 108 88 98 108 88 98 108 88 98 108 88 98 108 88 98 108 88 98 108 88 98 108 88 98 108 88 98 108 87 97 107 87 97 107 87 97 107 87 97 107 87 97 107 88 98 108 88 98 108 89 99 109 89 99 109 90 100 110 90 100 110 90 100 110 90 100 110 91 101 111 91 101 111 91 101 111 92 102 112 93 103 113 94 104 114 95 105 115 96 106 116 97 107 117 98 108 118 99 109 119 99 109 119 100 110 120 100 110 120 101 111 121 102 112 122 102 112 122 222 232 242 223 233 243 225 235 245 227 237 247 228 238 248 229 239 249 230 240 250 230 240 250 231 241 251 231 241 251 231 241 251 232 242 252 233 243 253 234 244 254 235 245 255 235 245 255 236 246 256 236 246 256 236 246 256 236 246 256 235 245 255 235 245 255 234 244 254 234 244 254 234 244 254 234 244 254 235 245 255 235 245 255 235 245 255 235 245 255 235 245 255 235 245 255 234 244 254 233 243 253 233 243 253 232 242 252 232 242 252 232 242 252 232 242 252 233 243 253 233 243 253 234 244 254 234 244 254 234 244 254 233 243 253 232 242 252 232 242 252 231 241 251 100 110 120 100 110 120 100 110 120 101 111 121 102 112 122 103 113 123 222 232 242 224 234 244 225 235 245 227 237 247 228 238 248 229 239 249 229 239 249 230 240 250 230 240 250 231 241 251 232 242 252 232 242 252 233 243 253 234 244 254 235 245 255 236 246 256 236 246 256 236 246 256 236 246 256 235 245 255 235 245 255 234 244 254 234 244 254 234 244 254 234 244 254 234 244 254 234 244 254 235 245 255 235 245 255 235 245 255 235 245 255 234 244 254 234 244 254 233 243 253 233 243 253 233 243 253 233 243 253 233 243 253 233 243 253 234 244 254 234 244 254 234 244 254 234 244 254 233 243 253 233 243 253 232 242 252 231 241 251 230 240 250 230 240 250 230 240 250 230 240 250 230 240 250 230 240 250 230 240 250 230 240 250 230 240 250 229 239 249 228 238 248 227 237 247 226 236 246 226 236 246 225 235 245 225 235 245 224 234 244 224 234 244 224 234 244 223 233 243 222 232 242 103 113 123 103 113 123 102 112 122 101 111 121 101 111 121 100 110 120 100 110 120 99 109 119 99 109 119 99 109 119 99 109 119 99 109 119 99 109 119 99 109 119 99 109 119 98 108 118 98 108 118 98 108 118 98 108 118 98 108 118 98 108 118 99 109 119 99 109 119 100 110 120 100 110 120 100 110 120 100 110 120 100 110 120 99 109 119 99 109 119 99 109 119 99 109 119 100 110 120 100 110 120 100 110 120 101 111 121 101 111 121 101 111 121 101 111 121 101 111 121 101 111 121 100 110 120 100 110 120 100 110 120 100 110 120 100 110 120 100 110 120 100 110 120 100 110 120 99 109 119 99 109 119 98 108 118 98 108 118 97 107 117 96 106 116 95 105 115 95 105 115 94 104 114 94 104 114 94 104 114 94 104 114 94 104 114 93 103 113 93 103 113 93 103 113 92 102 112 92 102 112 91 101 111 91 101 111 90 100 110 90 100 110 90 100 110 91 101 111 91 101 111 91 101 111 91 101 111 90 100 110 90 100 110 89 99 109 89 99 109 89 99 109 88 98 108 88 98 108 88 98 108 89 99 109 89 99 109 89 99 109 89 99 109 89 99 109 89 99 109 89 99 109 88 98 108 88 98 108 88 98 108 88 98 108 88 98 108 88 98 108 88 98 108 88 98 108 89 99 109 89 99 109 88 98 108 88 98 108 88 98 108 88 98 108 87 97 107 87 97 107 87 97 107 87 97 107 88 98 108 88 98 108 89 99 109 89 99 109 90 100 110 90 100 110 90 100 110 91 101 111 91 101 111 91 101 111 92 102 112 93 103 113 94 104 114 95 105 115 96 106 116 97 107 117 97 107 117 98 108 118 99 109 119 99 109 119 100 110 120 100 110 120 101 111 121 101 111 121 102 112 122 103 113 123 223 233 243 224 234 244 226 236 246 227 237 247 228 238 248 229 239 249 230 240 250 230 240 250 231 241 251 231 241 251 232 242 252 233 243 253 234 244 254 235 245 255 235 245 255 236 246 256 236 246 256 236 246 256 236 246 256 235 245 255 235 245 255 234 244 254 234 244 254 234 244 254 234 244 254 234 244 254 234 244 254 235 245 255 235 245 255 235 245 255 235 245 255 234 244 254 234 244 254 233 243 253 233 243 253 233 243 253 233 243 253 233 243 253 233 243 253 234 244 254 234 244 254 234 244 254 234 244 254 233 243 253 232 242 252 232 242 252 231 241 251 100 110 120 100 110 120 100 110 120 101 111 121 102 112 122 102 112 122 103 113 123 223 233 243 224 234 244 226 236 246 227 237 247 228 238 248 229 239 249 229 239 249 230 240 250 231 241 251 232 242 252 233 243 253 233 243 253 234 244 254 235 245 255 235 245 255 236 246 256 236 246 256 235 245 255 235 245 255 234 244 254 234 244 254 234 244 254 233 243 253 233 243 253 234 244 254 234 244 254 234 244 254 234 244 254 234 244 254 234 244 254 234 244 254 234 244 254 234 244 254 233 243 253 233 243 253 233 243 253 234 244 254 234 244 254 234 244 254 234 244 254 234 244 254 234 244 254 233 243 253 233 243 253 232 242 252 231 241 251 230 240 250 230 240 250 230 240 250 229 239 249 229 239 249 229 239 249 229 239 249 229 239 249 229 239 249 228 238 248 228 238 248 227 237 247 226 236 246 226 236 246 225 235 245 225 235 245 225 235 245 224 234 244 224 234 244 223 233 243 222 232 242 103 113 123 103 113 123 102 112 122 101 111 121 101 111 121 100 110 120 100 110 120 100 110 120 99 109 119 99 109 119 99 109 119 99 109 119 99 109 119 99 109 119 99 109 119 99 109 119 99 109 119 99 109 119 99 109 119 99 109 119 99 109 119 99 109 119 100 110 120 100 110 120 100 110 120 100 110 120 100 110 120 100 110 120 99 109 119 99 109 119 99 109 119 99 109 119 99 109 119 100 110 120 100 110 120 100 110 120 100 110 120 100 110 120 100 110 120 100 110 120 100 110 120 100 110 120 100 110 120 100 110 120 100 110 120 100 110 120 100 110 120 100 110 120 99 109 119 99 109 119 99 109 119 98 108 118 97 107 117 97 107 117 96 106 116 95 105 115 95 105 115 94 104 114 94 104 114 94 104 114 94 104 114 93 103 113 93 103 113 93 103 113 93 103 113 92 102 112 92 102 112 91 101 111 91 101 111 91 101 111 91 101 111 91 101 111 91 101 111 91 101 111 91 101 111 91 101 111 90 100 110 90 100 110 90 100 110 89 99 109 89 99 109 88 98 108 88 98 108 88 98 108 88 98 108 88 98 108 89 99 109 89 99 109 89 99 109 89 99 109 89 99 109 88 98 108 88 98 108 88 98 108 88 98 108 88 98 108 88 98 108 89 99 109 89 99 109 89 99 109 89 99 109 89 99 109 88 98 108 88 98 108 88 98 108 87 97 107 87 97 107 87 97 107 88 98 108 88 98 108 88 98 108 89 99 109 89 99 109 90 100 110 90 100 110 91 101 111 91 101 111 92 102 112 92 102 112 93 103 113 93 103 113 94 104 114 95 105 115 96 106 116 97 107 117 98 108 118 98 108 118 99 109 119 99 109 119 100 110 120 100 110 120 101 111 121 101 111 121 102 112 122 103 113 123 222 232 242 223 233 243 225 235 245 226 236 246 227 237 247 228 238 248 229 239 249 230 240 250 230 240 250 231 241 251 232 242 252 233 243 253 234 244 254 234 244 254 235 245 255 236 246 256 236 246 256 236 246 256 235 245 255 235 245 255 234 244 254 234 244 254 234 244 254 233 243 253 233 243 253 234 244 254 234 244 254 234 244 254 234 244 254 234 244 254 234 244 254 234 244 254 234 244 254 234 244 254 233 243 253 233 243 253 233 243 253 234 244 254 234 244 254 234 244 254 234 244 254 234 244 254 234 244 254 233 243 253 232 242 252 231 241 251 231 241 251 100 110 120 100 110 120 100 110 120 101 111 121 102 112 122 102 112 122 103 113 123 222 232 242 223 233 243 224 234 244 226 236 246 227 237 247 228 238 248 229 239 249 230 240 250 231 241 251 232 242 252 233 243 253 233 243 253 234 244 254 235 245 255 235 245 255 235 245 255 235 245 255 235 245 255 235 245 255 234 244 254 234 244 254 234 244 254 233 243 253 233 243 253 233 243 253 233 243 253 233 243 253 234 244 254 234 244 254 234 244 254 234 244 254 234 244 254 234 244 254 234 244 254 234 244 254 234 244 254 234 244 254 234 244 254 234 244 254 234 244 254 234 244 254 234 244 254 233 243 253 232 242 252 232 242 252 231 241 251 230 240 250 230 240 250 229 239 249 229 239 249 229 239 249 228 238 248 228 238 248 228 238 248 228 238 248 228 238 248 227 237 247 227 237 247 227 237 247 226 236 246 226 236 246 225 235 245 225 235 245 224 234 244 224 234 244 223 233 243 222 232 242 103 113 123 103 113 123 102 112 122 102 112 122 101 111 121 100 110 120 100 110 120 100 110 120 99 109 119 99 109 119 99 109 119 99 109 119 99 109 119 99 109 119 99 109 119 99 109 119 99 109 119 99 109 119 99 109 119 99 109 119 100 110 120 100 110 120 100 110 120 100 110 120 100 110 120 100 110 120 100 110 120 100 110 120 99 109 119 99 109 119 99 109 119 99 109 119 99 109 119 99 109 119 99 109 119 99 109 119 100 110 120 100 110 120 100 110 120 100 110 120 100 110 120 100 110 120 100 110 120 100 110 120 100 110 120 100 110 120 100 110 120 100 110 120 99 109 119 99 109 119 98 108 118 98 108 118 97 107 117 97 107 117 96 106 116 95 105 115 95 105 115 94 104 114 94 104 114 94 104 114 93 103 113 93 103 113 93 103 113 93 103 113 93 103 113 92 102 112 92 102 112 92 102 112 92 102 112 92 102 112 92 102 112 91 101 111 91 101 111 91 101 111 91 101 111 91 101 111 90 100 110 90 100 110 90 100 110 89 99 109 89 99 109 89 99 109 88 98 108 88 98 108 88 98 108 88 98 108 88 98 108 88 98 108 88 98 108 88 98 108 88 98 108 88 98 108 88 98 108 88 98 108 89 99 109 89 99 109 89 99 109 89 99 109 89 99 109 89 99 109 89 99 109 89 99 109 88 98 108 88 98 108 88 98 108 88 98 108 88 98 108 88 98 108 88 98 108 88 98 108 88 98 108 89 99 109 89 99 109 90 100 110 90 100 110 91 101 111 91 101 111 92 102 112 93 103 113 93 103 113 94 104 114 95 105 115 96 106 116 96 106 116 97 107 117 98 108 118 98 108 118 99 109 119 99 109 119 100 110 120 100 110 120 101 111 121 101 111 121 102 112 122 102 112 122 103 113 123 222 232 242 223 233 243 225 235 245 226 236 246 227 237 247 228 238 248 229 239 249 230 240 250 231 241 251 232 242 252 233 243 253 234 244 254 234 244 254 235 245 255 235 245 255 235 245 255 235 245 255 235 245 255 234 244 254 234 244 254 234 244 254 233 243 253 233 243 253 233 243 253 233 243 253 233 243 253 233 243 253 234 244 254 234 244 254 234 244 254 234 244 254 234 244 254 234 244 254 234 244 254 234 244 254 234 244 254 234 244 254 234 244 254 234 244 254 234 244 254 234 244 254 233 243 253 233 243 253 232 242 252 231 241 251 231 241 251 100 110 120 100 110 120 100 110 120 101 111 121 101 111 121 102 112 122 102 112 122 103 113 123 222 232 242 223 233 243 224 234 244 226 236 246 227 237 247 228 238 248 230 240 250 231 241 251 232 242 252 233 243 253 233 243 253 234 244 254 234 244 254 234 244 254 234 244 254 234 244 254 234 244 254 234 244 254 234 244 254 234 244 254 234 244 254 233 243 253 233 243 253 233 243 253 233 243 253 233 243 253 233 243 253 233 243 253 233 243 253 234 244 254 234 244 254 234 244 254 235 245 255 235 245 255 235 245 255 235 245 255 235 245 255 235 245 255 234 244 254 234 244 254 233 243 253 233 243 253 232 242 252 232 242 252 231 241 251 230 240 250 230 240 250 229 239 249 228 238 248 228 238 248 228 238 248 227 237 247 227 237 247 227 237 247 227 237 247 227 237 247 227 237 247 227 237 247 227 237 247 226 236 246 226 236 246 225 235 245 225 235 245 224 234 244 223 233 243 222 232 242 103 113 123 103 113 123 102 112 122 102 112 122 101 111 121 101 111 121 100 110 120 100 110 120 100 110 120 99 109 119 99 109 119 99 109 119 99 109 119 99 109 119 99 109 119 99 109 119 100 110 120 100 110 120 100 110 120 100 110 120 100 110 120 100 110 120 100 110 120 100 110 120 100 110 120 100 110 120 100 110 120 100 110 120 99 109 119 99 109 119 99 109 119 99 109 119 99 109 119 99 109 119 99 109 119 99 109 119 99 109 119 99 109 119 99 109 119 99 109 119 100 110 120 100 110 120 100 110 120 100 110 120 100 110 120 100 110 120 100 110 120 99 109 119 99 109 119 99 109 119 98 108 118 98 108 118 97 107 117 97 107 117 96 106 116 96 106 116 95 105 115 95 105 115 94 104 114 94 104 114 93 103 113 93 103 113 93 103 113 93 103 113 93 103 113 93 103 113 93 103 113 92 102 112 92 102 112 92 102 112 92 102 112 92 102 112 92 102 112 91 101 111 91 101 111 91 101 111 90 100 110 90 100 110 90 100 110 89 99 109 89 99 109 89 99 109 88 98 108 88 98 108 88 98 108 88 98 108 88 98 108 88 98 108 88 98 108 88 98 108 88 98 108 88 98 108 89 99 109 89 99 109 89 99 109 89 99 109 89 99 109 89 99 109 89 99 109 89 99 109 89 99 109 89 99 109 88 98 108 88 98 108 88 98 108 88 98 108 88 98 108 88 98 108 88 98 108 88 98 108 89 99 109 89 99 109 89 99 109 90 100 110 90 100 110 91 101 111 92 102 112 93 103 113 93 103 113 94 104 114 95 105 115 96 106 116 96 106 116 97 107 117 97 107 117 98 108 118 98 108 118 99 109 119 99 109 119 100 110 120 100 110 120 101 111 121 101 111 121 102 112 122 102 112 122 103 113 123 103 113 123 222 232 242 223 233 243 225 235 245 226 236 246 227 237 247 229 239 249 230 240 250 231 241 251 232 242 252 233 243 253 233 243 253 234 244 254 234 244 254 234 244 254 234 244 254 234 244 254 234 244 254 234 244 254 234 244 254 234 244 254 233 243 253 233 243 253 233 243 253 233 243 253 233 243 253 233 243 253 233 243 253 233 243 253 233 243 253 234 244 254 234 244 254 235 245 255 235 245 255 235 245 255 235 245 255 235 245 255 235 245 255 235 245 255 234 244 254 234 244 254 233 243 253 233 243 253 232 242 252 231 241 251 231 241 251 100 110 120 100 110 120 101 111 121 101 111 121 101 111 121 102 112 122 102 112 122 103 113 123 103 113 123 222 232 242 223 233 243 224 234 244 226 236 246 228 238 248 229 239 249 231 241 251 232 242 252 232 242 252 233 243 253 233 243 253 233 243 253 233 243 253 234 244 254 234 244 254 234 244 254 234 244 254 234 244 254 234 244 254 234 244 254 233 243 253 233 243 253 233 243 253 232 242 252 232 242 252 232 242 252 232 242 252 233 243 253 234 244 254 234 244 254 235 245 255 235 245 255 236 246 256 236 246 256 236 246 256 235 245 255 235 245 255 234 244 254 234 244 254 233 243 253 232 242 252 232 242 252 231 241 251 231 241 251 230 240 250 230 240 250 229 239 249 228 238 248 227 237 247 227 237 247 226 236 246 226 236 246 226 236 246 226 236 246 226 236 246 227 237 247 227 237 247 227 237 247 227 237 247 226 236 246 225 235 245 225 235 245 224 234 244 223 233 243 222 232 242 103 113 123 103 113 123 102 112 122 102 112 122 102 112 122 101 111 121 101 111 121 100 110 120 100 110 120 99 109 119 99 109 119 99 109 119 99 109 119 99 109 119 100 110 120 100 110 120 100 110 120 101 111 121 101 111 121 101 111 121 101 111 121 101 111 121 100 110 120 100 110 120 100 110 120 100 110 120 100 110 120 100 110 120 99 109 119 99 109 119 99 109 119 99 109 119 99 109 119 99 109 119 98 108 118 98 108 118 98 108 118 98 108 118 99 109 119 99 109 119 99 109 119 100 110 120 100 110 120 100 110 120 100 110 120 100 110 120 100 110 120 99 109 119 99 109 119 98 108 118 98 108 118 97 107 117 97 107 117 97 107 117 96 106 116 96 106 116 95 105 115 95 105 115 94 104 114 94 104 114 93 103 113 93 103 113 93 103 113 92 102 112 93 103 113 93 103 113 93 103 113 93 103 113 93 103 113 93 103 113 93 103 113 92 102 112 92 102 112 92 102 112 91 101 111 91 101 111 90 100 110 90 100 110 90 100 110 89 99 109 89 99 109 89 99 109 88 98 108 88 98 108 88 98 108 87 97 107 87 97 107 87 97 107 87 97 107 88 98 108 88 98 108 88 98 108 89 99 109 89 99 109 89 99 109 89 99 109 89 99 109 89 99 109 89 99 109 89 99 109 89 99 109 89 99 109 89 99 109 89 99 109 89 99 109 89 99 109 89 99 109 89 99 109 89 99 109 89 99 109 89 99 109 89 99 109 89 99 109 90 100 110 91 101 111 91 101 111 92 102 112 93 103 113 94 104 114 95 105 115 96 106 116 96 106 116 97 107 117 97 107 117 97 107 117 98 108 118 98 108 118 99 109 119 99 109 119 100 110 120 100 110 120 101 111 121 101 111 121 101 111 121 102 112 122 102 112 122 103 113 123 103 113 123 222 232 242 223 233 243 225 235 245 227 237 247 228 238 248 230 240 250 231 241 251 232 242 252 233 243 253 233 243 253 233 243 253 233 243 253 233 243 253 234 244 254 234 244 254 234 244 254 234 244 254 234 244 254 234 244 254 234 244 254 233 243 253 233 243 253 233 243 253 232 242 252 232 242 252 232 242 252 233 243 253 233 243 253 234 244 254 234 244 254 235 245 255 236 246 256 236 246 256 236 246 256 236 246 256 235 245 255 235 245 255 234 244 254 233 243 253 233 243 253 232 242 252 232 242 252 231 241 251 231 241 251 100 110 120 100 110 120 101 111 121 101 111 121 101 111 121 102 112 122 102 112 122 102 112 122 102 112 122 103 113 123 222 232 242 223 233 243 225 235 245 227 237 247 229 239 249 230 240 250 231 241 251 232 242 252 233 243 253 233 243 253 233 243 253 233 243 253 233 243 253 233 243 253 233 243 253 233 243 253 233 243 253 234 244 254 234 244 254 233 243 253 233 243 253 233 243 253 232 242 252 232 242 252 232 242 252 232 242 252 233 243 253 233 243 253 234 244 254 235 245 255 236 246 256 236 246 256 236 246 256 236 246 256 236 246 256 235 245 255 234 244 254 233 243 253 233 243 253 232 242 252 232 242 252 231 241 251 231 241 251 230 240 250 230 240 250 229 239 249 228 238 248 227 237 247 226 236 246 225 235 245 225 235 245 225 235 245 225 235 245 226 236 246 226 236 246 227 237 247 227 237 247 227 237 247 226 236 246 226 236 246 225 235 245 224 234 244 222 232 242 222 232 242 103 113 123 103 113 123 102 112 122 102 112 122 102 112 122 101 111 121 101 111 121 100 110 120 100 110 120 100 110 120 99 109 119 99 109 119 99 109 119 99 109 119 100 110 120 100 110 120 101 111 121 101 111 121 101 111 121 101 111 121 101 111 121 101 111 121 101 111 121 100 110 120 100 110 120 100 110 120 100 110 120 100 110 120 99 109 119 99 109 119 99 109 119 99 109 119 99 109 119 98 108 118 98 108 118 98 108 118 98 108 118 98 108 118 98 108 118 98 108 118 99 109 119 99 109 119 100 110 120 100 110 120 100 110 120 100 110 120 99 109 119 99 109 119 98 108 118 98 108 118 97 107 117 97 107 117 97 107 117 96 106 116 96 106 116 96 106 116 95 105 115 95 105 115 94 104 114 94 104 114 93 103 113 93 103 113 92 102 112 92 102 112 93 103 113 93 103 113 93 103 113 93 103 113 94 104 114 93 103 113 93 103 113 93 103 113 92 102 112 92 102 112 91 101 111 91 101 111 90 100 110 90 100 110 90 100 110 90 100 110 89 99 109 89 99 109 89 99 109 88 98 108 88 98 108 87 97 107 87 97 107 87 97 107 87 97 107 87 97 107 88 98 108 88 98 108 89 99 109 89 99 109 90 100 110 90 100 110 90 100 110 89 99 109 89 99 109 89 99 109 89 99 109 89 99 109 89 99 109 89 99 109 89 99 109 89 99 109 89 99 109 89 99 109 89 99 109 89 99 109 89 99 109 89 99 109 90 100 110 90 100 110 91 101 111 92 102 112 93 103 113 94 104 114 95 105 115 96 106 116 96 106 116 97 107 117 97 107 117 97 107 117 98 108 118 98 108 118 98 108 118 99 109 119 99 109 119 100 110 120 100 110 120 101 111 121 101 111 121 101 111 121 102 112 122 102 112 122 102 112 122 103 113 123 103 113 123 222 232 242 224 234 244 226 236 246 228 238 248 229 239 249 231 241 251 232 242 252 232 242 252 233 243 253 233 243 253 233 243 253 233 243 253 233 243 253 233 243 253 233 243 253 233 243 253 233 243 253 234 244 254 233 243 253 233 243 253 233 243 253 232 242 252 232 242 252 232 242 252 232 242 252 232 242 252 233 243 253 234 244 254 235 245 255 235 245 255 236 246 256 236 246 256 236 246 256 236 246 256 235 245 255 235 245 255 234 244 254 233 243 253 232 242 252 232 242 252 232 242 252 231 241 251 231 241 251 100 110 120 100 110 120 100 110 120 101 111 121 101 111 121 101 111 121 101 111 121 102 112 122 102 112 122 103 113 123 103 113 123 223 233 243 224 234 244 226 236 246 228 238 248 230 240 250 231 241 251 232 242 252 232 242 252 232 242 252 232 242 252 232 242 252 232 242 252 232 242 252 232 242 252 233 243 253 233 243 253 233 243 253 233 243 253 233 243 253 233 243 253 232 242 252 232 242 252 232 242 252 232 242 252 232 242 252 233 243 253 233 243 253 234 244 254 235 245 255 236 246 256 237 247 257 237 247 257 236 246 256 236 246 256 235 245 255 234 244 254 233 243 253 233 243 253 232 242 252 231 241 251 231 241 251 231 241 251 230 240 250 229 239 249 228 238 248 227 237 247 226 236 246 225 235 245 225 235 245 224 234 244 224 234 244 225 235 245 225 235 245 226 236 246 226 236 246 227 237 247 227 237 247 226 236 246 225 235 245 224 234 244 223 233 243 222 232 242 103 113 123 103 113 123 103 113 123 103 113 123 102 112 122 102 112 122 102 112 122 101 111 121 101 111 121 100 110 120 100 110 120 99 109 119 99 109 119 99 109 119 100 110 120 100 110 120 101 111 121 101 111 121 102 112 122 102 112 122 102 112 122 102 112 122 101 111 121 101 111 121 100 110 120 100 110 120 100 110 120 100 110 120 100 110 120 99 109 119 99 109 119 99 109 119 99 109 119 99 109 119 98 108 118 98 108 118 97 107 117 97 107 117 97 107 117 98 108 118 98 108 118 99 109 119 99 109 119 99 109 119 100 110 120 100 110 120 99 109 119 99 109 119 99 109 119 98 108 118 98 108 118 97 107 117 97 107 117 97 107 117 96 106 116 96 106 116 96 106 116 95 105 115 95 105 115 94 104 114 94 104 114 93 103 113 93 103 113 93 103 113 93 103 113 93 103 113 93 103 113 93 103 113 94 104 114 94 104 114 94 104 114 94 104 114 93 103 113 93 103 113 92 102 112 91 101 111 91 101 111 90 100 110 90 100 110 90 100 110 90 100 110 89 99 109 89 99 109 89 99 109 88 98 108 88 98 108 87 97 107 87 97 107 87 97 107 87 97 107 87 97 107 88 98 108 88 98 108 89 99 109 89 99 109 90 100 110 90 100 110 90 100 110 89 99 109 89 99 109 89 99 109 89 99 109 89 99 109 89 99 109 89 99 109 89 99 109 89 99 109 89 99 109 90 100 110 89 99 109 89 99 109 89 99 109 90 100 110 90 100 110 90 100 110 91 101 111 92 102 112 93 103 113 94 104 114 95 105 115 96 106 116 97 107 117 97 107 117 97 107 117 98 108 118 98 108 118 98 108 118 98 108 118 99 109 119 99 109 119 100 110 120 100 110 120 101 111 121 101 111 121 101 111 121 101 111 121 102 112 122 102 112 122 102 112 122 103 113 123 103 113 123 223 233 243 225 235 245 227 237 247 229 239 249 230 240 250 231 241 251 232 242 252 232 242 252 232 242 252 232 242 252 232 242 252 232 242 252 232 242 252 232 242 252 233 243 253 233 243 253 233 243 253 233 243 253 233 243 253 233 243 253 232 242 252 232 242 252 232 242 252 232 242 252 232 242 252 233 243 253 234 244 254 235 245 255 236 246 256 236 246 256 237 247 257 237 247 257 236 246 256 236 246 256 235 245 255 234 244 254 233 243 253 232 242 252 232 242 252 231 241 251 231 241 251 231 241 251 100 110 120 100 110 120 100 110 120 101 111 121 101 111 121 101 111 121 101 111 121 101 111 121 102 112 122 102 112 122 103 113 123 222 232 242 224 234 244 225 235 245 227 237 247 229 239 249 230 240 250 231 241 251 231 241 251 231 241 251 231 241 251 231 241 251 231 241 251 232 242 252 232 242 252 232 242 252 233 243 253 233 243 253 233 243 253 233 243 253 233 243 253 232 242 252 232 242 252 232 242 252 232 242 252 232 242 252 233 243 253 233 243 253 234 244 254 235 245 255 236 246 256 237 247 257 237 247 257 236 246 256 236 246 256 235 245 255 234 244 254 233 243 253 232 242 252 232 242 252 231 241 251 231 241 251 230 240 250 230 240 250 229 239 249 228 238 248 227 237 247 226 236 246 225 235 245 224 234 244 224 234 244 224 234 244 224 234 244 225 235 245 225 235 245 226 236 246 226 236 246 226 236 246 226 236 246 225 235 245 224 234 244 223 233 243 222 232 242 222 232 242 103 113 123 103 113 123 103 113 123 102 112 122 102 112 122 102 112 122 102 112 122 101 111 121 101 111 121 100 110 120 100 110 120 100 110 120 100 110 120 100 110 120 101 111 121 101 111 121 101 111 121 102 112 122 102 112 122 102 112 122 102 112 122 101 111 121 101 111 121 101 111 121 100 110 120 100 110 120 100 110 120 100 110 120 99 109 119 99 109 119 99 109 119 99 109 119 98 108 118 98 108 118 97 107 117 97 107 117 97 107 117 97 107 117 97 107 117 98 108 118 98 108 118 99 109 119 99 109 119 99 109 119 99 109 119 99 109 119 99 109 119 98 108 118 98 108 118 97 107 117 97 107 117 97 107 117 96 106 116 96 106 116 96 106 116 96 106 116 95 105 115 95 105 115 94 104 114 94 104 114 93 103 113 93 103 113 93 103 113 93 103 113 93 103 113 93 103 113 94 104 114 94 104 114 94 104 114 94 104 114 94 104 114 93 103 113 93 103 113 92 102 112 92 102 112 91 101 111 91 101 111 90 100 110 90 100 110 90 100 110 89 99 109 89 99 109 89 99 109 88 98 108 88 98 108 87 97 107 87 97 107 87 97 107 87 97 107 87 97 107 88 98 108 88 98 108 89 99 109 89 99 109 90 100 110 90 100 110 90 100 110 90 100 110 89 99 109 89 99 109 89 99 109 89 99 109 89 99 109 89 99 109 89 99 109 90 100 110 90 100 110 90 100 110 90 100 110 90 100 110 90 100 110 90 100 110 90 100 110 91 101 111 92 102 112 93 103 113 94 104 114 95 105 115 96 106 116 96 106 116 97 107 117 97 107 117 98 108 118 98 108 118 98 108 118 98 108 118 98 108 118 99 109 119 99 109 119 100 110 120 100 110 120 100 110 120 101 111 121 101 111 121 101 111 121 101 111 121 101 111 121 102 112 122 102 112 122 103 113 123 222 232 242 224 234 244 226 236 246 228 238 248 229 239 249 230 240 250 231 241 251 231 241 251 231 241 251 231 241 251 231 241 251 231 241 251 232 242 252 232 242 252 232 242 252 233 243 253 233 243 253 233 243 253 233 243 253 232 242 252 232 242 252 232 242 252 232 242 252 232 242 252 232 242 252 233 243 253 234 244 254 235 245 255 236 246 256 236 246 256 237 247 257 237 247 257 236 246 256 236 246 256 235 245 255 234 244 254 233 243 253 232 242 252 232 242 252 231 241 251 231 241 251 230 240 250 100 110 120 100 110 120 100 110 120 100 110 120 101 111 121 101 111 121 101 111 121 101 111 121 102 112 122 102 112 122 103 113 123 103 113 123 223 233 243 225 235 245 226 236 246 228 238 248 229 239 249 230 240 250 230 240 250 230 240 250 231 241 251 231 241 251 231 241 251 231 241 251 231 241 251 232 242 252 232 242 252 232 242 252 232 242 252 232 242 252 232 242 252 232 242 252 232 242 252 232 242 252 232 242 252 232 242 252 233 243 253 234 244 254 235 245 255 235 245 255 236 246 256 236 246 256 236 246 256 236 246 256 236 246 256 235 245 255 234 244 254 233 243 253 233 243 253 232 242 252 231 241 251 231 241 251 230 240 250 229 239 249 229 239 249 228 238 248 227 237 247 226 236 246 225 235 245 224 234 244 224 234 244 224 234 244 224 234 244 225 235 245 225 235 245 225 235 245 226 236 246 226 236 246 225 235 245 225 235 245 224 234 244 223 233 243 222 232 242 222 232 242 103 113 123 103 113 123 103 113 123 103 113 123 102 112 122 102 112 122 102 112 122 101 111 121 101 111 121 101 111 121 100 110 120 100 110 120 100 110 120 101 111 121 101 111 121 101 111 121 102 112 122 102 112 122 102 112 122 102 112 122 102 112 122 102 112 122 101 111 121 101 111 121 100 110 120 100 110 120 100 110 120 100 110 120 99 109 119 99 109 119 99 109 119 98 108 118 98 108 118 98 108 118 97 107 117 97 107 117 97 107 117 97 107 117 97 107 117 97 107 117 98 108 118 98 108 118 98 108 118 99 109 119 99 109 119 99 109 119 98 108 118 98 108 118 98 108 118 97 107 117 97 107 117 97 107 117 96 106 116 96 106 116 96 106 116 96 106 116 95 105 115 95 105 115 94 104 114 94 104 114 94 104 114 93 103 113 93 103 113 93 103 113 93 103 113 94 104 114 94 104 114 94 104 114 94 104 114 94 104 114 94 104 114 93 103 113 93 103 113 92 102 112 92 102 112 91 101 111 91 101 111 91 101 111 90 100 110 90 100 110 89 99 109 89 99 109 89 99 109 88 98 108 88 98 108 87 97 107 87 97 107 87 97 107 87 97 107 87 97 107 88 98 108 88 98 108 89 99 109 89 99 109 89 99 109 90 100 110 90 100 110 90 100 110 89 99 109 89 99 109 89 99 109 89 99 109 89 99 109 90 100 110 90 100 110 90 100 110 90 100 110 90 100 110 90 100 110 90 100 110 90 100 110 91 101 111 91 101 111 92 102 112 92 102 112 93 103 113 94 104 114 95 105 115 96 106 116 97 107 117 97 107 117 98 108 118 98 108 118 98 108 118 98 108 118 98 108 118 99 109 119 99 109 119 99 109 119 100 110 120 100 110 120 100 110 120 101 111 121 101 111 121 101 111 121 101 111 121 101 111 121 102 112 122 102 112 122 103 113 123 222 232 242 223 233 243 225 235 245 227 237 247 228 238 248 229 239 249 230 240 250 230 240 250 230 240 250 231 241 251 231 241 251 231 241 251 231 241 251 231 241 251 232 242 252 232 242 252 232 242 252 232 242 252 232 242 252 232 242 252 232 242 252 232 242 252 232 242 252 232 242 252 232 242 252 233 243 253 234 244 254 235 245 255 236 246 256 236 246 256 236 246 256 236 246 256 236 246 256 235 245 255 235 245 255 234 244 254 233 243 253 232 242 252 232 242 252 231 241 251 230 240 250 230 240 250 100 110 120 100 110 120 100 110 120 100 110 120 100 110 120 101 111 121 101 111 121 101 111 121 101 111 121 102 112 122 102 112 122 103 113 123 222 232 242 224 234 244 225 235 245 226 236 246 227 237 247 228 238 248 229 239 249 229 239 249 230 240 250 230 240 250 230 240 250 231 241 251 231 241 251 231 241 251 231 241 251 232 242 252 232 242 252 232 242 252 232 242 252 232 242 252 232 242 252 232 242 252 232 242 252 233 243 253 233 243 253 234 244 254 235 245 255 235 245 255 236 246 256 236 246 256 236 246 256 236 246 256 235 245 255 235 245 255 234 244 254 233 243 253 233 243 253 232 242 252 231 241 251 230 240 250 230 240 250 229 239 249 228 238 248 227 237 247 226 236 246 225 235 245 225 235 245 224 234 244 224 234 244 224 234 244 224 234 244 224 234 244 224 234 244 225 235 245 225 235 245 225 235 245 225 235 245 224 234 244 224 234 244 223 233 243 223 233 243 222 232 242 103 113 123 103 113 123 103 113 123 103 113 123 102 112 122 102 112 122 102 112 122 102 112 122 101 111 121 101 111 121 101 111 121 101 111 121 101 111 121 101 111 121 101 111 121 102 112 122 102 112 122 102 112 122 102 112 122 102 112 122 102 112 122 102 112 122 101 111 121 101 111 121 101 111 121 100 110 120 100 110 120 100 110 120 99 109 119 99 109 119 99 109 119 98 108 118 98 108 118 97 107 117 97 107 117 97 107 117 97 107 117 97 107 117 97 107 117 97 107 117 97 107 117 98 108 118 98 108 118 98 108 118 98 108 118 98 108 118 98 108 118 98 108 118 97 107 117 97 107 117 97 107 117 96 106 116 96 106 116 96 106 116 96 106 116 95 105 115 95 105 115 95 105 115 94 104 114 94 104 114 94 104 114 94 104 114 94 104 114 94 104 114 94 104 114 94 104 114 94 104 114 94 104 114 94 104 114 94 104 114 94 104 114 94 104 114 93 103 113 93 103 113 92 102 112 92 102 112 91 101 111 91 101 111 90 100 110 90 100 110 89 99 109 89 99 109 89 99 109 88 98 108 88 98 108 88 98 108 87 97 107 87 97 107 87 97 107 88 98 108 88 98 108 88 98 108 89 99 109 89 99 109 89 99 109 89 99 109 89 99 109 90 100 110 90 100 110 90 100 110 90 100 110 90 100 110 90 100 110 90 100 110 90 100 110 90 100 110 90 100 110 90 100 110 91 101 111 91 101 111 91 101 111 91 101 111 92 102 112 92 102 112 93 103 113 94 104 114 95 105 115 95 105 115 96 106 116 97 107 117 97 107 117 98 108 118 98 108 118 98 108 118 99 109 119 99 109 119 99 109 119 99 109 119 99 109 119 100 110 120 100 110 120 100 110 120 100 110 120 100 110 120 101 111 121 101 111 121 101 111 121 102 112 122 102 112 122 103 113 123 103 113 123 223 233 243 224 234 244 225 235 245 227 237 247 228 238 248 228 238 248 229 239 249 230 240 250 230 240 250 230 240 250 230 240 250 231 241 251 231 241 251 231 241 251 232 242 252 232 242 252 232 242 252 232 242 252 232 242 252 232 242 252 232 242 252 232 242 252 232 242 252 233 243 253 233 243 253 234 244 254 235 245 255 235 245 255 236 246 256 236 246 256 236 246 256 236 246 256 235 245 255 235 245 255 234 244 254 233 243 253 232 242 252 232 242 252 231 241 251 230 240 250 229 239 249 100 110 120 100 110 120 100 110 120 100 110 120 100 110 120 100 110 120 101 111 121 101 111 121 101 111 121 102 112 122 102 112 122 103 113 123 222 232 242 223 233 243 224 234 244 225 235 245 226 236 246 227 237 247 227 237 247 228 238 248 229 239 249 229 239 249 230 240 250 230 240 250 230 240 250 231 241 251 231 241 251 231 241 251 231 241 251 231 241 251 232 242 252 232 242 252 232 242 252 233 243 253 233 243 253 233 243 253 234 244 254 234 244 254 234 244 254 235 245 255 235 245 255 235 245 255 235 245 255 235 245 255 235 245 255 235 245 255 234 244 254 233 243 253 233 243 253 232 242 252 231 241 251 230 240 250 229 239 249 228 238 248 227 237 247 227 237 247 226 236 246 225 235 245 225 235 245 225 235 245 224 234 244 224 234 244 224 234 244 224 234 244 224 234 244 224 234 244 224 234 244 224 234 244 224 234 244 224 234 244 223 233 243 223 233 243 223 233 243 222 232 242 222 232 242 103 113 123 103 113 123 103 113 123 102 112 122 102 112 122 102 112 122 102 112 122 102 112 122 102 112 122 102 112 122 102 112 122 102 112 122 102 112 122 102 112 122 102 112 122 102 112 122 102 112 122 102 112 122 102 112 122 102 112 122 102 112 122 102 112 122 101 111 121 101 111 121 101 111 121 100 110 120 100 110 120 99 109 119 99 109 119 98 108 118 98 108 118 98 108 118 97 107 117 97 107 117 97 107 117 97 107 117 97 107 117 97 107 117 97 107 117 97 107 117 97 107 117 97 107 117 97 107 117 97 107 117 97 107 117 97 107 117 97 107 117 97 107 117 97 107 117 97 107 117 96 106 116 96 106 116 96 106 116 96 106 116 95 105 115 95 105 115 95 105 115 95 105 115 94 104 114 94 104 114 94 104 114 94 104 114 94 104 114 94 104 114 94 104 114 94 104 114 94 104 114 94 104 114 94 104 114 94 104 114 93 103 113 93 103 113 93 103 113 92 102 112 92 102 112 91 101 111 91 101 111 90 100 110 90 100 110 89 99 109 89 99 109 89 99 109 88 98 108 88 98 108 88 98 108 88 98 108 88 98 108 88 98 108 88 98 108 88 98 108 88 98 108 88 98 108 89 99 109 89 99 109 89 99 109 89 99 109 89 99 109 90 100 110 90 100 110 90 100 110 90 100 110 90 100 110 90 100 110 90 100 110 90 100 110 91 101 111 91 101 111 91 101 111 91 101 111 92 102 112 92 102 112 93 103 113 93 103 113 94 104 114 94 104 114 95 105 115 96 106 116 96 106 116 97 107 117 97 107 117 98 108 118 98 108 118 98 108 118 99 109 119 99 109 119 99 109 119 99 109 119 99 109 119 100 110 120 100 110 120 100 110 120 100 110 120 100 110 120 100 110 120 101 111 121 101 111 121 102 112 122 102 112 122 103 113 123 103 113 123 222 232 242 223 233 243 224 234 244 225 235 245 226 236 246 227 237 247 228 238 248 228 238 248 229 239 249 230 240 250 230 240 250 230 240 250 231 241 251 231 241 251 231 241 251 231 241 251 231 241 251 231 241 251 232 242 252 232 242 252 232 242 252 233 243 253 233 243 253 233 243 253 234 244 254 234 244 254 235 245 255 235 245 255 235 245 255 235 245 255 235 245 255 235 245 255 235 245 255 234 244 254 234 244 254 233 243 253 233 243 253 232 242 252 231 241 251 230 240 250 229 239 249 100 110 120 99 109 119 99 109 119 100 110 120 100 110 120 100 110 120 101 111 121 101 111 121 101 111 121 102 112 122 102 112 122 103 113 123 103 113 123 222 232 242 222 232 242 223 233 243 224 234 244 225 235 245 226 236 246 227 237 247 228 238 248 229 239 249 229 239 249 230 240 250 230 240 250 230 240 250 230 240 250 230 240 250 230 240 250 231 241 251 231 241 251 232 242 252 232 242 252 233 243 253 233 243 253 234 244 254 234 244 254 234 244 254 234 244 254 234 244 254 234 244 254 234 244 254 234 244 254 234 244 254 234 244 254 234 244 254 234 244 254 234 244 254 233 243 253 232 242 252 231 241 251 230 240 250 229 239 249 228 238 248 227 237 247 226 236 246 226 236 246 225 235 245 225 235 245 225 235 245 225 235 245 224 234 244 224 234 244 224 234 244 223 233 243 223 233 243 223 233 243 223 233 243 223 233 243 223 233 243 223 233 243 223 233 243 223 233 243 223 233 243 222 232 242 222 232 242 103 113 123 103 113 123 103 113 123 102 112 122 102 112 122 102 112 122 102 112 122 102 112 122 102 112 122 103 113 123 103 113 123 103 113 123 102 112 122 102 112 122 102 112 122 102 112 122 102 112 122 102 112 122 102 112 122 102 112 122 102 112 122 101 111 121 101 111 121 101 111 121 100 110 120 100 110 120 99 109 119 99 109 119 98 108 118 98 108 118 97 107 117 97 107 117 97 107 117 97 107 117 97 107 117 97 107 117 97 107 117 97 107 117 97 107 117 97 107 117 96 106 116 96 106 116 96 106 116 97 107 117 97 107 117 97 107 117 97 107 117 97 107 117 97 107 117 96 106 116 96 106 116 96 106 116 95 105 115 95 105 115 95 105 115 95 105 115 95 105 115 95 105 115 95 105 115 95 105 115 95 105 115 95 105 115 95 105 115 94 104 114 94 104 114 94 104 114 94 104 114 94 104 114 94 104 114 93 103 113 93 103 113 93 103 113 93 103 113 92 102 112 92 102 112 91 101 111 91 101 111 90 100 110 89 99 109 89 99 109 89 99 109 88 98 108 88 98 108 88 98 108 88 98 108 88 98 108 88 98 108 88 98 108 88 98 108 88 98 108 88 98 108 88 98 108 88 98 108 89 99 109 89 99 109 89 99 109 90 100 110 90 100 110 90 100 110 90 100 110 91 101 111 91 101 111 91 101 111 91 101 111 91 101 111 91 101 111 92 102 112 92 102 112 93 103 113 93 103 113 94 104 114 94 104 114 95 105 115 95 105 115 95 105 115 96 106 116 96 106 116 97 107 117 97 107 117 98 108 118 98 108 118 99 109 119 99 109 119 99 109 119 99 109 119 100 110 120 100 110 120 99 109 119 99 109 119 100 110 120 100 110 120 100 110 120 100 110 120 101 111 121 101 111 121 102 112 122 102 112 122 103 113 123 103 113 123 103 113 123 222 232 242 223 233 243 223 233 243 224 234 244 225 235 245 226 236 246 227 237 247 228 238 248 229 239 249 229 239 249 230 240 250 230 240 250 230 240 250 230 240 250 230 240 250 231 241 251 231 241 251 231 241 251 232 242 252 233 243 253 233 243 253 234 244 254 234 244 254 234 244 254 234 244 254 234 244 254 234 244 254 234 244 254 234 244 254 234 244 254 234 244 254 234 244 254 234 244 254 234 244 254 233 243 253 233 243 253 232 242 252 231 241 251 229 239 249 228 238 248 100 110 120 99 109 119 99 109 119 99 109 119 100 110 120 100 110 120 100 110 120 101 111 121 102 112 122 102 112 122 102 112 122 103 113 123 103 113 123 103 113 123 103 113 123 222 232 242 223 233 243 223 233 243 225 235 245 226 236 246 227 237 247 228 238 248 229 239 249 229 239 249 229 239 249 230 240 250 230 240 250 230 240 250 230 240 250 230 240 250 231 241 251 232 242 252 233 243 253 233 243 253 234 244 254 234 244 254 235 245 255 235 245 255 234 244 254 234 244 254 234 244 254 234 244 254 234 244 254 234 244 254 234 244 254 234 244 254 234 244 254 233 243 253 233 243 253 232 242 252 231 241 251 230 240 250 228 238 248 227 237 247 227 237 247 226 236 246 226 236 246 225 235 245 225 235 245 225 235 245 225 235 245 225 235 245 224 234 244 223 233 243 223 233 243 222 232 242 222 232 242 222 232 242 222 232 242 222 232 242 222 232 242 223 233 243 223 233 243 223 233 243 222 232 242 222 232 242 103 113 123 103 113 123 103 113 123 103 113 123 103 113 123 103 113 123 103 113 123 103 113 123 103 113 123 103 113 123 103 113 123 103 113 123 103 113 123 103 113 123 102 112 122 102 112 122 102 112 122 102 112 122 102 112 122 102 112 122 102 112 122 102 112 122 101 111 121 101 111 121 100 110 120 100 110 120 99 109 119 98 108 118 98 108 118 98 108 118 97 107 117 97 107 117 97 107 117 97 107 117 97 107 117 97 107 117 97 107 117 97 107 117 96 106 116 96 106 116 96 106 116 96 106 116 96 106 116 96 106 116 96 106 116 96 106 116 96 106 116 96 106 116 96 106 116 96 106 116 96 106 116 96 106 116 95 105 115 95 105 115 95 105 115 95 105 115 95 105 115 95 105 115 95 105 115 95 105 115 95 105 115 95 105 115 95 105 115 95 105 115 94 104 114 94 104 114 94 104 114 93 103 113 93 103 113 93 103 113 93 103 113 93 103 113 93 103 113 93 103 113 92 102 112 91 101 111 91 101 111 90 100 110 89 99 109 89 99 109 89 99 109 88 98 108 88 98 108 89 99 109 89 99 109 89 99 109 89 99 109 88 98 108 88 98 108 88 98 108 88 98 108 88 98 108 88 98 108 88 98 108 89 99 109 89 99 109 90 100 110 90 100 110 91 101 111 91 101 111 91 101 111 91 101 111 91 101 111 91 101 111 91 101 111 92 102 112 92 102 112 93 103 113 93 103 113 94 104 114 95 105 115 95 105 115 95 105 115 96 106 116 96 106 116 96 106 116 96 106 116 97 107 117 97 107 117 98 108 118 98 108 118 99 109 119 99 109 119 99 109 119 100 110 120 100 110 120 100 110 120 99 109 119 99 109 119 99 109 119 99 109 119 100 110 120 100 110 120 101 111 121 101 111 121 102 112 122 102 112 122 102 112 122 103 113 123 103 113 123 103 113 123 103 113 123 222 232 242 223 233 243 224 234 244 225 235 245 226 236 246 227 237 247 228 238 248 229 239 249 229 239 249 229 239 249 230 240 250 230 240 250 230 240 250 230 240 250 230 240 250 231 241 251 232 242 252 233 243 253 234 244 254 234 244 254 234 244 254 235 245 255 234 244 254 234 244 254 234 244 254 234 244 254 234 244 254 234 244 254 234 244 254 234 244 254 234 244 254 234 244 254 233 243 253 232 242 252 231 241 251 230 240 250 229 239 249 228 238 248 100 110 120 99 109 119 99 109 119 99 109 119 100 110 120 100 110 120 100 110 120 101 111 121 102 112 122 102 112 122 102 112 122 102 112 122 103 113 123 103 113 123 103 113 123 103 113 123 103 113 123 222 232 242 223 233 243 224 234 244 226 236 246 227 237 247 228 238 248 228 238 248 229 239 249 229 239 249 229 239 249 229 239 249 229 239 249 230 240 250 231 241 251 232 242 252 233 243 253 234 244 254 234 244 254 235 245 255 235 245 255 235 245 255 234 244 254 234 244 254 233 243 253 233 243 253 233 243 253 233 243 253 233 243 253 233 243 253 233 243 253 233 243 253 232 242 252 232 242 252 230 240 250 229 239 249 228 238 248 227 237 247 226 236 246 226 236 246 226 236 246 226 236 246 226 236 246 225 235 245 225 235 245 225 235 245 224 234 244 223 233 243 222 232 242 222 232 242 103 113 123 103 113 123 103 113 123 222 232 242 222 232 242 222 232 242 223 233 243 223 233 243 223 233 243 222 232 242 222 232 242 103 113 123 103 113 123 103 113 123 103 113 123 103 113 123 103 113 123 222 232 242 222 232 242 222 232 242 222 232 242 222 232 242 103 113 123 103 113 123 102 112 122 102 112 122 102 112 122 102 112 122 102 112 122 102 112 122 102 112 122 102 112 122 101 111 121 101 111 121 100 110 120 100 110 120 99 109 119 98 108 118 98 108 118 98 108 118 97 107 117 97 107 117 97 107 117 97 107 117 97 107 117 97 107 117 97 107 117 96 106 116 96 106 116 96 106 116 95 105 115 95 105 115 95 105 115 95 105 115 95 105 115 96 106 116 96 106 116 96 106 116 96 106 116 96 106 116 96 106 116 95 105 115 95 105 115 95 105 115 95 105 115 95 105 115 95 105 115 95 105 115 96 106 116 96 106 116 96 106 116 96 106 116 95 105 115 95 105 115 94 104 114 94 104 114 94 104 114 93 103 113 93 103 113 93 103 113 93 103 113 93 103 113 93 103 113 93 103 113 92 102 112 92 102 112 91 101 111 90 100 110 90 100 110 89 99 109 89 99 109 89 99 109 89 99 109 89 99 109 89 99 109 89 99 109 89 99 109 89 99 109 88 98 108 88 98 108 88 98 108 88 98 108 88 98 108 88 98 108 89 99 109 89 99 109 90 100 110 90 100 110 91 101 111 91 101 111 91 101 111 91 101 111 91 101 111 91 101 111 92 102 112 92 102 112 93 103 113 93 103 113 94 104 114 95 105 115 95 105 115 96 106 116 96 106 116 96 106 116 96 106 116 96 106 116 97 107 117 97 107 117 97 107 117 98 108 118 98 108 118 99 109 119 99 109 119 100 110 120 100 110 120 100 110 120 100 110 120 99 109 119 99 109 119 99 109 119 99 109 119 100 110 120 100 110 120 101 111 121 101 111 121 102 112 122 102 112 122 102 112 122 102 112 122 103 113 123 103 113 123 103 113 123 103 113 123 103 113 123 222 232 242 224 234 244 225 235 245 226 236 246 227 237 247 228 238 248 228 238 248 229 239 249 229 239 249 229 239 249 229 239 249 230 240 250 230 240 250 231 241 251 232 242 252 233 243 253 234 244 254 234 244 254 235 245 255 235 245 255 234 244 254 234 244 254 234 244 254 233 243 253 233 243 253 233 243 253 233 243 253 233 243 253 233 243 253 233 243 253 233 243 253 232 242 252 231 241 251 230 240 250 229 239 249 228 238 248 100 110 120 99 109 119 99 109 119 99 109 119 100 110 120 100 110 120 100 110 120 101 111 121 101 111 121 102 112 122 102 112 122 102 112 122 102 112 122 102 112 122 102 112 122 102 112 122 103 113 123 103 113 123 222 232 242 223 233 243 224 234 244 226 236 246 227 237 247 227 237 247 228 238 248 228 238 248 228 238 248 229 239 249 229 239 249 230 240 250 231 241 251 232 242 252 233 243 253 234 244 254 234 244 254 235 245 255 235 245 255 234 244 254 234 244 254 233 243 253 233 243 253 232 242 252 232 242 252 232 242 252 232 242 252 233 243 253 233 243 253 232 242 252 232 242 252 231 241 251 230 240 250 229 239 249 228 238 248 227 237 247 226 236 246 226 236 246 226 236 246 226 236 246 226 236 246 226 236 246 225 235 245 225 235 245 224 234 244 223 233 243 222 232 242 103 113 123 103 113 123 103 113 123 103 113 123 103 113 123 103 113 123 222 232 242 222 232 242 223 233 243 222 232 242 222 232 242 222 232 242 103 113 123 103 113 123 103 113 123 103 113 123 222 232 242 222 232 242 223 233 243 223 233 243 223 233 243 223 233 243 223 233 243 222 232 242 103 113 123 103 113 123 102 112 122 102 112 122 102 112 122 102 112 122 102 112 122 102 112 122 102 112 122 101 111 121 101 111 121 100 110 120 100 110 120 99 109 119 98 108 118 98 108 118 98 108 118 97 107 117 97 107 117 97 107 117 97 107 117 97 107 117 97 107 117 97 107 117 96 106 116 96 106 116 95 105 115 95 105 115 95 105 115 95 105 115 95 105 115 95 105 115 95 105 115 95 105 115 96 106 116 96 106 116 96 106 116 95 105 115 95 105 115 95 105 115 95 105 115 95 105 115 95 105 115 95 105 115 96 106 116 96 106 116 96 106 116 96 106 116 96 106 116 96 106 116 95 105 115 95 105 115 94 104 114 94 104 114 93 103 113 93 103 113 93 103 113 93 103 113 93 103 113 93 103 113 93 103 113 92 102 112 92 102 112 91 101 111 90 100 110 90 100 110 89 99 109 89 99 109 89 99 109 89 99 109 89 99 109 89 99 109 89 99 109 89 99 109 89 99 109 89 99 109 88 98 108 88 98 108 88 98 108 88 98 108 88 98 108 89 99 109 89 99 109 90 100 110 90 100 110 91 101 111 91 101 111 91 101 111 92 102 112 92 102 112 92 102 112 92 102 112 93 103 113 93 103 113 94 104 114 95 105 115 95 105 115 96 106 116 96 106 116 97 107 117 97 107 117 97 107 117 97 107 117 97 107 117 97 107 117 97 107 117 98 108 118 98 108 118 99 109 119 99 109 119 99 109 119 100 110 120 100 110 120 100 110 120 99 109 119 99 109 119 99 109 119 99 109 119 100 110 120 100 110 120 101 111 121 101 111 121 102 112 122 102 112 122 102 112 122 102 112 122 102 112 122 102 112 122 102 112 122 102 112 122 103 113 123 103 113 123 222 232 242 224 234 244 225 235 245 226 236 246 227 237 247 228 238 248 228 238 248 228 238 248 229 239 249 229 239 249 229 239 249 230 240 250 231 241 251 232 242 252 233 243 253 234 244 254 235 245 255 235 245 255 235 245 255 234 244 254 234 244 254 233 243 253 233 243 253 232 242 252 232 242 252 232 242 252 232 242 252 233 243 253 233 243 253 232 242 252 232 242 252 231 241 251 230 240 250 229 239 249 228 238 248 