P3
256 16
255
255 0 0 255 21 4 255 28 6 255 34 9 255 39 11 255 43 13 255 47 15 255 50 17 255 53 19 255 56 21 255 59 23 255 61 25 255 64 26 255 66 28 255 69 30 255 71 31 255 73 33 255 75 34 255 77 36 255 79 37 255 81 39 255 82 40 255 84 42 255 86 43 255 88 44 255 89 46 255 91 47 255 92 49 255 94 50 255 95 51 255 97 53 255 98 54 255 100 55 255 101 57 255 102 58 255 104 59 255 105 60 255 106 62 255 108 63 255 109 64 255 110 65 255 112 67 255 113 68 255 114 69 255 115 70 255 116 72 255 117 73 255 119 74 255 120 75 255 121 76 255 122 77 255 123 79 230 124 80 229 125 81 228 126 82 227 127 83 226 128 84 225 129 85 224 130 87 223 131 88 222 132 89 222 133 90 221 134 91 220 135 92 219 136 93 218 137 94 217 138 95 217 139 97 216 140 98 215 141 99 214 142 100 213 143 101 213 144 102 212 145 103 211 146 104 211 147 105 210 147 106 209 148 107 208 149 108 208 150 109 207 151 110 206 152 111 206 153 112 205 153 113 204 154 115 204 155 116 203 156 117 202 157 118 202 157 119 201 158 120 201 159 121 200 160 122 199 161 123 199 161 124 198 162 125 197 163 126 197 164 127 196 165 128 196 165 129 195 166 130 194 167 131 194 168 132 193 168 133 193 169 134 192 170 134 192 171 135 191 171 136 190 172 137 190 173 138 189 173 139 189 174 140 188 175 141 188 176 142 187 176 143 187 177 144 186 178 145 186 178 146 185 179 147 185 180 148 184 180 149 183 181 150 183 182 151 182 183 152 182 183 153 181 184 154 181 185 154 180 185 155 180 186 156 179 186 157 179 187 158 178 188 159 178 188 160 177 189 161 177 190 162 176 190 163 176 191 164 175 192 165 175 192 165 174 193 166 174 194 167 174 194 168 173 195 169 173 195 170 172 196 171 172 197 172 171 197 173 171 198 174 170 199 174 170 199 175 169 200 176 169 200 177 168 201 178 168 202 179 167 202 180 167 203 181 167 203 182 166 204 182 166 204 183 165 205 184 165 206 185 164 206 186 164 207 187 163 207 188 163 208 189 163 209 189 162 209 190 162 210 191 161 210 192 161 211 193 160 211 194 160 212 195 159 213 196 159 213 196 159 214 197 158 214 198 158 215 199 157 215 200 157 216 201 157 216 201 156 217 202 156 218 203 155 218 204 155 219 205 154 219 206 154 220 207 154 220 207 153 221 208 153 221 209 152 222 210 152 222 211 152 223 212 151 223 212 151 224 213 150 224 214 150 225 215 150 226 216 149 226 217 149 227 217 148 227 218 148 228 219 148 228 220 147 229 221 147 229 222 146 230 222 146 230 223 146 231 224 145 231 225 145 232 226 144 232 227 144 233 227 144 233 228 143 234 229 143 234 230 142 235 231 142 235 231 142 236 232 141 236 233 141 237 234 141 237 235 140 238 235 140 238 236 139 239 237 139 239 238 139 240 239 138 240 240 138 241 240 138 241 241 137 241 242 137 242 243 136 242 244 136 243 244 136 243 245 135 244 246 135 244 247 135 245 247 134 245 248 134 246 249 133 246 250 133 247 251 133 247 251 132 248 252 132 248 253 132 249 254 131 249 255 131 249 255 131 250 256 130 250 257 130 251 258 129 251 259 129 252 259 129 252 260 128 253 261 128 253 262 128 254 262 127 254 263 127 255 264 
255 0 0 255 21 4 255 28 6 255 34 9 255 39 11 255 43 13 255 47 15 255 50 17 255 53 19 255 56 21 255 59 23 255 61 25 255 64 26 255 66 28 255 69 30 255 71 31 255 73 33 255 75 34 255 77 36 255 79 37 255 81 39 255 82 40 255 84 42 255 86 43 255 88 44 255 89 46 255 91 47 255 92 49 255 94 50 255 95 51 255 97 53 255 98 54 255 100 55 255 101 57 255 102 58 255 104 59 255 105 60 255 106 62 255 108 63 255 109 64 255 110 65 255 112 67 255 113 68 255 114 69 255 115 70 255 116 72 255 117 73 255 119 74 255 120 75 255 121 76 255 122 77 255 123 79 230 124 80 229 125 81 228 126 82 227 127 83 226 128 84 225 129 85 224 130 87 223 131 88 222 132 89 222 133 90 221 134 91 220 135 92 219 136 93 218 137 94 217 138 95 217 139 97 216 140 98 215 141 99 214 142 100 213 143 101 213 144 102 212 145 103 211 146 104 211 147 105 210 147 106 209 148 107 208 149 108 208 150 109 207 151 110 206 152 111 206 153 112 205 153 113 204 154 115 204 155 116 203 156 117 202 157 118 202 157 119 201 158 120 201 159 121 200 160 122 199 161 123 199 161 124 198 162 125 197 163 126 197 164 127 196 165 128 196 165 129 195 166 130 194 167 131 194 168 132 193 168 133 193 169 134 192 170 134 192 171 135 191 171 136 190 172 137 190 173 138 189 173 139 189 174 140 188 175 141 188 176 142 187 176 143 187 177 144 186 178 145 186 178 146 185 179 147 185 180 148 184 180 149 183 181 150 183 182 151 182 183 152 182 183 153 181 184 154 181 185 154 180 185 155 180 186 156 179 186 157 179 187 158 178 188 159 178 188 160 177 189 161 177 190 162 176 190 163 176 191 164 175 192 165 175 192 165 174 193 166 174 194 167 174 194 168 173 195 169 173 195 170 172 196 171 172 197 172 171 197 173 171 198 174 170 199 174 170 199 175 169 200 176 169 200 177 168 201 178 168 202 179 167 202 180 167 203 181 167 203 182 166 204 182 166 204 183 165 205 184 165 206 185 164 206 186 164 207 187 163 207 188 163 208 189 163 209 189 162 209 190 162 210 191 161 210 192 161 211 193 160 211 194 160 212 195 159 213 196 159 213 196 159 214 197 158 214 198 158 215 199 157 215 200 157 216 201 157 216 201 156 217 202 156 218 203 155 218 204 155 219 205 154 219 206 154 220 207 154 220 207 153 221 208 153 221 209 152 222 210 152 222 211 152 223 212 151 223 212 151 224 213 150 224 214 150 225 215 150 226 216 149 226 217 149 227 217 148 227 218 148 228 219 148 228 220 147 229 221 147 229 222 146 230 222 146 230 223 146 231 224 145 231 225 145 232 226 144 232 227 144 233 227 144 233 228 143 234 229 143 234 230 142 235 231 142 235 231 142 236 232 141 236 233 141 237 234 141 237 235 140 238 235 140 238 236 139 239 237 139 239 238 139 240 239 138 240 240 138 241 240 138 241 241 137 241 242 137 242 243 136 242 244 136 243 244 136 243 245 135 244 246 135 244 247 135 245 247 134 245 248 134 246 249 133 246 250 133 247 251 133 247 251 132 248 252 132 248 253 132 249 254 131 249 255 131 249 255 131 250 256 130 250 257 130 251 258 129 251 259 129 252 259 129 252 260 128 253 261 128 253 262 128 254 262 127 254 263 127 255 264 
255 0 0 255 21 4 255 28 6 255 34 9 255 39 11 255 43 13 255 47 15 255 50 17 255 53 19 255 56 21 255 59 23 255 61 25 255 64 26 255 66 28 255 69 30 255 71 31 255 73 33 255 75 34 255 77 36 255 79 37 255 81 39 255 82 40 255 84 42 255 86 43 255 88 44 255 89 46 255 91 47 255 92 49 255 94 50 255 95 51 255 97 53 255 98 54 255 100 55 255 101 57 255 102 58 255 104 59 255 105 60 255 106 62 255 108 63 255 109 64 255 110 65 255 112 67 255 113 68 255 114 69 255 115 70 255 116 72 255 117 73 255 119 74 255 120 75 255 121 76 255 122 77 255 123 79 230 124 80 229 125 81 228 126 82 227 127 83 226 128 84 225 129 85 224 130 87 223 131 88 222 132 89 222 133 90 221 134 91 220 135 92 219 136 93 218 137 94 217 138 95 217 139 97 216 140 98 215 141 99 214 142 100 213 143 101 213 144 102 212 145 103 211 146 104 211 147 105 210 147 106 209 148 107 208 149 108 208 150 109 207 151 110 206 152 111 206 153 112 205 153 113 204 154 115 204 155 116 203 156 117 202 157 118 202 157 119 201 158 120 201 159 121 200 160 122 199 161 123 199 161 124 198 162 125 197 163 126 197 164 127 196 165 128 196 165 129 195 166 130 194 167 131 194 168 132 193 168 133 193 169 134 192 170 134 192 171 135 191 171 136 190 172 137 190 173 138 189 173 139 189 174 140 188 175 141 188 176 142 187 176 143 187 177 144 186 178 145 186 178 146 185 179 147 185 180 148 184 180 149 183 181 150 183 182 151 182 183 152 182 183 153 181 184 154 181 185 154 180 185 155 180 186 156 179 186 157 179 187 158 178 188 159 178 188 160 177 189 161 177 190 162 176 190 163 176 191 164 175 192 165 175 192 165 174 193 166 174 194 167 174 194 168 173 195 169 173 195 170 172 196 171 172 197 172 171 197 173 171 198 174 170 199 174 170 199 175 169 200 176 169 200 177 168 201 178 168 202 179 167 202 180 167 203 181 167 203 182 166 204 182 166 204 183 165 205 184 165 206 185 164 206 186 164 207 187 163 207 188 163 208 189 163 209 189 162 209 190 162 210 191 161 210 192 161 211 193 160 211 194 160 212 195 159 213 196 159 213 196 159 214 197 158 214 198 158 215 199 157 215 200 157 216 201 157 216 201 156 217 202 156 218 203 155 218 204 155 219 205 154 219 206 154 220 207 154 220 207 153 221 208 153 221 209 152 222 210 152 222 211 152 223 212 151 223 212 151 224 213 150 224 214 150 225 215 150 226 216 149 226 217 149 227 217 148 227 218 148 228 219 148 228 220 147 229 221 147 229 222 146 230 222 146 230 223 146 231 224 145 231 225 145 232 226 144 232 227 144 233 227 144 233 228 143 234 229 143 234 230 142 235 231 142 235 231 142 236 232 141 236 233 141 237 234 141 237 235 140 238 235 140 238 236 139 239 237 139 239 238 139 240 239 138 240 240 138 241 240 138 241 241 137 241 242 137 242 243 136 242 244 136 243 244 136 243 245 135 244 246 135 244 247 135 245 247 134 245 248 134 246 249 133 246 250 133 247 251 133 247 251 132 248 252 132 248 253 132 249 254 131 249 255 131 249 255 131 250 256 130 250 257 130 251 258 129 251 259 129 252 259 129 252 260 128 253 261 128 253 262 128 254 262 127 254 263 127 255 264 
255 0 0 255 21 4 255 28 6 255 34 9 255 39 11 255 43 13 255 47 15 255 50 17 255 53 19 255 56 21 255 59 23 255 61 25 255 64 26 255 66 28 255 69 30 255 71 31 255 73 33 255 75 34 255 77 36 255 79 37 255 81 39 255 82 40 255 84 42 255 86 43 255 88 44 255 89 46 255 91 47 255 92 49 255 94 50 255 95 51 255 97 53 255 98 54 255 100 55 255 101 57 255 102 58 255 104 59 255 105 60 255 106 62 255 108 63 255 109 64 255 110 65 255 112 67 255 113 68 255 114 69 255 115 70 255 116 72 255 117 73 255 119 74 255 120 75 255 121 76 255 122 77 255 123 79 230 124 80 229 125 81 228 126 82 227 127 83 226 128 84 225 129 85 224 130 87 223 131 88 222 132 89 222 133 90 221 134 91 220 135 92 219 136 93 218 137 94 217 138 95 217 139 97 216 140 98 215 141 99 214 142 100 213 143 101 213 144 102 212 145 103 211 146 104 211 147 105 210 147 106 209 148 107 208 149 108 208 150 109 207 151 110 206 152 111 206 153 112 205 153 113 204 154 115 204 155 116 203 156 117 202 157 118 202 157 119 201 158 120 201 159 121 200 160 122 199 161 123 199 161 124 198 162 125 197 163 126 197 164 127 196 165 128 196 165 129 195 166 130 194 167 131 194 168 132 193 168 133 193 169 134 192 170 134 192 171 135 191 171 136 190 172 137 190 173 138 189 173 139 189 174 140 188 175 141 188 176 142 187 176 143 187 177 144 186 178 145 186 178 146 185 179 147 185 180 148 184 180 149 183 181 150 183 182 151 182 183 152 182 183 153 181 184 154 181 185 154 180 185 155 180 186 156 179 186 157 179 187 158 178 188 159 178 188 160 177 189 161 177 190 162 176 190 163 176 191 164 175 192 165 175 192 165 174 193 166 174 194 167 174 194 168 173 195 169 173 195 170 172 196 171 172 197 172 171 197 173 171 198 174 170 199 174 170 199 175 169 200 176 169 200 177 168 201 178 168 202 179 167 202 180 167 203 181 167 203 182 166 204 182 166 204 183 165 205 184 165 206 185 164 206 186 164 207 187 163 207 188 163 208 189 163 209 189 162 209 190 162 210 191 161 210 192 161 211 193 160 211 194 160 212 195 159 213 196 159 213 196 159 214 197 158 214 198 158 215 199 157 215 200 157 216 201 157 216 201 156 217 202 156 218 203 155 218 204 155 219 205 154 219 206 154 220 207 154 220 207 153 221 208 153 221 209 152 222 210 152 222 211 152 223 212 151 223 212 151 224 213 150 224 214 150 225 215 150 226 216 149 226 217 149 227 217 148 227 218 148 228 219 148 228 220 147 229 221 147 229 222 146 230 222 146 230 223 146 231 224 145 231 225 145 232 226 144 232 227 144 233 227 144 233 228 143 234 229 143 234 230 142 235 231 142 235 231 142 236 232 141 236 233 141 237 234 141 237 235 140 238 235 140 238 236 139 239 237 139 239 238 139 240 239 138 240 240 138 241 240 138 241 241 137 241 242 137 242 243 136 242 244 136 243 244 136 243 245 135 244 246 135 244 247 135 245 247 134 245 248 134 246 249 133 246 250 133 247 251 133 247 251 132 248 252 132 248 253 132 249 254 131 249 255 131 249 255 131 250 256 130 250 257 130 251 258 129 251 259 129 252 259 129 252 260 128 253 261 128 253 262 128 254 262 127 254 263 127 255 264 
255 0 0 255 21 4 255 28 6 255 34 9 255 39 11 255 43 13 255 47 15 255 50 17 255 53 19 255 56 21 255 59 23 255 61 25 255 64 26 255 66 28 255 69 30 255 71 31 255 73 33 255 75 34 255 77 36 255 79 37 255 81 39 255 82 40 255 84 42 255 86 43 255 88 44 255 89 46 255 91 47 255 92 49 255 94 50 255 95 51 255 97 53 255 98 54 255 100 55 255 101 57 255 102 58 255 104 59 255 105 60 255 106 62 255 108 63 255 109 64 255 110 65 255 112 67 255 113 68 255 114 69 255 115 70 255 116 72 255 117 73 255 119 74 255 120 75 255 121 76 255 122 77 255 123 79 230 124 80 229 125 81 228 126 82 227 127 83 226 128 84 225 129 85 224 130 87 223 131 88 222 132 89 222 133 90 221 134 91 220 135 92 219 136 93 218 137 94 217 138 95 217 139 97 216 140 98 215 141 99 214 142 100 213 143 101 213 144 102 212 145 103 211 146 104 211 147 105 210 147 106 209 148 107 208 149 108 208 150 109 207 151 110 206 152 111 206 153 112 205 153 113 204 154 115 204 155 116 203 156 117 202 157 118 202 157 119 201 158 120 201 159 121 200 160 122 199 161 123 199 161 124 198 162 125 197 163 126 197 164 127 196 165 128 196 165 129 195 166 130 194 167 131 194 168 132 193 168 133 193 169 134 192 170 134 192 171 135 191 171 136 190 172 137 190 173 138 189 173 139 189 174 140 188 175 141 188 176 142 187 176 143 187 177 144 186 178 145 186 178 146 185 179 147 185 180 148 184 180 149 183 181 150 183 182 151 182 183 152 182 183 153 181 184 154 181 185 154 180 185 155 180 186 156 179 186 157 179 187 158 178 188 159 178 188 160 177 189 161 177 190 162 176 190 163 176 191 164 175 192 165 175 192 165 174 193 166 174 194 167 174 194 168 173 195 169 173 195 170 172 196 171 172 197 172 171 197 173 171 198 174 170 199 174 170 199 175 169 200 176 169 200 177 168 201 178 168 202 179 167 202 180 167 203 181 167 203 182 166 204 182 166 204 183 165 205 184 165 206 185 164 206 186 164 207 187 163 207 188 163 208 189 163 209 189 162 209 190 162 210 191 161 210 192 161 211 193 160 211 194 160 212 195 159 213 196 159 213 196 159 214 197 158 214 198 158 215 199 157 215 200 157 216 201 157 216 201 156 217 202 156 218 203 155 218 204 155 219 205 154 219 206 154 220 207 154 220 207 153 221 208 153 221 209 152 222 210 152 222 211 152 223 212 151 223 212 151 224 213 150 224 214 150 225 215 150 226 216 149 226 217 149 227 217 148 227 218 148 228 219 148 228 220 147 229 221 147 229 222 146 230 222 146 230 223 146 231 224 145 231 225 145 232 226 144 232 227 144 233 227 144 233 228 143 234 229 143 234 230 142 235 231 142 235 231 142 236 232 141 236 233 141 237 234 141 237 235 140 238 235 140 238 236 139 239 237 139 239 238 139 240 239 138 240 240 138 241 240 138 241 241 137 241 242 137 242 243 136 242 244 136 243 244 136 243 245 135 244 246 135 244 247 135 245 247 134 245 248 134 246 249 133 246 250 133 247 251 133 247 251 132 248 252 132 248 253 132 249 254 131 249 255 131 249 255 131 250 256 130 250 257 130 251 258 129 251 259 129 252 259 129 252 260 128 253 261 128 253 262 128 254 262 127 254 263 127 255 264 
255 0 0 255 21 4 255 28 6 255 34 9 255 39 11 255 43 13 255 47 15 255 50 17 255 53 19 255 56 21 255 59 23 255 61 25 255 64 26 255 66 28 255 69 30 255 71 31 255 73 33 255 75 34 255 77 36 255 79 37 255 81 39 255 82 40 255 84 42 255 86 43 255 88 44 255 89 46 255 91 47 255 92 49 255 94 50 255 95 51 255 97 53 255 98 54 255 100 55 255 101 57 255 102 58 255 104 59 255 105 60 255 106 62 255 108 63 255 109 64 255 110 65 255 112 67 255 113 68 255 114 69 255 115 70 255 116 72 255 117 73 255 119 74 255 120 75 255 121 76 255 122 77 255 123 79 230 124 80 229 125 81 228 126 82 227 127 83 226 128 84 225 129 85 224 130 87 223 131 88 222 132 89 222 133 90 221 134 91 220 135 92 219 136 93 218 137 94 217 138 95 217 139 97 216 140 98 215 141 99 214 142 100 213 143 101 213 144 102 212 145 103 211 146 104 211 147 105 210 147 106 209 148 107 208 149 108 208 150 109 207 151 110 206 152 111 206 153 112 205 153 113 204 154 115 204 155 116 203 156 117 202 157 118 202 157 119 201 158 120 201 159 121 200 160 122 199 161 123 199 161 124 198 162 125 197 163 126 197 164 127 196 165 128 196 165 129 195 166 130 194 167 131 194 168 132 193 168 133 193 169 134 192 170 134 192 171 135 191 171 136 190 172 137 190 173 138 189 173 139 189 174 140 188 175 141 188 176 142 187 176 143 187 177 144 186 178 145 186 178 146 185 179 147 185 180 148 184 180 149 183 181 150 183 182 151 182 183 152 182 183 153 181 184 154 181 185 154 180 185 155 180 186 156 179 186 157 179 187 158 178 188 159 178 188 160 177 189 161 177 190 162 176 190 163 176 191 164 175 192 165 175 192 165 174 193 166 174 194 167 174 194 168 173 195 169 173 195 170 172 196 171 172 197 172 171 197 173 171 198 174 170 199 174 170 199 175 169 200 176 169 200 177 168 201 178 168 202 179 167 202 180 167 203 181 167 203 182 166 204 182 166 204 183 165 205 184 165 206 185 164 206 186 164 207 187 163 207 188 163 208 189 163 209 189 162 209 190 162 210 191 161 210 192 161 211 193 160 211 194 160 212 195 159 213 196 159 213 196 159 214 197 158 214 198 158 215 199 157 215 200 157 216 201 157 216 201 156 217 202 156 218 203 155 218 204 155 219 205 154 219 206 154 220 207 154 220 207 153 221 208 153 221 209 152 222 210 152 222 211 152 223 212 151 223 212 151 224 213 150 224 214 150 225 215 150 226 216 149 226 217 149 227 217 148 227 218 148 228 219 148 228 220 147 229 221 147 229 222 146 230 222 146 230 223 146 231 224 145 231 225 145 232 226 144 232 227 144 233 227 144 233 228 143 234 229 143 234 230 142 235 231 142 235 231 142 236 232 141 236 233 141 237 234 141 237 235 140 238 235 140 238 236 139 239 237 139 239 238 139 240 239 138 240 240 138 241 240 138 241 241 137 241 242 137 242 243 136 242 244 136 243 244 136 243 245 135 244 246 135 244 247 135 245 247 134 245 248 134 246 249 133 246 250 133 247 251 133 247 251 132 248 252 132 248 253 132 249 254 131 249 255 131 249 255 131 250 256 130 250 257 130 251 258 129 251 259 129 252 259 129 252 260 128 253 261 128 253 262 128 254 262 127 254 263 127 255 264 
255 0 0 255 21 4 255 28 6 255 34 9 255 39 11 255 43 13 255 47 15 255 50 17 255 53 19 255 56 21 255 59 23 255 61 25 255 64 26 255 66 28 255 69 30 255 71 31 255 73 33 255 75 34 255 77 36 255 79 37 255 81 39 255 82 40 255 84 42 255 86 43 255 88 44 255 89 46 255 91 47 255 92 49 255 94 50 255 95 51 255 97 53 255 98 54 255 100 55 255 101 57 255 102 58 255 104 59 255 105 60 255 106 62 255 108 63 255 109 64 255 110 65 255 112 67 255 113 68 255 114 69 255 115 70 255 116 72 255 117 73 255 119 74 255 120 75 255 121 76 255 122 77 255 123 79 230 124 80 229 125 81 228 126 82 227 127 83 226 128 84 225 129 85 224 130 87 223 131 88 222 132 89 222 133 90 221 134 91 220 135 92 219 136 93 218 137 94 217 138 95 217 139 97 216 140 98 215 141 99 214 142 100 213 143 101 213 144 102 212 145 103 211 146 104 211 147 105 210 147 106 209 148 107 208 149 108 208 150 109 207 151 110 206 152 111 206 153 112 205 153 113 204 154 115 204 155 116 203 156 117 202 157 118 202 157 119 201 158 120 201 159 121 200 160 122 199 161 123 199 161 124 198 162 125 197 163 126 197 164 127 196 165 128 196 165 129 195 166 130 194 167 131 194 168 132 193 168 133 193 169 134 192 170 134 192 171 135 191 171 136 190 172 137 190 173 138 189 173 139 189 174 140 188 175 141 188 176 142 187 176 143 187 177 144 186 178 145 186 178 146 185 179 147 185 180 148 184 180 149 183 181 150 183 182 151 182 183 152 182 183 153 181 184 154 181 185 154 180 185 155 180 186 156 179 186 157 179 187 158 178 188 159 178 188 160 177 189 161 177 190 162 176 190 163 176 191 164 175 192 165 175 192 165 174 193 166 174 194 167 174 194 168 173 195 169 173 195 170 172 196 171 172 197 172 171 197 173 171 198 174 170 199 174 170 199 175 169 200 176 169 200 177 168 201 178 168 202 179 167 202 180 167 203 181 167 203 182 166 204 182 166 204 183 165 205 184 165 206 185 164 206 186 164 207 187 163 207 188 163 208 189 163 209 189 162 209 190 162 210 191 161 210 192 161 211 193 160 211 194 160 212 195 159 213 196 159 213 196 159 214 197 158 214 198 158 215 199 157 215 200 157 216 201 157 216 201 156 217 202 156 218 203 155 218 204 155 219 205 154 219 206 154 220 207 154 220 207 153 221 208 153 221 209 152 222 210 152 222 211 152 223 212 151 223 212 151 224 213 150 224 214 150 225 215 150 226 216 149 226 217 149 227 217 148 227 218 148 228 219 148 228 220 147 229 221 147 229 222 146 230 222 146 230 223 146 231 224 145 231 225 145 232 226 144 232 227 144 233 227 144 233 228 143 234 229 143 234 230 142 235 231 142 235 231 142 236 232 141 236 233 141 237 234 141 237 235 140 238 235 140 238 236 139 239 237 139 239 238 139 240 239 138 240 240 138 241 240 138 241 241 137 241 242 137 242 243 136 242 244 136 243 244 136 243 245 135 244 246 135 244 247 135 245 247 134 245 248 134 246 249 133 246 250 133 247 251 133 247 251 132 248 252 132 248 253 132 249 254 131 249 255 131 249 255 131 250 256 130 250 257 130 251 258 129 251 259 129 252 259 129 252 260 128 253 261 128 253 262 128 254 262 127 254 263 127 255 264 
255 0 0 255 21 4 255 28 6 255 34 9 255 39 11 255 43 13 255 47 15 255 50 17 255 53 19 255 56 21 255 59 23 255 61 25 255 64 26 255 66 28 255 69 30 255 71 31 255 73 33 255 75 34 255 77 36 255 79 37 255 81 39 255 82 40 255 84 42 255 86 43 255 88 44 255 89 46 255 91 47 255 92 49 255 94 50 255 95 51 255 97 53 255 98 54 255 100 55 255 101 57 255 102 58 255 104 59 255 105 60 255 106 62 255 108 63 255 109 64 255 110 65 255 112 67 255 113 68 255 114 69 255 115 70 255 116 72 255 117 73 255 119 74 255 120 75 255 121 76 255 122 77 255 123 79 230 124 80 229 125 81 228 126 82 227 127 83 226 128 84 225 129 85 224 130 87 223 131 88 222 132 89 222 133 90 221 134 91 220 135 92 219 136 93 218 137 94 217 138 95 217 139 97 216 140 98 215 141 99 214 142 100 213 143 101 213 144 102 212 145 103 211 146 104 211 147 105 210 147 106 209 148 107 208 149 108 208 150 109 207 151 110 206 152 111 206 153 112 205 153 113 204 154 115 204 155 116 203 156 117 202 157 118 202 157 119 201 158 120 201 159 121 200 160 122 199 161 123 199 161 124 198 162 125 197 163 126 197 164 127 196 165 128 196 165 129 195 166 130 194 167 131 194 168 132 193 168 133 193 169 134 192 170 134 192 171 135 191 171 136 190 172 137 190 173 138 189 173 139 189 174 140 188 175 141 188 176 142 187 176 143 187 177 144 186 178 145 186 178 146 185 179 147 185 180 148 184 180 149 183 181 150 183 182 151 182 183 152 182 183 153 181 184 154 181 185 154 180 185 155 180 186 156 179 186 157 179 187 158 178 188 159 178 188 160 177 189 161 177 190 162 176 190 163 176 191 164 175 192 165 175 192 165 174 193 166 174 194 167 174 194 168 173 195 169 173 195 170 172 196 171 172 197 172 171 197 173 171 198 174 170 199 174 170 199 175 169 200 176 169 200 177 168 201 178 168 202 179 167 202 180 167 203 181 167 203 182 166 204 182 166 204 183 165 205 184 165 206 185 164 206 186 164 207 187 163 207 188 163 208 189 163 209 189 162 209 190 162 210 191 161 210 192 161 211 193 160 211 194 160 212 195 159 213 196 159 213 196 159 214 197 158 214 198 158 215 199 157 215 200 157 216 201 157 216 201 156 217 202 156 218 203 155 218 204 155 219 205 154 219 206 154 220 207 154 220 207 153 221 208 153 221 209 152 222 210 152 222 211 152 223 212 151 223 212 151 224 213 150 224 214 150 225 215 150 226 216 149 226 217 149 227 217 148 227 218 148 228 219 148 228 220 147 229 221 147 229 222 146 230 222 146 230 223 146 231 224 145 231 225 145 232 226 144 232 227 144 233 227 144 233 228 143 234 229 143 234 230 142 235 231 142 235 231 142 236 232 141 236 233 141 237 234 141 237 235 140 238 235 140 238 236 139 239 237 139 239 238 139 240 239 138 240 240 138 241 240 138 241 241 137 241 242 137 242 243 136 242 244 136 243 244 136 243 245 135 244 246 135 244 247 135 245 247 134 245 248 134 246 249 133 246 250 133 247 251 133 247 251 132 248 252 132 248 253 132 249 254 131 249 255 131 249 255 131 250 256 130 250 257 130 251 258 129 251 259 129 252 259 129 252 260 128 253 261 128 253 262 128 254 262 127 254 263 127 255 264 
255 0 0 255 21 4 255 28 6 255 34 9 255 39 11 255 43 13 255 47 15 255 50 17 255 53 19 255 56 21 255 59 23 255 61 25 255 64 26 255 66 28 255 69 30 255 71 31 255 73 33 255 75 34 255 77 36 255 79 37 255 81 39 255 82 40 255 84 42 255 86 43 255 88 44 255 89 46 255 91 47 255 92 49 255 94 50 255 95 51 255 97 53 255 98 54 255 100 55 255 101 57 255 102 58 255 104 59 255 105 60 255 106 62 255 108 63 255 109 64 255 110 65 255 112 67 255 113 68 255 114 69 255 115 70 255 116 72 255 117 73 255 119 74 255 120 75 255 121 76 255 122 77 255 123 79 230 124 80 229 125 81 228 126 82 227 127 83 226 128 84 225 129 85 224 130 87 223 131 88 222 132 89 222 133 90 221 134 91 220 135 92 219 136 93 218 137 94 217 138 95 217 139 97 216 140 98 215 141 99 214 142 100 213 143 101 213 144 102 212 145 103 211 146 104 211 147 105 210 147 106 209 148 107 208 149 108 208 150 109 207 151 110 206 152 111 206 153 112 205 153 113 204 154 115 204 155 116 203 156 117 202 157 118 202 157 119 201 158 120 201 159 121 200 160 122 199 161 123 199 161 124 198 162 125 197 163 126 197 164 127 196 165 128 196 165 129 195 166 130 194 167 131 194 168 132 193 168 133 193 169 134 192 170 134 192 171 135 191 171 136 190 172 137 190 173 138 189 173 139 189 174 140 188 175 141 188 176 142 187 176 143 187 177 144 186 178 145 186 178 146 185 179 147 185 180 148 184 180 149 183 181 150 183 182 151 182 183 152 182 183 153 181 184 154 181 185 154 180 185 155 180 186 156 179 186 157 179 187 158 178 188 159 178 188 160 177 189 161 177 190 162 176 190 163 176 191 164 175 192 165 175 192 165 174 193 166 174 194 167 174 194 168 173 195 169 173 195 170 172 196 171 172 197 172 171 197 173 171 198 174 170 199 174 170 199 175 169 200 176 169 200 177 168 201 178 168 202 179 167 202 180 167 203 181 167 203 182 166 204 182 166 204 183 165 205 184 165 206 185 164 206 186 164 207 187 163 207 188 163 208 189 163 209 189 162 209 190 162 210 191 161 210 192 161 211 193 160 211 194 160 212 195 159 213 196 159 213 196 159 214 197 158 214 198 158 215 199 157 215 200 157 216 201 157 216 201 156 217 202 156 218 203 155 218 204 155 219 205 154 219 206 154 220 207 154 220 207 153 221 208 153 221 209 152 222 210 152 222 211 152 223 212 151 223 212 151 224 213 150 224 214 150 225 215 150 226 216 149 226 217 149 227 217 148 227 218 148 228 219 148 228 220 147 229 221 147 229 222 146 230 222 146 230 223 146 231 224 145 231 225 145 232 226 144 232 227 144 233 227 144 233 228 143 234 229 143 234 230 142 235 231 142 235 231 142 236 232 141 236 233 141 237 234 141 237 235 140 238 235 140 238 236 139 239 237 139 239 238 139 240 239 138 240 240 138 241 240 138 241 241 137 241 242 137 242 243 136 242 244 136 243 244 136 243 245 135 244 246 135 244 247 135 245 247 134 245 248 134 246 249 133 246 250 133 247 251 133 247 251 132 248 252 132 248 253 132 249 254 131 249 255 131 249 255 131 250 256 130 250 257 130 251 258 129 251 259 129 252 259 129 252 260 128 253 261 128 253 262 128 254 262 127 254 263 127 255 264 
255 0 0 255 21 4 255 28 6 255 34 9 255 39 11 255 43 13 255 47 15 255 50 17 255 53 19 255 56 21 255 59 23 255 61 25 255 64 26 255 66 28 255 69 30 255 71 31 255 73 33 255 75 34 255 77 36 255 79 37 255 81 39 255 82 40 255 84 42 255 86 43 255 88 44 255 89 46 255 91 47 255 92 49 255 94 50 255 95 51 255 97 53 255 98 54 255 100 55 255 101 57 255 102 58 255 104 59 255 105 60 255 106 62 255 108 63 255 109 64 255 110 65 255 112 67 255 113 68 255 114 69 255 115 70 255 116 72 255 117 73 255 119 74 255 120 75 255 121 76 255 122 77 255 123 79 230 124 80 229 125 81 228 126 82 227 127 83 226 128 84 225 129 85 224 130 87 223 131 88 222 132 89 222 133 90 221 134 91 220 135 92 219 136 93 218 137 94 217 138 95 217 139 97 216 140 98 215 141 99 214 142 100 213 143 101 213 144 102 212 145 103 211 146 104 211 147 105 210 147 106 209 148 107 208 149 108 208 150 109 207 151 110 206 152 111 206 153 112 205 153 113 204 154 115 204 155 116 203 156 117 202 157 118 202 157 119 201 158 120 201 159 121 200 160 122 199 161 123 199 161 124 198 162 125 197 163 126 197 164 127 196 165 128 196 165 129 195 166 130 194 167 131 194 168 132 193 168 133 193 169 134 192 170 134 192 171 135 191 171 136 190 172 137 190 173 138 189 173 139 189 174 140 188 175 141 188 176 142 187 176 143 187 177 144 186 178 145 186 178 146 185 179 147 185 180 148 184 180 149 183 181 150 183 182 151 182 183 152 182 183 153 181 184 154 181 185 154 180 185 155 180 186 156 179 186 157 179 187 158 178 188 159 178 188 160 177 189 161 177 190 162 176 190 163 176 191 164 175 192 165 175 192 165 174 193 166 174 194 167 174 194 168 173 195 169 173 195 170 172 196 171 172 197 172 171 197 173 171 198 174 170 199 174 170 199 175 169 200 176 169 200 177 168 201 178 168 202 179 167 202 180 167 203 181 167 203 182 166 204 182 166 204 183 165 205 184 165 206 185 164 206 186 164 207 187 163 207 188 163 208 189 163 209 189 162 209 190 162 210 191 161 210 192 161 211 193 160 211 194 160 212 195 159 213 196 159 213 196 159 214 197 158 214 198 158 215 199 157 215 200 157 216 201 157 216 201 156 217 202 156 218 203 155 218 204 155 219 205 154 219 206 154 220 207 154 220 207 153 221 208 153 221 209 152 222 210 152 222 211 152 223 212 151 223 212 151 224 213 150 224 214 150 225 215 150 226 216 149 226 217 149 227 217 148 227 218 148 228 219 148 228 220 147 229 221 147 229 222 146 230 222 146 230 223 146 231 224 145 231 225 145 232 226 144 232 227 144 233 227 144 233 228 143 234 229 143 234 230 142 235 231 142 235 231 142 236 232 141 236 233 141 237 234 141 237 235 140 238 235 140 238 236 139 239 237 139 239 238 139 240 239 138 240 240 138 241 240 138 241 241 137 241 242 137 242 243 136 242 244 136 243 244 136 243 245 135 244 246 135 244 247 135 245 247 134 245 248 134 246 249 133 246 250 133 247 251 133 247 251 132 248 252 132 248 253 132 249 254 131 249 255 131 249 255 131 250 256 130 250 257 130 251 258 129 251 259 129 252 259 129 252 260 128 253 261 128 253 262 128 254 262 127 254 263 127 255 264 
255 0 0 255 21 4 255 28 6 255 34 9 255 39 11 255 43 13 255 47 15 255 50 17 255 53 19 255 56 21 255 59 23 255 61 25 255 64 26 255 66 28 255 69 30 255 71 31 255 73 33 255 75 34 255 77 36 255 79 37 255 81 39 255 82 40 255 84 42 255 86 43 255 88 44 255 89 46 255 91 47 255 92 49 255 94 50 255 95 51 255 97 53 255 98 54 255 100 55 255 101 57 255 102 58 255 104 59 255 105 60 255 106 62 255 108 63 255 109 64 255 110 65 255 112 67 255 113 68 255 114 69 255 115 70 255 116 72 255 117 73 255 119 74 255 120 75 255 121 76 255 122 77 255 123 79 230 124 80 229 125 81 228 126 82 227 127 83 226 128 84 225 129 85 224 130 87 223 131 88 222 132 89 222 133 90 221 134 91 220 135 92 219 136 93 218 137 94 217 138 95 217 139 97 216 140 98 215 141 99 214 142 100 213 143 101 213 144 102 212 145 103 211 146 104 211 147 105 210 147 106 209 148 107 208 149 108 208 150 109 207 151 110 206 152 111 206 153 112 205 153 113 204 154 115 204 155 116 203 156 117 202 157 118 202 157 119 201 158 120 201 159 121 200 160 122 199 161 123 199 161 124 198 162 125 197 163 126 197 164 127 196 165 128 196 165 129 195 166 130 194 167 131 194 168 132 193 168 133 193 169 134 192 170 134 192 171 135 191 171 136 190 172 137 190 173 138 189 173 139 189 174 140 188 175 141 188 176 142 187 176 143 187 177 144 186 178 145 186 178 146 185 179 147 185 180 148 184 180 149 183 181 150 183 182 151 182 183 152 182 183 153 181 184 154 181 185 154 180 185 155 180 186 156 179 186 157 179 187 158 178 188 159 178 188 160 177 189 161 177 190 162 176 190 163 176 191 164 175 192 165 175 192 165 174 193 166 174 194 167 174 194 168 173 195 169 173 195 170 172 196 171 172 197 172 171 197 173 171 198 174 170 199 174 170 199 175 169 200 176 169 200 177 168 201 178 168 202 179 167 202 180 167 203 181 167 203 182 166 204 182 166 204 183 165 205 184 165 206 185 164 206 186 164 207 187 163 207 188 163 208 189 163 209 189 162 209 190 162 210 191 161 210 192 161 211 193 160 211 194 160 212 195 159 213 196 159 213 196 159 214 197 158 214 198 158 215 199 157 215 200 157 216 201 157 216 201 156 217 202 156 218 203 155 218 204 155 219 205 154 219 206 154 220 207 154 220 207 153 221 208 153 221 209 152 222 210 152 222 211 152 223 212 151 223 212 151 224 213 150 224 214 150 225 215 150 226 216 149 226 217 149 227 217 148 227 218 148 228 219 148 228 220 147 229 221 147 229 222 146 230 222 146 230 223 146 231 224 145 231 225 145 232 226 144 232 227 144 233 227 144 233 228 143 234 229 143 234 230 142 235 231 142 235 231 142 236 232 141 236 233 141 237 234 141 237 235 140 238 235 140 238 236 139 239 237 139 239 238 139 240 239 138 240 240 138 241 240 138 241 241 137 241 242 137 242 243 136 242 244 136 243 244 136 243 245 135 244 246 135 244 247 135 245 247 134 245 248 134 246 249 133 246 250 133 247 251 133 247 251 132 248 252 132 248 253 132 249 254 131 249 255 131 249 255 131 250 256 130 250 257 130 251 258 129 251 259 129 252 259 129 252 260 128 253 261 128 253 262 128 254 262 127 254 263 127 255 264 
255 0 0 255 21 4 255 28 6 255 34 9 255 39 11 255 43 13 255 47 15 255 50 17 255 53 19 255 56 21 255 59 23 255 61 25 255 64 26 255 66 28 255 69 30 255 71 31 255 73 33 255 75 34 255 77 36 255 79 37 255 81 39 255 82 40 255 84 42 255 86 43 255 88 44 255 89 46 255 91 47 255 92 49 255 94 50 255 95 51 255 97 53 255 98 54 255 100 55 255 101 57 255 102 58 255 104 59 255 105 60 255 106 62 255 108 63 255 109 64 255 110 65 255 112 67 255 113 68 255 114 69 255 115 70 255 116 72 255 117 73 255 119 74 255 120 75 255 121 76 255 122 77 255 123 79 230 124 80 229 125 81 228 126 82 227 127 83 226 128 84 225 129 85 224 130 87 223 131 88 222 132 89 222 133 90 221 134 91 220 135 92 219 136 93 218 137 94 217 138 95 217 139 97 216 140 98 215 141 99 214 142 100 213 143 101 213 144 102 212 145 103 211 146 104 211 147 105 210 147 106 209 148 107 208 149 108 208 150 109 207 151 110 206 152 111 206 153 112 205 153 113 204 154 115 204 155 116 203 156 117 202 157 118 202 157 119 201 158 120 201 159 121 200 160 122 199 161 123 199 161 124 198 162 125 197 163 126 197 164 127 196 165 128 196 165 129 195 166 130 194 167 131 194 168 132 193 168 133 193 169 134 192 170 134 192 171 135 191 171 136 190 172 137 190 173 138 189 173 139 189 174 140 188 175 141 188 176 142 187 176 143 187 177 144 186 178 145 186 178 146 185 179 147 185 180 148 184 180 149 183 181 150 183 182 151 182 183 152 182 183 153 181 184 154 181 185 154 180 185 155 180 186 156 179 186 157 179 187 158 178 188 159 178 188 160 177 189 161 177 190 162 176 190 163 176 191 164 175 192 165 175 192 165 174 193 166 174 194 167 174 194 168 173 195 169 173 195 170 172 196 171 172 197 172 171 197 173 171 198 174 170 199 174 170 199 175 169 200 176 169 200 177 168 201 178 168 202 179 167 202 180 167 203 181 167 203 182 166 204 182 166 204 183 165 205 184 165 206 185 164 206 186 164 207 187 163 207 188 163 208 189 163 209 189 162 209 190 162 210 191 161 210 192 161 211 193 160 211 194 160 212 195 159 213 196 159 213 196 159 214 197 158 214 198 158 215 199 157 215 200 157 216 201 157 216 201 156 217 202 156 218 203 155 218 204 155 219 205 154 219 206 154 220 207 154 220 207 153 221 208 153 221 209 152 222 210 152 222 211 152 223 212 151 223 212 151 224 213 150 224 214 150 225 215 150 226 216 149 226 217 149 227 217 148 227 218 148 228 219 148 228 220 147 229 221 147 229 222 146 230 222 146 230 223 146 231 224 145 231 225 145 232 226 144 232 227 144 233 227 144 233 228 143 234 229 143 234 230 142 235 231 142 235 231 142 236 232 141 236 233 141 237 234 141 237 235 140 238 235 140 238 236 139 239 237 139 239 238 139 240 239 138 240 240 138 241 240 138 241 241 137 241 242 137 242 243 136 242 244 136 243 244 136 243 245 135 244 246 135 244 247 135 245 247 134 245 248 134 246 249 133 246 250 133 247 251 133 247 251 132 248 252 132 248 253 132 249 254 131 249 255 131 249 255 131 250 256 130 250 257 130 251 258 129 251 259 129 252 259 129 252 260 128 253 261 128 253 262 128 254 262 127 254 263 127 255 264 
255 0 0 255 21 4 255 28 6 255 34 9 255 39 11 255 43 13 255 47 15 255 50 17 255 53 19 255 56 21 255 59 23 255 61 25 255 64 26 255 66 28 255 69 30 255 71 31 255 73 33 255 75 34 255 77 36 255 79 37 255 81 39 255 82 40 255 84 42 255 86 43 255 88 44 255 89 46 255 91 47 255 92 49 255 94 50 255 95 51 255 97 53 255 98 54 255 100 55 255 101 57 255 102 58 255 104 59 255 105 60 255 106 62 255 108 63 255 109 64 255 110 65 255 112 67 255 113 68 255 114 69 255 115 70 255 116 72 255 117 73 255 119 74 255 120 75 255 121 76 255 122 77 255 123 79 230 124 80 229 125 81 228 126 82 227 127 83 226 128 84 225 129 85 224 130 87 223 131 88 222 132 89 222 133 90 221 134 91 220 135 92 219 136 93 218 137 94 217 138 95 217 139 97 216 140 98 215 141 99 214 142 100 213 143 101 213 144 102 212 145 103 211 146 104 211 147 105 210 147 106 209 148 107 208 149 108 208 150 109 207 151 110 206 152 111 206 153 112 205 153 113 204 154 115 204 155 116 203 156 117 202 157 118 202 157 119 201 158 120 201 159 121 200 160 122 199 161 123 199 161 124 198 162 125 197 163 126 197 164 127 196 165 128 196 165 129 195 166 130 194 167 131 194 168 132 193 168 133 193 169 134 192 170 134 192 171 135 191 171 136 190 172 137 190 173 138 189 173 139 189 174 140 188 175 141 188 176 142 187 176 143 187 177 144 186 178 145 186 178 146 185 179 147 185 180 148 184 180 149 183 181 150 183 182 151 182 183 152 182 183 153 181 184 154 181 185 154 180 185 155 180 186 156 179 186 157 179 187 158 178 188 159 178 188 160 177 189 161 177 190 162 176 190 163 176 191 164 175 192 165 175 192 165 174 193 166 174 194 167 174 194 168 173 195 169 173 195 170 172 196 171 172 197 172 171 197 173 171 198 174 170 199 174 170 199 175 169 200 176 169 200 177 168 201 178 168 202 179 167 202 180 167 203 181 167 203 182 166 204 182 166 204 183 165 205 184 165 206 185 164 206 186 164 207 187 163 207 188 163 208 189 163 209 189 162 209 190 162 210 191 161 210 192 161 211 193 160 211 194 160 212 195 159 213 196 159 213 196 159 214 197 158 214 198 158 215 199 157 215 200 157 216 201 157 216 201 156 217 202 156 218 203 155 218 204 155 219 205 154 219 206 154 220 207 154 220 207 153 221 208 153 221 209 152 222 210 152 222 211 152 223 212 151 223 212 151 224 213 150 224 214 150 225 215 150 226 216 149 226 217 149 227 217 148 227 218 148 228 219 148 228 220 147 229 221 147 229 222 146 230 222 146 230 223 146 231 224 145 231 225 145 232 226 144 232 227 144 233 227 144 233 228 143 234 229 143 234 230 142 235 231 142 235 231 142 236 232 141 236 233 141 237 234 141 237 235 140 238 235 140 238 236 139 239 237 139 239 238 139 240 239 138 240 240 138 241 240 138 241 241 137 241 242 137 242 243 136 242 244 136 243 244 136 243 245 135 244 246 135 244 247 135 245 247 134 245 248 134 246 249 133 246 250 133 247 251 133 247 251 132 248 252 132 248 253 132 249 254 131 249 255 131 249 255 131 250 256 130 250 257 130 251 258 129 251 259 129 252 259 129 252 260 128 253 261 128 253 262 128 254 262 127 254 263 127 255 264 
255 0 0 255 21 4 255 28 6 255 34 9 255 39 11 255 43 13 255 47 15 255 50 17 255 53 19 255 56 21 255 59 23 255 61 25 255 64 26 255 66 28 255 69 30 255 71 31 255 73 33 255 75 34 255 77 36 255 79 37 255 81 39 255 82 40 255 84 42 255 86 43 255 88 44 255 89 46 255 91 47 255 92 49 255 94 50 255 95 51 255 97 53 255 98 54 255 100 55 255 101 57 255 102 58 255 104 59 255 105 60 255 106 62 255 108 63 255 109 64 255 110 65 255 112 67 255 113 68 255 114 69 255 115 70 255 116 72 255 117 73 255 119 74 255 120 75 255 121 76 255 122 77 255 123 79 230 124 80 229 125 81 228 126 82 227 127 83 226 128 84 225 129 85 224 130 87 223 131 88 222 132 89 222 133 90 221 134 91 220 135 92 219 136 93 218 137 94 217 138 95 217 139 97 216 140 98 215 141 99 214 142 100 213 143 101 213 144 102 212 145 103 211 146 104 211 147 105 210 147 106 209 148 107 208 149 108 208 150 109 207 151 110 206 152 111 206 153 112 205 153 113 204 154 115 204 155 116 203 156 117 202 157 118 202 157 119 201 158 120 201 159 121 200 160 122 199 161 123 199 161 124 198 162 125 197 163 126 197 164 127 196 165 128 196 165 129 195 166 130 194 167 131 194 168 132 193 168 133 193 169 134 192 170 134 192 171 135 191 171 136 190 172 137 190 173 138 189 173 139 189 174 140 188 175 141 188 176 142 187 176 143 187 177 144 186 178 145 186 178 146 185 179 147 185 180 148 184 180 149 183 181 150 183 182 151 182 183 152 182 183 153 181 184 154 181 185 154 180 185 155 180 186 156 179 186 157 179 187 158 178 188 159 178 188 160 177 189 161 177 190 162 176 190 163 176 191 164 175 192 165 175 192 165 174 193 166 174 194 167 174 194 168 173 195 169 173 195 170 172 196 171 172 197 172 171 197 173 171 198 174 170 199 174 170 199 175 169 200 176 169 200 177 168 201 178 168 202 179 167 202 180 167 203 181 167 203 182 166 204 182 166 204 183 165 205 184 165 206 185 164 206 186 164 207 187 163 207 188 163 208 189 163 209 189 162 209 190 162 210 191 161 210 192 161 211 193 160 211 194 160 212 195 159 213 196 159 213 196 159 214 197 158 214 198 158 215 199 157 215 200 157 216 201 157 216 201 156 217 202 156 218 203 155 218 204 155 219 205 154 219 206 154 220 207 154 220 207 153 221 208 153 221 209 152 222 210 152 222 211 152 223 212 151 223 212 151 224 213 150 224 214 150 225 215 150 226 216 149 226 217 149 227 217 148 227 218 148 228 219 148 228 220 147 229 221 147 229 222 146 230 222 146 230 223 146 231 224 145 231 225 145 232 226 144 232 227 144 233 227 144 233 228 143 234 229 143 234 230 142 235 231 142 235 231 142 236 232 141 236 233 141 237 234 141 237 235 140 238 235 140 238 236 139 239 237 139 239 238 139 240 239 138 240 240 138 241 240 138 241 241 137 241 242 137 242 243 136 242 244 136 243 244 136 243 245 135 244 246 135 244 247 135 245 247 134 245 248 134 246 249 133 246 250 133 247 251 133 247 251 132 248 252 132 248 253 132 249 254 131 249 255 131 249 255 131 250 256 130 250 257 130 251 258 129 251 259 129 252 259 129 252 260 128 253 261 128 253 262 128 254 262 127 254 263 127 255 264 
255 0 0 255 21 4 255 28 6 255 34 9 255 39 11 255 43 13 255 47 15 255 50 17 255 53 19 255 56 21 255 59 23 255 61 25 255 64 26 255 66 28 255 69 30 255 71 31 255 73 33 255 75 34 255 77 36 255 79 37 255 81 39 255 82 40 255 84 42 255 86 43 255 88 44 255 89 46 255 91 47 255 92 49 255 94 50 255 95 51 255 97 53 255 98 54 255 100 55 255 101 57 255 102 58 255 104 59 255 105 60 255 106 62 255 108 63 255 109 64 255 110 65 255 112 67 255 113 68 255 114 69 255 115 70 255 116 72 255 117 73 255 119 74 255 120 75 255 121 76 255 122 77 255 123 79 230 124 80 229 125 81 228 126 82 227 127 83 226 128 84 225 129 85 224 130 87 223 131 88 222 132 89 222 133 90 221 134 91 220 135 92 219 136 93 218 137 94 217 138 95 217 139 97 216 140 98 215 141 99 214 142 100 213 143 101 213 144 102 212 145 103 211 146 104 211 147 105 210 147 106 209 148 107 208 149 108 208 150 109 207 151 110 206 152 111 206 153 112 205 153 113 204 154 115 204 155 116 203 156 117 202 157 118 202 157 119 201 158 120 201 159 121 200 160 122 199 161 123 199 161 124 198 162 125 197 163 126 197 164 127 196 165 128 196 165 129 195 166 130 194 167 131 194 168 132 193 168 133 193 169 134 192 170 134 192 171 135 191 171 136 190 172 137 190 173 138 189 173 139 189 174 140 188 175 141 188 176 142 187 176 143 187 177 144 186 178 145 186 178 146 185 179 147 185 180 148 184 180 149 183 181 150 183 182 151 182 183 152 182 183 153 181 184 154 181 185 154 180 185 155 180 186 156 179 186 157 179 187 158 178 188 159 178 188 160 177 189 161 177 190 162 176 190 163 176 191 164 175 192 165 175 192 165 174 193 166 174 194 167 174 194 168 173 195 169 173 195 170 172 196 171 172 197 172 171 197 173 171 198 174 170 199 174 170 199 175 169 200 176 169 200 177 168 201 178 168 202 179 167 202 180 167 203 181 167 203 182 166 204 182 166 204 183 165 205 184 165 206 185 164 206 186 164 207 187 163 207 188 163 208 189 163 209 189 162 209 190 162 210 191 161 210 192 161 211 193 160 211 194 160 212 195 159 213 196 159 213 196 159 214 197 158 214 198 158 215 199 157 215 200 157 216 201 157 216 201 156 217 202 156 218 203 155 218 204 155 219 205 154 219 206 154 220 207 154 220 207 153 221 208 153 221 209 152 222 210 152 222 211 152 223 212 151 223 212 151 224 213 150 224 214 150 225 215 150 226 216 149 226 217 149 227 217 148 227 218 148 228 219 148 228 220 147 229 221 147 229 222 146 230 222 146 230 223 146 231 224 145 231 225 145 232 226 144 232 227 144 233 227 144 233 228 143 234 229 143 234 230 142 235 231 142 235 231 142 236 232 141 236 233 141 237 234 141 237 235 140 238 235 140 238 236 139 239 237 139 239 238 139 240 239 138 240 240 138 241 240 138 241 241 137 241 242 137 242 243 136 242 244 136 243 244 136 243 245 135 244 246 135 244 247 135 245 247 134 245 248 134 246 249 133 246 250 133 247 251 133 247 251 132 248 252 132 248 253 132 249 254 131 249 255 131 249 255 131 250 256 130 250 257 130 251 258 129 251 259 129 252 259 129 252 260 128 253 261 128 253 262 128 254 262 127 254 263 127 255 264 
255 0 0 255 21 4 255 28 6 255 34 9 255 39 11 255 43 13 255 47 15 255 50 17 255 53 19 255 56 21 255 59 23 255 61 25 255 64 26 255 66 28 255 69 30 255 71 31 255 73 33 255 75 34 255 77 36 255 79 37 255 81 39 255 82 40 255 84 42 255 86 43 255 88 44 255 89 46 255 91 47 255 92 49 255 94 50 255 95 51 255 97 53 255 98 54 255 100 55 255 101 57 255 102 58 255 104 59 255 105 60 255 106 62 255 108 63 255 109 64 255 110 65 255 112 67 255 113 68 255 114 69 255 115 70 255 116 72 255 117 73 255 119 74 255 120 75 255 121 76 255 122 77 255 123 79 230 124 80 229 125 81 228 126 82 227 127 83 226 128 84 225 129 85 224 130 87 223 131 88 222 132 89 222 133 90 221 134 91 220 135 92 219 136 93 218 137 94 217 138 95 217 139 97 216 140 98 215 141 99 214 142 100 213 143 101 213 144 102 212 145 103 211 146 104 211 147 105 210 147 106 209 148 107 208 149 108 208 150 109 207 151 110 206 152 111 206 153 112 205 153 113 204 154 115 204 155 116 203 156 117 202 157 118 202 157 119 201 158 120 201 159 121 200 160 122 199 161 123 199 161 124 198 162 125 197 163 126 197 164 127 196 165 128 196 165 129 195 166 130 194 167 131 194 168 132 193 168 133 193 169 134 192 170 134 192 171 135 191 171 136 190 172 137 190 173 138 189 173 139 189 174 140 188 175 141 188 176 142 187 176 143 187 177 144 186 178 145 186 178 146 185 179 147 185 180 148 184 180 149 183 181 150 183 182 151 182 183 152 182 183 153 181 184 154 181 185 154 180 185 155 180 186 156 179 186 157 179 187 158 178 188 159 178 188 160 177 189 161 177 190 162 176 190 163 176 191 164 175 192 165 175 192 165 174 193 166 174 194 167 174 194 168 173 195 169 173 195 170 172 196 171 172 197 172 171 197 173 171 198 174 170 199 174 170 199 175 169 200 176 169 200 177 168 201 178 168 202 179 167 202 180 167 203 181 167 203 182 166 204 182 166 204 183 165 205 184 165 206 185 164 206 186 164 207 187 163 207 188 163 208 189 163 209 189 162 209 190 162 210 191 161 210 192 161 211 193 160 211 194 160 212 195 159 213 196 159 213 196 159 214 197 158 214 198 158 215 199 157 215 200 157 216 201 157 216 201 156 217 202 156 218 203 155 218 204 155 219 205 154 219 206 154 220 207 154 220 207 153 221 208 153 221 209 152 222 210 152 222 211 152 223 212 151 223 212 151 224 213 150 224 214 150 225 215 150 226 216 149 226 217 149 227 217 148 227 218 148 228 219 148 228 220 147 229 221 147 229 222 146 230 222 146 230 223 146 231 224 145 231 225 145 232 226 144 232 227 144 233 227 144 233 228 143 234 229 143 234 230 142 235 231 142 235 231 142 236 232 141 236 233 141 237 234 141 237 235 140 238 235 140 238 236 139 239 237 139 239 238 139 240 239 138 240 240 138 241 240 138 241 241 137 241 242 137 242 243 136 242 244 136 243 244 136 243 245 135 244 246 135 244 247 135 245 247 134 245 248 134 246 249 133 246 250 133 247 251 133 247 251 132 248 252 132 248 253 132 249 254 131 249 255 131 249 255 131 250 256 130 250 257 130 251 258 129 251 259 129 252 259 129 252 260 128 253 261 128 253 262 128 254 262 127 254 263 127 255 264 
